ml_luts/arrival__lut3d_33.cube
TITLE "14b043d31d4ccd057989a42cde078933.jpg"
DOMAIN_MIN 0.000000 0.000000 0.000000
DOMAIN_MAX 1.000000 1.000000 1.000000
LUT_3D_SIZE 33
0.022675 0.023529 0.025848
0.022675 0.023529 0.025848
0.022989 0.023586 0.025934
0.028708 0.023563 0.026742
0.040725 0.023586 0.028587
0.060486 0.023744 0.031594
0.089085 0.024021 0.035750
0.124926 0.024221 0.041096
0.166153 0.024399 0.046821
0.220392 0.024620 0.052279
0.278709 0.024877 0.057001
0.335027 0.025063 0.060824
0.389313 0.025230 0.063771
0.448038 0.025317 0.065840
0.507250 0.025364 0.067297
0.562943 0.025359 0.068503
0.615799 0.025360 0.069382
0.665666 0.025376 0.069802
0.712309 0.025307 0.070049
0.755440 0.025176 0.070246
0.794789 0.024993 0.070236
0.830144 0.024768 0.070086
0.861198 0.024628 0.069774
0.887649 0.024645 0.069208
0.909698 0.024696 0.068566
0.927686 0.024732 0.067965
0.942287 0.024786 0.067449
0.954004 0.024811 0.067006
0.963352 0.024819 0.066570
0.970810 0.024872 0.066200
0.976896 0.024872 0.065966
0.982053 0.024872 0.065759
0.986694 0.024872 0.065582
0.022675 0.023529 0.025848
0.022675 0.023529 0.025848
0.022989 0.023586 0.025934
0.028708 0.023563 0.026742
0.040725 0.023586 0.028587
0.060486 0.023744 0.031594
0.089085 0.024021 0.035750
0.124926 0.024221 0.041096
0.166153 0.024399 0.046821
0.220392 0.024620 0.052279
0.278709 0.024877 0.057001
0.335027 0.025063 0.060824
0.389313 0.025230 0.063771
0.448038 0.025317 0.065840
0.507250 0.025364 0.067297
0.562943 0.025359 0.068503
0.615799 0.025360 0.069382
0.665666 0.025376 0.069802
0.712309 0.025307 0.070049
0.755440 0.025176 0.070246
0.794789 0.024993 0.070236
0.830144 0.024768 0.070086
0.861198 0.024628 0.069774
0.887649 0.024645 0.069208
0.909698 0.024696 0.068566
0.927686 0.024732 0.067965
0.942287 0.024786 0.067449
0.954004 0.024811 0.067006
0.963352 0.024819 0.066570
0.970810 0.024872 0.066200
0.976896 0.024872 0.065966
0.982053 0.024872 0.065759
0.986694 0.024872 0.065582
0.022445 0.024101 0.025820
0.022445 0.024101 0.025820
0.023243 0.023997 0.025852
0.028760 0.023600 0.026371
0.040379 0.023736 0.028162
0.060447 0.023771 0.031165
0.089044 0.023998 0.035436
0.124914 0.024215 0.040744
0.166174 0.024377 0.046450
0.220359 0.024612 0.052011
0.278692 0.024877 0.056713
0.335027 0.025063 0.060604
0.389241 0.025284 0.063474
0.447992 0.025352 0.065536
0.507234 0.025364 0.067023
0.562868 0.025404 0.068187
0.615727 0.025389 0.069096
0.665717 0.025307 0.069667
0.712389 0.025230 0.069970
0.755440 0.025171 0.070033
0.794746 0.025033 0.069954
0.830030 0.024825 0.069868
0.861120 0.024667 0.069574
0.887641 0.024645 0.068999
0.909684 0.024704 0.068351
0.927715 0.024755 0.067793
0.942311 0.024786 0.067278
0.954004 0.024811 0.066853
0.963352 0.024819 0.066513
0.970810 0.024872 0.066143
0.976896 0.024874 0.065901
0.982053 0.024899 0.065590
0.986694 0.024872 0.065497
0.023066 0.029477 0.026205
0.023066 0.029477 0.026205
0.023637 0.029596 0.026130
0.031780 0.030142 0.026473
0.042752 0.028763 0.026816
0.061429 0.025967 0.027235
0.088979 0.024385 0.029950
0.124794 0.024146 0.035362
0.166072 0.024286 0.041377
0.220027 0.024628 0.047193
0.278447 0.024838 0.052250
0.334716 0.025053 0.056275
0.388970 0.025229 0.059485
0.447647 0.025359 0.061754
0.506884 0.025369 0.063555
0.562572 0.025381 0.064928
0.615446 0.025405 0.065868
0.665472 0.025318 0.066726
0.712279 0.025164 0.067416
0.755416 0.025054 0.067685
0.794677 0.024942 0.067740
0.829944 0.024794 0.067712
0.860861 0.024729 0.067440
0.887558 0.024598 0.067204
0.909607 0.024676 0.066601
0.927662 0.024729 0.066085
0.942262 0.024758 0.065630
0.953976 0.024787 0.065182
0.963324 0.024812 0.064871
0.970782 0.024819 0.064643
0.976869 0.024846 0.064380
0.982026 0.024875 0.064113
0.986694 0.024872 0.063997
0.023292 0.041752 0.026699
0.023292 0.041752 0.026699
0.023511 0.042095 0.026663
0.032655 0.043456 0.026969
0.049318 0.044049 0.027207
0.068615 0.040556 0.027478
0.095202 0.035339 0.028186
0.128084 0.029760 0.029570
0.166195 0.025405 0.031683
0.219384 0.024625 0.037030
0.277724 0.024862 0.042770
0.334128 0.024983 0.047524
0.388405 0.025156 0.051270
0.447088 0.025301 0.054003
0.506352 0.025320 0.056297
0.562119 0.025281 0.058246
0.615150 0.025232 0.059755
0.665172 0.025208 0.060882
0.711765 0.025190 0.061761
0.754931 0.025073 0.062524
0.794386 0.024893 0.063033
0.829655 0.024772 0.063313
0.860739 0.024645 0.063462
0.887392 0.024539 0.063417
0.909513 0.024620 0.063057
0.927544 0.024672 0.062672
0.942128 0.024702 0.062434
0.953866 0.024731 0.062185
0.963221 0.024761 0.061897
0.970726 0.024784 0.061697
0.976814 0.024790 0.061557
0.981996 0.024819 0.061370
0.986641 0.024819 0.061226
0.023650 0.062223 0.027614
0.023650 0.062223 0.027614
0.024160 0.062426 0.027561
0.032731 0.063878 0.028002
0.053095 0.067298 0.028126
0.080006 0.067194 0.028373
0.107636 0.061155 0.028876
0.139602 0.052219 0.029516
0.176224 0.042574 0.030514
0.226487 0.035124 0.032365
0.281635 0.030187 0.034587
0.335338 0.027087 0.036725
0.387910 0.025559 0.039048
0.446096 0.025241 0.042002
0.505441 0.025217 0.045134
0.561260 0.025206 0.047792
0.614314 0.025182 0.050085
0.664505 0.025080 0.052142
0.711286 0.025025 0.053756
0.754465 0.024955 0.055058
0.793886 0.024819 0.056204
0.829273 0.024673 0.057092
0.860519 0.024483 0.057777
0.887149 0.024454 0.058093
0.909255 0.024535 0.058147
0.927350 0.024594 0.058112
0.942028 0.024643 0.058009
0.953748 0.024672 0.057937
0.963104 0.024699 0.057911
0.970620 0.024706 0.057848
0.976754 0.024729 0.057734
0.981915 0.024734 0.057681
0.986582 0.024760 0.057608
0.023985 0.092310 0.028961
0.023985 0.092310 0.028961
0.024534 0.092435 0.028904
0.032776 0.093949 0.029258
0.051526 0.097409 0.029674
0.087222 0.102923 0.030022
0.124914 0.101243 0.030447
0.158577 0.091466 0.031014
0.194220 0.078887 0.031793
0.242679 0.066816 0.032937
0.296049 0.056452 0.034407
0.348225 0.048076 0.035995
0.399171 0.041665 0.037568
0.455422 0.037953 0.039271
0.512575 0.035389 0.040912
0.566517 0.032559 0.042356
0.617997 0.030310 0.043760
0.666843 0.029041 0.045232
0.712774 0.028070 0.046732
0.755344 0.027144 0.048116
0.794222 0.026295 0.049392
0.829256 0.025459 0.050622
0.860252 0.024747 0.051655
0.886839 0.024383 0.052545
0.909030 0.024453 0.053168
0.927187 0.024531 0.053602
0.941878 0.024584 0.053909
0.953658 0.024613 0.054153
0.963035 0.024639 0.054340
0.970555 0.024642 0.054450
0.976717 0.024671 0.054529
0.981851 0.024695 0.054663
0.986522 0.024700 0.054676
0.024191 0.137646 0.031453
0.024191 0.137646 0.031453
0.024935 0.137693 0.031463
0.032798 0.139261 0.031709
0.050620 0.142522 0.032126
0.084749 0.148789 0.032652
0.136534 0.156483 0.033608
0.182006 0.151345 0.033970
0.219337 0.138456 0.034507
0.266368 0.123337 0.035422
0.317892 0.108827 0.036495
0.368177 0.095816 0.037743
0.417299 0.084641 0.039137
0.471627 0.078797 0.040308
0.527002 0.075844 0.041371
0.579310 0.073668 0.042500
0.629217 0.072204 0.043704
0.676568 0.070820 0.044992
0.720976 0.069328 0.046262
0.762118 0.067599 0.047461
0.799833 0.065688 0.048710
0.833859 0.063669 0.049982
0.863975 0.061731 0.051054
0.889848 0.060024 0.051981
0.911618 0.058549 0.052887
0.929548 0.057079 0.053708
0.944043 0.055813 0.054262
0.955626 0.054910 0.054638
0.964896 0.054120 0.055025
0.972319 0.053553 0.055316
0.978353 0.052879 0.055440
0.983438 0.052380 0.055640
0.988132 0.051964 0.055831
0.024620 0.194924 0.035278
0.024620 0.194924 0.035278
0.025078 0.195102 0.035285
0.032949 0.196566 0.035425
0.049821 0.199847 0.035792
0.079996 0.205354 0.036319
0.132414 0.215044 0.037461
0.197678 0.224264 0.038670
0.246636 0.214470 0.038849
0.294780 0.200043 0.039471
0.344530 0.185747 0.040403
0.392754 0.172352 0.041327
0.439953 0.160744 0.042383
0.492375 0.155028 0.043300
0.545890 0.152587 0.044196
0.596303 0.150403 0.045138
0.644264 0.148388 0.046154
0.689679 0.146409 0.047209
0.732169 0.144432 0.048190
0.771506 0.142441 0.049173
0.807511 0.140474 0.050132
0.839900 0.138539 0.050988
0.868564 0.136841 0.051786
0.893230 0.135136 0.052563
0.913938 0.133663 0.053238
0.930914 0.132474 0.053767
0.944720 0.131592 0.054254
0.955755 0.130639 0.054604
0.964613 0.129912 0.054876
0.971627 0.129639 0.055036
0.977406 0.129101 0.055237
0.982297 0.128803 0.055357
0.986709 0.128449 0.055526
0.024728 0.258855 0.040009
0.024728 0.258855 0.040009
0.025256 0.258960 0.040030
0.032677 0.260437 0.040222
0.048627 0.263683 0.040665
0.076835 0.268744 0.041134
0.124401 0.277458 0.041990
0.191770 0.290320 0.043503
0.271697 0.298918 0.045180
0.325548 0.284356 0.045132
0.372435 0.269193 0.045539
0.418864 0.257362 0.046336
0.464054 0.246733 0.047143
0.514508 0.241554 0.047849
0.566055 0.239474 0.048552
0.614512 0.237461 0.049359
0.660500 0.235348 0.050176
0.703911 0.233332 0.051002
0.744510 0.231561 0.051795
0.782039 0.229704 0.052493
0.816289 0.227836 0.053219
0.847066 0.226273 0.053919
0.874274 0.224950 0.054494
0.897674 0.223580 0.055079
0.917302 0.222588 0.055545
0.933332 0.221550 0.055900
0.946347 0.220907 0.056217
0.956797 0.220055 0.056503
0.965153 0.219491 0.056739
0.971842 0.219315 0.056836
0.977295 0.218927 0.057005
0.981917 0.218728 0.057114
0.986106 0.218517 0.057219
0.024929 0.322521 0.045136
0.024929 0.322521 0.045136
0.025314 0.322677 0.045243
0.032302 0.324143 0.045472
0.047554 0.327180 0.045948
0.074619 0.331877 0.046328
0.117097 0.339543 0.047056
0.179977 0.351420 0.048488
0.269315 0.366205 0.050642
0.356906 0.371864 0.052265
0.403514 0.352582 0.051732
0.443253 0.336642 0.051842
0.486751 0.327561 0.052586
0.535456 0.323160 0.053164
0.585156 0.321301 0.053717
0.631725 0.319437 0.054358
0.675895 0.317574 0.055014
0.717515 0.315787 0.055670
0.756322 0.314077 0.056283
0.792163 0.312323 0.056853
0.824869 0.310679 0.057443
0.854240 0.309299 0.057979
0.880121 0.308040 0.058461
0.902367 0.306877 0.058890
0.921034 0.305895 0.059275
0.936282 0.305112 0.059581
0.948681 0.304264 0.059797
0.958576 0.303714 0.060047
0.966489 0.303223 0.060199
0.972878 0.302749 0.060279
0.978013 0.302545 0.060455
0.982390 0.302304 0.060454
0.986387 0.302269 0.060543
0.024844 0.382107 0.050379
0.024844 0.382107 0.050379
0.024886 0.382383 0.050597
0.031802 0.383676 0.050778
0.046612 0.386437 0.051109
0.072397 0.390832 0.051437
0.111245 0.397610 0.052127
0.169716 0.408414 0.053435
0.256566 0.422129 0.055350
0.362180 0.436820 0.057889
0.440140 0.438016 0.059180
0.473403 0.414526 0.058084
0.506751 0.398114 0.057835
0.553924 0.394575 0.058409
0.602115 0.393508 0.058923
0.647065 0.392014 0.059430
0.689577 0.390246 0.059940
0.729585 0.388447 0.060477
0.766838 0.386663 0.060972
0.801210 0.385042 0.061422
0.832514 0.383476 0.061891
0.860613 0.382047 0.062321
0.885372 0.380882 0.062695
0.906623 0.379761 0.063008
0.924419 0.378731 0.063328
0.938996 0.377945 0.063601
0.950801 0.377211 0.063761
0.960243 0.376711 0.063915
0.967824 0.376192 0.064000
0.973890 0.375831 0.064120
0.978807 0.375634 0.064257
0.982975 0.375424 0.064222
0.986751 0.375143 0.064350
0.024521 0.437412 0.055546
0.024521 0.437412 0.055546
0.024703 0.437637 0.055678
0.031380 0.438859 0.055790
0.045602 0.441437 0.056209
0.070500 0.445470 0.056486
0.107545 0.451563 0.057022
0.162122 0.461166 0.058108
0.246273 0.473761 0.059891
0.354104 0.487668 0.062346
0.453121 0.500309 0.064818
0.514085 0.496894 0.065531
0.536288 0.470401 0.063946
0.570067 0.456366 0.063284
0.616864 0.455636 0.063739
0.660448 0.454655 0.064183
0.701595 0.453382 0.064623
0.740218 0.451810 0.065061
0.776089 0.449995 0.065457
0.809151 0.448304 0.065812
0.839248 0.446775 0.066164
0.866201 0.445333 0.066528
0.889949 0.444110 0.066836
0.910345 0.442852 0.067072
0.927408 0.441864 0.067344
0.941382 0.441114 0.067543
0.952692 0.440464 0.067704
0.961722 0.439989 0.067772
0.968986 0.439610 0.067863
0.974788 0.439185 0.067926
0.979500 0.438902 0.068056
0.983504 0.438758 0.068081
0.987106 0.438500 0.068100
0.023840 0.491611 0.060298
0.023840 0.491611 0.060298
0.024455 0.491629 0.060236
0.031126 0.492864 0.060381
0.045671 0.495316 0.060872
0.071483 0.498885 0.061013
0.109501 0.504456 0.061448
0.163839 0.513037 0.062428
0.247761 0.524572 0.064117
0.355680 0.537402 0.066393
0.458295 0.549463 0.068821
0.539063 0.559435 0.070910
0.581988 0.549829 0.070875
0.599599 0.523414 0.068947
0.629976 0.510143 0.068150
0.672306 0.509296 0.068563
0.712230 0.508362 0.068964
0.749659 0.507271 0.069354
0.784370 0.505841 0.069690
0.816263 0.504187 0.069958
0.845255 0.502578 0.070252
0.871206 0.501040 0.070522
0.894046 0.499784 0.070759
0.913671 0.498611 0.070995
0.930076 0.497570 0.071182
0.943497 0.496749 0.071314
0.954363 0.496122 0.071430
0.963044 0.495585 0.071471
0.970024 0.495243 0.071566
0.975585 0.494805 0.071626
0.980121 0.494532 0.071749
0.983964 0.494260 0.071772
0.987407 0.494130 0.071748
0.023365 0.543737 0.064615
0.023365 0.543737 0.064615
0.024182 0.543652 0.064472
0.030973 0.544906 0.064781
0.046320 0.547216 0.065193
0.073904 0.550378 0.065218
0.114321 0.555437 0.065550
0.170452 0.563091 0.066430
0.255577 0.573613 0.068063
0.363468 0.585382 0.070204
0.466132 0.596532 0.072475
0.550710 0.606058 0.074565
0.613565 0.612190 0.076136
0.642677 0.597566 0.075449
0.655509 0.571003 0.073402
0.683161 0.558570 0.072657
0.721893 0.557600 0.072999
0.758171 0.556659 0.073333
0.791817 0.555607 0.073640
0.822705 0.554352 0.073892
0.850736 0.552955 0.074130
0.875771 0.551381 0.074323
0.897788 0.550064 0.074514
0.916710 0.548850 0.074703
0.932501 0.547725 0.074827
0.945437 0.546904 0.074933
0.955876 0.546297 0.075031
0.964247 0.545641 0.075042
0.970944 0.545075 0.075124
0.976289 0.544750 0.075166
0.980681 0.544505 0.075230
0.984369 0.544139 0.075232
0.987673 0.543821 0.075281
0.023042 0.593068 0.068816
0.023042 0.593068 0.068816
0.023735 0.593089 0.068734
0.031073 0.594142 0.068967
0.046936 0.596360 0.069454
0.076046 0.599201 0.069400
0.118909 0.603696 0.069598
0.176640 0.610455 0.070350
0.262992 0.619956 0.071831
0.370846 0.630646 0.073848
0.472730 0.640776 0.076011
0.558857 0.649677 0.078051
0.626082 0.656958 0.079753
0.674606 0.659052 0.080771
0.695483 0.641394 0.079680
0.705638 0.615093 0.077607
0.730977 0.603227 0.076851
0.766134 0.602173 0.077108
0.798739 0.601121 0.077379
0.828675 0.600097 0.077608
0.855809 0.599013 0.077774
0.880033 0.597784 0.077957
0.901321 0.596560 0.078119
0.919559 0.595176 0.078221
0.934771 0.594080 0.078324
0.947211 0.593252 0.078427
0.957258 0.592532 0.078506
0.965335 0.591796 0.078501
0.971773 0.591069 0.078541
0.976921 0.590727 0.078571
0.981156 0.590409 0.078587
0.984718 0.590263 0.078633
0.987923 0.589790 0.078659
0.022873 0.640259 0.072815
0.022873 0.640259 0.072815
0.023374 0.640402 0.072829
0.030916 0.641435 0.073134
0.047794 0.643370 0.073527
0.078174 0.645910 0.073475
0.123320 0.649853 0.073530
0.182642 0.655779 0.074167
0.270119 0.664249 0.075520
0.377876 0.673834 0.077426
0.479163 0.682940 0.079477
0.564555 0.690948 0.081381
0.634430 0.697779 0.083042
0.689112 0.703446 0.084455
0.727796 0.702537 0.085067
0.742773 0.682414 0.083654
0.750656 0.656113 0.081505
0.773753 0.644867 0.080750
0.805351 0.643717 0.080972
0.834335 0.642604 0.081138
0.860580 0.641529 0.081261
0.884037 0.640579 0.081427
0.904636 0.639582 0.081552
0.922238 0.638411 0.081626
0.936889 0.637360 0.081707
0.948867 0.636453 0.081797
0.958545 0.635528 0.081827
0.966334 0.634821 0.081805
0.972559 0.634154 0.081825
0.977510 0.633672 0.081880
0.981580 0.633281 0.081897
0.985069 0.633197 0.081939
0.988144 0.632828 0.081894
0.023019 0.685061 0.076528
0.023019 0.685061 0.076528
0.023461 0.685205 0.076585
0.030529 0.686547 0.077257
0.048352 0.688246 0.077560
0.080388 0.690318 0.077350
0.127586 0.693747 0.077268
0.189066 0.698925 0.077843
0.277289 0.706350 0.079100
0.384793 0.714860 0.080873
0.485496 0.722937 0.082789
0.570068 0.730026 0.084544
0.640609 0.736218 0.086141
0.697431 0.741409 0.087522
0.742868 0.745839 0.088700
0.774618 0.742541 0.088994
0.785013 0.720342 0.087281
0.790695 0.693980 0.085060
0.811620 0.683503 0.084357
0.839692 0.682245 0.084497
0.865108 0.681057 0.084603
0.887772 0.680035 0.084721
0.907646 0.679068 0.084802
0.924651 0.678050 0.084863
0.938811 0.677016 0.084926
0.950396 0.676194 0.084987
0.959765 0.675383 0.084997
0.967288 0.674742 0.084984
0.973296 0.674216 0.085002
0.978098 0.673690 0.085035
0.982001 0.673386 0.085074
0.985379 0.673069 0.085060
0.988351 0.672790 0.085029
0.023226 0.727238 0.080044
0.023226 0.727238 0.080044
0.023684 0.727352 0.080126
0.030324 0.728926 0.081070
0.048550 0.730569 0.081491
0.082333 0.732151 0.081037
0.131621 0.735042 0.080884
0.195748 0.739538 0.081382
0.284385 0.745943 0.082490
0.391462 0.753382 0.084101
0.491453 0.760437 0.085894
0.575303 0.766628 0.087543
0.645098 0.772049 0.089032
0.703489 0.776786 0.090377
0.750472 0.780726 0.091528
0.789506 0.784337 0.092527
0.815945 0.778959 0.092520
0.822254 0.754870 0.090557
0.825874 0.728573 0.088313
0.844724 0.718908 0.087642
0.869343 0.717615 0.087722
0.891233 0.716380 0.087786
0.910399 0.715233 0.087831
0.926838 0.714097 0.087864
0.940575 0.713070 0.087919
0.951786 0.712290 0.087928
0.960885 0.711700 0.087946
0.968154 0.711148 0.087978
0.973984 0.710665 0.087957
0.978627 0.710278 0.087971
0.982395 0.710003 0.087988
0.985640 0.709629 0.087973
0.988531 0.709385 0.087973
0.023420 0.766519 0.083340
0.023420 0.766519 0.083340
0.023890 0.766634 0.083431
0.030372 0.768290 0.084572
0.049033 0.769865 0.085059
0.084107 0.771099 0.084534
0.135443 0.773439 0.084332
0.202109 0.777265 0.084668
0.291066 0.782724 0.085660
0.397701 0.789120 0.087167
0.496992 0.795216 0.088824
0.580171 0.800570 0.090362
0.649328 0.805253 0.091748
0.707653 0.809363 0.093018
0.756510 0.812962 0.094131
0.796337 0.816062 0.095069
0.830401 0.818928 0.095926
0.851143 0.810667 0.095596
0.853519 0.784606 0.093395
0.856435 0.759752 0.091240
0.873236 0.751065 0.090592
0.894395 0.749593 0.090608
0.912962 0.748257 0.090628
0.928895 0.747055 0.090648
0.942217 0.746033 0.090673
0.953098 0.745159 0.090658
0.961897 0.744485 0.090677
0.968929 0.744024 0.090689
0.974607 0.743522 0.090648
0.979073 0.743185 0.090654
0.982743 0.742863 0.090659
0.985883 0.742570 0.090648
0.988679 0.742357 0.090648
0.023575 0.802585 0.086418
0.023575 0.802585 0.086418
0.024083 0.802721 0.086475
0.030771 0.804321 0.087686
0.049554 0.806004 0.088442
0.085900 0.806868 0.087794
0.139093 0.808677 0.087460
0.208078 0.811874 0.087700
0.297323 0.816445 0.088561
0.403498 0.821867 0.089973
0.502221 0.827079 0.091517
0.584721 0.831657 0.092948
0.653301 0.835651 0.094248
0.711023 0.839136 0.095409
0.760830 0.842285 0.096476
0.801905 0.844974 0.097401
0.835739 0.847229 0.098202
0.864407 0.847913 0.098786
0.879739 0.836653 0.098094
0.879918 0.810185 0.095801
0.882547 0.787398 0.093803
0.897280 0.779593 0.093225
0.915335 0.778168 0.093207
0.930802 0.776870 0.093207
0.943724 0.775857 0.093195
0.954283 0.774927 0.093196
0.962817 0.774192 0.093174
0.969667 0.773689 0.093156
0.975134 0.773239 0.093136
0.979503 0.772813 0.093112
0.983077 0.772551 0.093134
0.986069 0.772237 0.093105
0.988804 0.772026 0.093105
0.023714 0.835215 0.089189
0.023714 0.835215 0.089189
0.024258 0.835377 0.089266
0.031146 0.836890 0.090480
0.049896 0.838676 0.091532
0.087368 0.839231 0.090797
0.142360 0.840501 0.090263
0.213485 0.843104 0.090455
0.303073 0.846860 0.091210
0.408764 0.851399 0.092495
0.507094 0.855799 0.093938
0.589015 0.859648 0.095299
0.656899 0.862980 0.096510
0.714021 0.865901 0.097596
0.763215 0.868486 0.098606
0.805533 0.870741 0.099499
0.840470 0.872654 0.100261
0.869892 0.874351 0.100936
0.893118 0.872415 0.101200
0.903399 0.858139 0.100145
0.902269 0.832210 0.097854
0.904608 0.811579 0.096055
0.917473 0.804846 0.095523
0.932539 0.803526 0.095505
0.945092 0.802427 0.095499
0.955349 0.801456 0.095452
0.963675 0.800712 0.095419
0.970332 0.800174 0.095407
0.975612 0.799764 0.095387
0.979878 0.799325 0.095366
0.983364 0.799018 0.095337
0.986263 0.798709 0.095308
0.988903 0.798551 0.095308
0.023872 0.864202 0.091646
0.023872 0.864202 0.091646
0.024425 0.864346 0.091752
0.031459 0.865803 0.092994
0.050104 0.867694 0.094254
0.088822 0.867917 0.093442
0.145311 0.868713 0.092760
0.218427 0.870791 0.092876
0.308359 0.873818 0.093552
0.413572 0.877574 0.094743
0.511327 0.881217 0.096111
0.592771 0.884404 0.097380
0.660082 0.887157 0.098510
0.716635 0.889537 0.099541
0.765228 0.891596 0.100492
0.808167 0.893455 0.101344
0.844161 0.895103 0.102066
0.873622 0.896505 0.102713
0.899424 0.897815 0.103315
0.917714 0.893499 0.103263
0.923204 0.876116 0.101833
0.921106 0.851094 0.099594
0.923067 0.832577 0.097943
0.934074 0.826927 0.097518
0.946305 0.825745 0.097511
0.956336 0.824834 0.097455
0.964442 0.824028 0.097422
0.970898 0.823453 0.097398
0.976072 0.823015 0.097360
0.980231 0.822545 0.097341
0.983596 0.822273 0.097321
0.986420 0.821983 0.097301
0.989012 0.821737 0.097292
0.023982 0.889241 0.093811
0.023982 0.889241 0.093811
0.024563 0.889376 0.093897
0.031699 0.890803 0.095135
0.050109 0.892842 0.096719
0.089981 0.892702 0.095750
0.147985 0.893088 0.094941
0.222839 0.894678 0.094958
0.312687 0.897116 0.095577
0.417656 0.900161 0.096725
0.514990 0.903153 0.097980
0.596012 0.905763 0.099157
0.662839 0.908000 0.100228
0.718893 0.909885 0.101215
0.767041 0.911536 0.102110
0.809563 0.913049 0.102922
0.846459 0.914425 0.103644
0.876788 0.915626 0.104256
0.902159 0.916677 0.104789
0.924532 0.917613 0.105278
0.937719 0.910131 0.104870
0.938123 0.888685 0.102991
0.936617 0.866590 0.101010
0.938209 0.850342 0.099573
0.947383 0.845759 0.099242
0.957171 0.844824 0.099200
0.965080 0.844011 0.099116
0.971397 0.843457 0.099108
0.976486 0.842909 0.099093
0.980523 0.842442 0.099039
0.983810 0.842195 0.099030
0.986545 0.841834 0.099014
0.989101 0.841577 0.099001
0.024063 0.910339 0.095627
0.024063 0.910339 0.095627
0.024678 0.910454 0.095720
0.032090 0.911892 0.096998
0.050249 0.913997 0.098766
0.090914 0.913549 0.097692
0.150049 0.913613 0.096811
0.226562 0.914761 0.096754
0.316753 0.916672 0.097305
0.421346 0.919147 0.098358
0.518232 0.921585 0.099567
0.598877 0.923710 0.100711
0.665163 0.925458 0.101711
0.720677 0.926953 0.102622
0.768425 0.928290 0.103469
0.810670 0.929508 0.104245
0.848229 0.930649 0.104969
0.879264 0.931654 0.105586
0.904443 0.932501 0.106074
0.926591 0.933286 0.106511
0.943683 0.931083 0.106630
0.951034 0.919002 0.105720
0.950147 0.898046 0.103857
0.949108 0.878944 0.102150
0.950312 0.865044 0.100964
0.957878 0.861471 0.100661
0.965614 0.860703 0.100593
0.971856 0.860145 0.100552
0.976793 0.859552 0.100525
0.980753 0.859152 0.100470
0.983978 0.858755 0.100446
0.986683 0.858483 0.100403
0.989174 0.858254 0.100411
0.024122 0.927651 0.097143
0.024122 0.927651 0.097143
0.024730 0.927760 0.097251
0.032238 0.929177 0.098537
0.050595 0.931323 0.100366
0.091861 0.930662 0.099232
0.151911 0.930466 0.098330
0.229556 0.931249 0.098180
0.319827 0.932732 0.098707
0.424311 0.934721 0.099741
0.520961 0.936711 0.100881
0.601081 0.938401 0.101963
0.666945 0.939798 0.102930
0.722110 0.940995 0.103788
0.769632 0.942078 0.104579
0.811633 0.943069 0.105333
0.849193 0.944002 0.106037
0.880843 0.944824 0.106631
0.906357 0.945508 0.107114
0.928179 0.946133 0.107532
0.947227 0.946723 0.107914
0.959206 0.941019 0.107655
0.960474 0.923169 0.106122
0.959651 0.904604 0.104443
0.958973 0.888641 0.103052
0.959898 0.877041 0.102048
0.966071 0.874296 0.101778
0.972187 0.873690 0.101698
0.977061 0.873101 0.101690
0.980963 0.872661 0.101636
0.984117 0.872413 0.101624
0.986792 0.872059 0.101635
0.989210 0.871820 0.101576
0.024181 0.941730 0.098345
0.024181 0.941730 0.098345
0.024611 0.941811 0.098425
0.032336 0.943222 0.099735
0.050656 0.945465 0.101733
0.092477 0.944623 0.100564
0.153576 0.944111 0.099545
0.232050 0.944626 0.099380
0.322459 0.945764 0.099896
0.426648 0.947334 0.100849
0.522950 0.948969 0.101910
0.602843 0.950327 0.102946
0.668408 0.951441 0.103893
0.723318 0.952407 0.104733
0.770675 0.953282 0.105511
0.812543 0.954100 0.106210
0.849851 0.954852 0.106845
0.881854 0.955512 0.107435
0.907893 0.956073 0.107937
0.929505 0.956571 0.108353
0.948361 0.957031 0.108723
0.962572 0.954573 0.108764
0.968396 0.943244 0.107867
0.967751 0.925059 0.106258
0.967206 0.909429 0.104866
