ml_luts/arrival__lut3d_33.cube
TITLE "14b043d31d4ccd057989a42cde078933.jpg"
DOMAIN_MIN 0.000000 0.000000 0.000000
DOMAIN_MAX 1.000000 1.000000 1.000000
LUT_3D_SIZE 9
0.022675 0.023529 0.025848
0.040725 0.023586 0.028587
0.166153 0.024399 0.046821
0.389313 0.025230 0.063771
0.615799 0.025360 0.069382
0.794789 0.024993 0.070236
0.909698 0.024696 0.068566
0.963352 0.024819 0.066570
0.986694 0.024872 0.065582
0.023292 0.041752 0.026699
0.049318 0.044049 0.027207
0.166195 0.025405 0.031683
0.388405 0.025156 0.051270
0.615150 0.025232 0.059755
0.794386 0.024893 0.063033
0.909513 0.024620 0.063057
0.963221 0.024761 0.061897
0.986641 0.024819 0.061226
0.024620 0.194924 0.035278
0.049821 0.199847 0.035792
0.246636 0.214470 0.038849
0.439953 0.160744 0.042383
0.644264 0.148388 0.046154
0.807511 0.140474 0.050132
0.913938 0.133663 0.053238
0.964613 0.129912 0.054876
0.986709 0.128449 0.055526
0.024521 0.437412 0.055546
0.045602 0.441437 0.056209
0.246273 0.473761 0.059891
0.536288 0.470401 0.063946
0.701595 0.453382 0.064623
0.839248 0.446775 0.066164
0.927408 0.441864 0.067344
0.968986 0.439610 0.067863
0.987106 0.438500 0.068100
0.022873 0.640259 0.072815
0.047794 0.643370 0.073527
0.270119 0.664249 0.075520
0.634430 0.697779 0.083042
0.750656 0.656113 0.081505
0.860580 0.641529 0.081261
0.936889 0.637360 0.081707
0.972559 0.634154 0.081825
0.988144 0.632828 0.081894
0.023575 0.802585 0.086418
0.049554 0.806004 0.088442
0.297323 0.816445 0.088561
0.653301 0.835651 0.094248
0.835739 0.847229 0.098202
0.882547 0.787398 0.093803
0.943724 0.775857 0.093195
0.975134 0.773239 0.093136
0.988804 0.772026 0.093105
0.024063 0.910339 0.095627
0.050249 0.913997 0.098766
0.316753 0.916672 0.097305
0.665163 0.925458 0.101711
0.848229 0.930649 0.104969
0.943683 0.931083 0.106630
0.950312 0.865044 0.100964
0.976793 0.859552 0.100525
0.989174 0.858254 0.100411
0.024265 0.962136 0.100143
0.050777 0.965992 0.103755
0.326363 0.964657 0.101546
0.670556 0.968319 0.105281
0.850590 0.970564 0.108101
0.950038 0.971940 0.109879
0.978338 0.938889 0.107430
0.978003 0.900596 0.104107
0.989323 0.898545 0.103908
0.024384 0.984924 0.102081
0.050873 0.988858 0.106014
0.331413 0.985702 0.103409
0.673000 0.987191 0.106850
0.851623 0.988114 0.109497
0.951828 0.988590 0.111207
0.989586 0.970871 0.110260
0.989467 0.933475 0.106991
0.989410 0.916138 0.105438
0.022362 0.023575 0.047287
0.040238 0.023952 0.047950
0.167136 0.024438 0.065626
0.390491 0.025243 0.078765
0.616508 0.025547 0.081017
0.795307 0.025064 0.079356
0.909948 0.024819 0.075719
0.963490 0.024952 0.072781
0.986808 0.024986 0.071327
0.022605 0.042018 0.048136
0.041148 0.042051 0.048615
0.182084 0.024695 0.050347
0.415678 0.025277 0.065824
0.643465 0.025398 0.070459
0.820563 0.024881 0.070778
0.933543 0.024783 0.068216
0.983546 0.025173 0.066723
0.987374 0.027095 0.071105
0.024164 0.195606 0.056480
0.039490 0.194960 0.057018
0.240571 0.215012 0.052290
0.466059 0.153597 0.042631
0.671523 0.136112 0.046451
0.833890 0.123156 0.050606
0.939704 0.113891 0.053807
0.985211 0.112569 0.055442
0.986782 0.124500 0.056483
0.024215 0.438637 0.075540
0.035231 0.438327 0.075931
0.230012 0.473833 0.073286
0.543723 0.479918 0.070966
0.721268 0.461317 0.067100
0.862578 0.450124 0.066810
0.948886 0.441234 0.067649
0.985781 0.437061 0.068089
0.987106 0.435620 0.068796
0.023386 0.641367 0.091940
0.036918 0.642011 0.092846
0.252669 0.663920 0.089851
0.636728 0.709221 0.088738
0.762877 0.669602 0.085688
0.873891 0.651212 0.083461
0.954569 0.646339 0.082725
0.987067 0.639979 0.082541
0.988173 0.631174 0.082605
0.024269 0.803650 0.105305
0.038574 0.805853 0.107640
0.279193 0.816301 0.103626
0.649927 0.845715 0.100221
0.844211 0.861586 0.101231
0.894704 0.801698 0.096313
0.956042 0.787804 0.094688
0.987017 0.783717 0.094189
0.988832 0.771957 0.093954
0.024798 0.911256 0.114461
0.040705 0.913965 0.117348
0.299498 0.916733 0.112920
0.659147 0.934355 0.108203
0.853845 0.945226 0.107773
0.953045 0.946219 0.108483
0.961592 0.879725 0.102626
0.987579 0.872710 0.101770
0.989210 0.858853 0.101319
0.025055 0.962978 0.118949
0.041900 0.965844 0.122062
0.311521 0.965151 0.117242
0.663607 0.976902 0.112071
0.854276 0.984227 0.111063
0.957883 0.986420 0.111608
0.988060 0.954172 0.108902
0.987967 0.914506 0.105432
0.989377 0.899550 0.104844
0.025165 0.985737 0.120922
0.042477 0.988623 0.123984
0.316957 0.986375 0.119116
0.660612 0.987593 0.117148
0.844237 0.988321 0.115549
0.948957 0.988717 0.113770
0.989662 0.972663 0.111277
0.989498 0.934842 0.107975
0.989437 0.917366 0.106426
0.016693 0.025863 0.228455
0.028449 0.027269 0.230975
0.166567 0.026078 0.236345
0.399019 0.026148 0.249327
0.625164 0.026451 0.272392
0.801258 0.026328 0.292089
0.912947 0.026167 0.305203
0.964823 0.026173 0.312047
0.987153 0.026314 0.314704
0.017223 0.040541 0.229678
0.028498 0.041550 0.231993
0.163051 0.040349 0.237609
0.427522 0.026184 0.250387
0.654534 0.026414 0.267567
0.828186 0.026221 0.283050
0.937979 0.026052 0.294465
0.985728 0.027187 0.302319
0.988010 0.033757 0.316511
0.019848 0.198870 0.239514
0.031078 0.199102 0.241832
0.136961 0.187939 0.243794
0.435896 0.125488 0.212817
0.709274 0.108251 0.189026
0.911703 0.096671 0.171897
0.987224 0.131689 0.199712
0.986844 0.184266 0.252362
0.986820 0.208096 0.278229
0.023035 0.445185 0.257140
0.030741 0.445620 0.258996
0.097032 0.441319 0.261946
0.457566 0.458446 0.211816
0.693837 0.441779 0.165611
0.887797 0.415920 0.115042
0.987644 0.399198 0.101725
0.988219 0.411833 0.146453
0.988456 0.419807 0.172010
0.025333 0.647434 0.270508
0.035803 0.648920 0.272960
0.131314 0.647954 0.276418
0.522886 0.682125 0.220769
0.716093 0.665451 0.187418
0.853532 0.645965 0.166844
0.962939 0.639256 0.137526
0.989734 0.630147 0.147727
0.990013 0.625996 0.167816
0.026995 0.809084 0.282186
0.040337 0.811357 0.285209
0.166446 0.811899 0.289065
0.538195 0.830319 0.235853
0.783197 0.848582 0.190027
0.871427 0.804727 0.171357
0.947386 0.789374 0.160203
0.986395 0.784974 0.154188
0.990861 0.776129 0.165448
0.028028 0.915764 0.290341
0.043456 0.918424 0.293835
0.191132 0.918926 0.298018
0.549423 0.926580 0.247601
0.786476 0.938430 0.200731
0.928299 0.944110 0.167906
0.953743 0.887680 0.160577
0.987095 0.880212 0.154875
0.991249 0.868330 0.164023
0.028496 0.966902 0.294556
0.044962 0.969655 0.298247
0.204001 0.969713 0.302666
0.555135 0.973335 0.253031
0.787736 0.981716 0.206063
0.932951 0.986192 0.170679
0.987683 0.967714 0.155404
0.987878 0.925371 0.155178
0.991365 0.911560 0.163316
0.028717 0.989319 0.296333
0.045619 0.992139 0.300211
0.210005 0.991970 0.304861
0.557194 0.990911 0.258024
0.782230 0.991188 0.215954
0.924337 0.991062 0.181774
0.989971 0.987331 0.162495
0.991470 0.948978 0.162625
0.991432 0.930428 0.162979
0.014542 0.026772 0.478104
0.022115 0.028067 0.480194
0.099900 0.037871 0.497867
0.402958 0.029595 0.509495
0.631538 0.028875 0.510233
0.803374 0.028664 0.531888
0.910954 0.028426 0.549379
0.961407 0.028275 0.558231
0.983334 0.028260 0.562027
0.014852 0.037110 0.479008
0.022078 0.037878 0.480855
0.095506 0.048186 0.498396
0.399885 0.040333 0.510043
0.636195 0.037911 0.513433
0.829362 0.028701 0.539856
0.935201 0.028326 0.554318
0.981706 0.030237 0.561723
0.983773 0.042713 0.564535
0.018753 0.185010 0.491041
0.026229 0.184666 0.492849
0.071871 0.179904 0.503940
0.376352 0.182406 0.516546
0.643228 0.182024 0.533506
0.861255 0.166889 0.552128
0.982517 0.166460 0.561184
0.983961 0.216915 0.576084
0.984047 0.239950 0.584435
0.022843 0.450658 0.509512
0.030663 0.451115 0.511411
0.075908 0.450514 0.522581
0.353918 0.442959 0.528853
0.647204 0.426105 0.516592
0.859485 0.408847 0.500123
0.984797 0.406579 0.496449
0.987090 0.458061 0.548356
0.987115 0.482134 0.572109
0.025555 0.652969 0.522970
0.036285 0.654498 0.525590
0.102772 0.662109 0.541681
0.387026 0.655430 0.543351
0.647990 0.660556 0.511705
0.838911 0.640419 0.473495
0.970137 0.617768 0.435507
0.989754 0.621961 0.476182
0.989603 0.630209 0.506344
0.027579 0.813177 0.534157
0.041244 0.815505 0.537419
0.137526 0.825911 0.554896
0.418216 0.817026 0.554607
0.683800 0.830838 0.518233
0.840146 0.814241 0.490881
0.935260 0.798544 0.481628
0.989493 0.794283 0.467993
0.991470 0.788527 0.496136
0.028851 0.918313 0.541960
0.044642 0.921016 0.545559
0.168310 0.929720 0.561394
0.439187 0.922217 0.562356
0.688436 0.928860 0.528179
0.881676 0.938249 0.486938
0.941156 0.902648 0.477194
0.982909 0.894918 0.473863
0.992574 0.887156 0.489372
0.029439 0.968475 0.545723
0.046322 0.971320 0.549641
0.183510 0.979399 0.564705
0.449456 0.972562 0.566230
0.691394 0.975794 0.533205
0.882125 0.983111 0.491247
0.979467 0.982931 0.468324
0.984407 0.943103 0.470231
0.993048 0.932757 0.486057
0.029701 0.990474 0.547370
0.047151 0.993374 0.551341
0.193705 0.999459 0.566514
0.453977 0.994735 0.567950
0.692590 0.994448 0.538176
0.876787 0.994858 0.506080
0.974691 0.995160 0.485709
0.993465 0.972303 0.483165
0.993278 0.952694 0.484608
0.014130 0.030075 0.647034
0.022543 0.030634 0.660223
0.113983 0.045471 0.689404
0.422045 0.033934 0.695528
0.633987 0.032402 0.706879
0.801304 0.031503 0.705689
0.907555 0.030865 0.707405
0.957217 0.030685 0.713833
0.978608 0.030731 0.717697
0.014130 0.042792 0.654522
0.022317 0.043231 0.664988
0.111449 0.058514 0.689692
0.419349 0.048751 0.696557
0.632586 0.048423 0.707779
0.800903 0.049081 0.706661
0.912930 0.045716 0.711228
0.971440 0.038539 0.721680
0.979273 0.050367 0.720293
0.018040 0.199745 0.677452
0.028071 0.199943 0.679725
0.092810 0.198985 0.694358
0.397231 0.202206 0.704634
0.620996 0.211775 0.714945
0.798452 0.227700 0.715386
0.928663 0.224071 0.733107
0.980959 0.229121 0.740899
0.981548 0.251209 0.739384
0.022583 0.463707 0.693907
0.033228 0.464830 0.696313
0.099213 0.468953 0.711325
0.370366 0.460955 0.716319
0.605271 0.471447 0.723847
0.812225 0.469437 0.738259
0.954242 0.456532 0.750329
0.984348 0.481193 0.758777
0.984552 0.504086 0.765200
0.025337 0.657227 0.705849
0.036551 0.658873 0.708384
0.105955 0.667202 0.724245
0.381172 0.661064 0.727574
0.626163 0.669620 0.731476
0.829465 0.650289 0.722973
0.958216 0.634011 0.714310
0.987052 0.658316 0.736414
0.987015 0.682297 0.757508
0.027485 0.815691 0.715612
0.041380 0.818054 0.718807
0.131009 0.831936 0.738513
0.410794 0.821059 0.735835
0.644717 0.826070 0.739252
0.824569 0.824785 0.722055
0.937525 0.809907 0.702332
0.989400 0.801614 0.696251
0.989097 0.804821 0.722794
0.028835 0.919533 0.722175
0.045060 0.922172 0.725552
0.151609 0.939330 0.747668
0.432351 0.925639 0.741597
0.658257 0.926989 0.744883
0.843988 0.933696 0.725020
0.933578 0.916837 0.713602
0.976681 0.908975 0.711428
0.990349 0.904365 0.719441
0.029460 0.968912 0.724760
0.047063 0.971827 0.728492
0.171029 0.986457 0.750365
0.442855 0.975672 0.744425
0.664834 0.975249 0.747693
0.843737 0.979121 0.728706
0.959259 0.983019 0.711131
0.978451 0.957081 0.709609
0.990902 0.949761 0.717790
0.029739 0.990677 0.726059
0.047957 0.993714 0.729775
0.194885 1.000000 0.748631
0.447479 0.997713 0.745748
0.667740 0.996483 0.748917
0.843475 0.996456 0.733673
0.956165 0.996655 0.720573
0.991369 0.989107 0.716338
0.991166 0.969574 0.717041
0.014130 0.033310 0.785774
0.024557 0.034237 0.800492
0.133105 0.050916 0.845996
0.438323 0.038451 0.845260
0.642115 0.035936 0.850710
0.798407 0.034816 0.855404
0.902822 0.034047 0.855884
0.951904 0.033695 0.855760
0.973286 0.033565 0.855862
0.014130 0.048621 0.797189
0.024272 0.049273 0.810372
0.131341 0.067084 0.847090
0.436360 0.056664 0.846997
0.641589 0.056104 0.852364
0.798783 0.057412 0.856987
0.903539 0.058030 0.857118
0.952867 0.058238 0.857111
0.974261 0.058390 0.856997
0.017340 0.213931 0.832433
0.029927 0.214738 0.834998
0.113878 0.217642 0.852101
0.415438 0.220719 0.856209
0.631693 0.230068 0.860287
0.796270 0.241063 0.864412
0.905434 0.252584 0.864309
0.956636 0.258343 0.864082
0.978927 0.260869 0.863840
0.022282 0.475487 0.845234
0.035573 0.477161 0.847971
0.121344 0.485731 0.865460
0.387680 0.476919 0.865961
0.616145 0.484800 0.867796
0.790478 0.495191 0.871770
0.905648 0.504119 0.871956
0.966648 0.502441 0.878701
0.982407 0.511304 0.879640
0.025139 0.665211 0.854273
0.038918 0.667398 0.857088
0.127386 0.679867 0.875172
0.397350 0.671841 0.873351
0.635013 0.679664 0.873857
0.801728 0.686453 0.877350
0.921866 0.682621 0.885897
0.982100 0.676927 0.893574
0.984619 0.697394 0.895880
0.027279 0.817839 0.861821
0.041607 0.820198 0.864671
0.134796 0.834020 0.882464
0.407254 0.826008 0.879420
0.643015 0.829059 0.879792
0.812901 0.833136 0.882082
0.933651 0.819028 0.878003
0.986429 0.814688 0.878616
0.986410 0.835281 0.896361
0.028672 0.920056 0.866111
0.045503 0.922806 0.869198
0.153784 0.940244 0.889758
0.427641 0.929462 0.883379
0.655656 0.929177 0.883954
0.819462 0.931103 0.885817
0.925556 0.927422 0.878650
0.974887 0.920407 0.872351
0.987793 0.917682 0.880403
0.029317 0.969128 0.867949
0.047558 0.972153 0.871423
0.174900 0.986664 0.889420
0.438442 0.979026 0.885377
0.662326 0.977126 0.886011
0.823145 0.977477 0.887828
0.936081 0.980626 0.879387
0.972658 0.968594 0.876596
0.988366 0.963700 0.880082
0.029610 0.990753 0.868904
0.048476 0.993880 0.872400
0.200138 1.000000 0.883885
0.445143 1.000000 0.885613
0.665260 0.998217 0.886948
0.824761 0.997887 0.888704
0.934437 0.997886 0.883226
0.983919 0.997791 0.880150
0.988602 0.983341 0.879951
0.014130 0.035934 0.880386
0.025966 0.036971 0.896716
0.146816 0.054840 0.951912
0.448524 0.041943 0.946112
0.647606 0.038532 0.947086
0.799101 0.037222 0.949420
0.899143 0.036480 0.951586
0.947657 0.036124 0.952053
0.968819 0.035942 0.952301
0.014130 0.052839 0.895525
0.025685 0.053651 0.910115
0.145453 0.073310 0.953060
0.447229 0.062494 0.948376
0.647655 0.061719 0.949237
0.800095 0.063048 0.951553
0.900650 0.064163 0.953578
0.949387 0.064469 0.954011
0.970486 0.064647 0.954072
0.016813 0.223881 0.939142
0.031171 0.224993 0.941771
0.130036 0.230825 0.954971
0.427022 0.234219 0.956740
0.638692 0.243492 0.956756
0.798381 0.253735 0.958342
0.902947 0.261394 0.959728
0.953416 0.267159 0.959772
0.975397 0.269747 0.959850
0.022023 0.483490 0.948421
0.037314 0.485573 0.951063
0.144517 0.495531 0.957312
0.401085 0.488101 0.958826
0.623447 0.495147 0.959939
0.791749 0.505387 0.960920
0.900830 0.513395 0.961564
0.953176 0.518351 0.961469
0.975896 0.520534 0.961399
0.025616 0.670677 0.954090
0.041993 0.673094 0.956302
0.161273 0.682964 0.958544
0.416459 0.677854 0.959561
0.644779 0.686518 0.960369
0.803855 0.694316 0.961264
0.906247 0.700704 0.961900
0.955159 0.704532 0.961788
0.976334 0.706280 0.961731
0.029469 0.819750 0.958105
0.049392 0.821053 0.958512
0.181892 0.827947 0.959141
0.434716 0.825354 0.960158
0.658485 0.830857 0.960960
0.818223 0.838075 0.961580
0.914084 0.843179 0.962156
0.961571 0.844062 0.963771
0.977910 0.848780 0.965107
0.035679 0.917525 0.958822
0.058210 0.918312 0.958910
0.201308 0.922840 0.959545
0.452217 0.921685 0.960573
0.672374 0.924538 0.961356
0.829714 0.929240 0.961962
0.924508 0.933608 0.962349
0.972384 0.929608 0.961620
0.983883 0.937813 0.965990
0.039904 0.964830 0.958992
0.064918 0.965291 0.959130
0.222215 0.968313 0.959726
0.469731 0.967414 0.960780
0.685950 0.968756 0.961552
0.840789 0.971772 0.962145
0.933330 0.975658 0.962465
0.974532 0.976065 0.961220
0.989445 0.974573 0.961821
0.042084 0.985496 0.959091
0.068216 0.985847 0.959146
0.232832 0.987940 0.959879
0.478524 0.987208 0.960869
0.693134 0.987690 0.961655
0.847200 0.989746 0.962238
0.939155 0.993007 0.962564
0.983905 0.996202 0.961838
0.993896 0.992195 0.961663
0.014130 0.037269 0.927417
0.026741 0.038410 0.944335
0.156495 0.058704 0.985991
0.453398 0.045342 0.986915
0.649557 0.041477 0.987284
0.798200 0.040560 0.987562
0.895640 0.040543 0.987762
0.942536 0.040672 0.987842
0.963169 0.040756 0.987785
0.014130 0.055284 0.943141
0.026396 0.056075 0.958743
0.155883 0.078310 0.985997
0.451948 0.067770 0.986930
0.649086 0.067076 0.987299
0.798289 0.069061 0.987572
0.895901 0.071098 0.987769
0.942900 0.072262 0.987843
0.963555 0.072678 0.987870
0.017916 0.229269 0.985743
0.033997 0.230643 0.985773
0.143431 0.238341 0.986152
0.433205 0.244445 0.987041
0.639552 0.254543 0.987409
0.794545 0.265788 0.987692
0.895485 0.274304 0.987895
0.943786 0.278708 0.987984
0.965079 0.281611 0.987933
0.027703 0.486903 0.986350
0.045459 0.488888 0.986399
0.162772 0.499904 0.986766
0.411840 0.494631 0.987219
0.627653 0.503181 0.987562
0.790257 0.514749 0.987859
0.895341 0.523669 0.988075
0.945401 0.528377 0.988179
0.967319 0.530895 0.988165
0.036470 0.670891 0.986788
0.055786 0.672964 0.986840
0.183645 0.683893 0.987124
0.431114 0.680829 0.987439
0.652514 0.691185 0.987696
0.805690 0.700574 0.987967
0.903817 0.708073 0.988185
0.950294 0.712165 0.988270
0.970610 0.714260 0.988256
0.046167 0.816076 0.987072
0.067615 0.817501 0.987091
0.207282 0.826044 0.987318
0.452891 0.825198 0.987626
0.669829 0.832424 0.987882
0.823488 0.841356 0.988067
0.915004 0.847754 0.988259
0.957752 0.851484 0.988351
0.976274 0.853388 0.988340
0.054898 0.911785 0.987199
0.078505 0.912817 0.987225
0.228031 0.919026 0.987431
0.472521 0.919305 0.987778
0.686283 0.923783 0.987995
0.837824 0.930189 0.988204
0.927974 0.936319 0.988323
0.967842 0.939978 0.988424
0.984871 0.941964 0.988793
0.060161 0.958091 0.987258
0.084974 0.958835 0.987288
0.240407 0.963286 0.987487
0.484625 0.963907 0.987820
0.697446 0.966661 0.988077
0.848463 0.971421 0.988262
0.937816 0.976673 0.988380
0.977008 0.980298 0.988429
0.993153 0.982278 0.989664
0.062767 0.978463 0.987228
0.088765 0.979080 0.987363
0.250837 0.982750 0.987492
0.493828 0.983308 0.987834
0.705223 0.985201 0.988079
0.855490 0.988981 0.988280
0.944329 0.993659 0.988406
0.982988 0.997212 0.988453
0.998123 0.997597 0.988373
0.014130 0.038422 0.945831
0.027008 0.039555 0.963150
0.160774 0.060768 1.000000
0.456348 0.047458 1.000000
0.651322 0.043380 1.000000
0.798969 0.042366 1.000000
0.895668 0.042335 1.000000
0.942059 0.042458 1.000000
0.962585 0.042572 1.000000
0.014130 0.056614 0.963043
0.026714 0.057467 0.979040
0.160216 0.080865 1.000000
0.454974 0.070472 1.000000
0.650946 0.069698 1.000000
0.799115 0.071703 1.000000
0.896006 0.073699 1.000000
0.942563 0.074882 1.000000
0.962979 0.075455 1.000000
0.019165 0.232621 1.000000
0.035633 0.233981 1.000000
0.148371 0.242354 1.000000
0.436560 0.248873 1.000000
0.641720 0.258869 1.000000
0.795436 0.270020 1.000000
0.895664 0.278488 1.000000
0.943585 0.282868 1.000000
0.964683 0.284851 1.000000
0.029301 0.489586 1.000000
0.047513 0.491615 1.000000
0.168314 0.503166 1.000000
0.415677 0.498117 1.000000
0.630211 0.506483 1.000000
0.791480 0.517995 1.000000
0.895742 0.526892 1.000000
0.945274 0.531562 1.000000
0.967064 0.533711 1.000000
0.038376 0.672958 1.000000
0.058172 0.674950 1.000000
0.189922 0.686195 1.000000
0.435446 0.683314 1.000000
0.655342 0.693604 1.000000
0.807203 0.703007 1.000000
0.904415 0.710545 1.000000
0.950458 0.714649 1.000000
0.970551 0.716568 1.000000
0.048336 0.817223 1.000000
0.070446 0.818734 1.000000
0.214136 0.827399 1.000000
0.457801 0.826768 1.000000
0.673115 0.834047 1.000000
0.825414 0.843049 1.000000
0.915958 0.849550 1.000000
0.958227 0.853312 1.000000
0.976513 0.855149 1.000000
0.057373 0.912453 1.000000
0.081630 0.913460 1.000000
0.235382 0.919788 1.000000
0.477938 0.920261 1.000000
0.690079 0.924747 1.000000
0.840173 0.931317 1.000000
0.929348 0.937571 1.000000
0.968714 0.941282 1.000000
0.985489 0.943214 1.000000
0.062740 0.958324 1.000000
0.088308 0.959177 1.000000
0.247882 0.963749 1.000000
0.490281 0.964421 1.000000
0.701483 0.967310 1.000000
0.851143 0.972193 1.000000
0.939576 0.977547 1.000000
0.978199 0.981323 1.000000
0.994144 0.983375 1.000000
0.065460 0.978668 1.000000
0.091545 0.979256 1.000000
0.254036 0.982979 1.000000
0.496513 0.983681 1.000000
0.707595 0.985626 1.000000
0.857486 0.989502 1.000000
0.945908 0.994331 1.000000
0.984314 0.997948 1.000000
1.000000 1.000000 1.000000
