ml_luts/arrival__lut3d_33.cube
TITLE "14b043d31d4ccd057989a42cde078933.jpg"
DOMAIN_MIN 0.000000 0.000000 0.000000
DOMAIN_MAX 1.000000 1.000000 1.000000
LUT_3D_SIZE 5
0.022675 0.023529 0.025848
0.166153 0.024399 0.046821
0.615799 0.025360 0.069382
0.909698 0.024696 0.068566
0.986694 0.024872 0.065582
0.024620 0.194924 0.035278
0.246636 0.214470 0.038849
0.644264 0.148388 0.046154
0.913938 0.133663 0.053238
0.986709 0.128449 0.055526
0.022873 0.640259 0.072815
0.270119 0.664249 0.075520
0.750656 0.656113 0.081505
0.936889 0.637360 0.081707
0.988144 0.632828 0.081894
0.024063 0.910339 0.095627
0.316753 0.916672 0.097305
0.848229 0.930649 0.104969
0.950312 0.865044 0.100964
0.989174 0.858254 0.100411
0.024384 0.984924 0.102081
0.331413 0.985702 0.103409
0.851623 0.988114 0.109497
0.989586 0.970871 0.110260
0.989410 0.916138 0.105438
0.016693 0.025863 0.228455
0.166567 0.026078 0.236345
0.625164 0.026451 0.272392
0.912947 0.026167 0.305203
0.987153 0.026314 0.314704
0.019848 0.198870 0.239514
0.136961 0.187939 0.243794
0.709274 0.108251 0.189026
0.987224 0.131689 0.199712
0.986820 0.208096 0.278229
0.025333 0.647434 0.270508
0.131314 0.647954 0.276418
0.716093 0.665451 0.187418
0.962939 0.639256 0.137526
0.990013 0.625996 0.167816
0.028028 0.915764 0.290341
0.191132 0.918926 0.298018
0.786476 0.938430 0.200731
0.953743 0.887680 0.160577
0.991249 0.868330 0.164023
0.028717 0.989319 0.296333
0.210005 0.991970 0.304861
0.782230 0.991188 0.215954
0.989971 0.987331 0.162495
0.991432 0.930428 0.162979
0.014130 0.030075 0.647034
0.113983 0.045471 0.689404
0.633987 0.032402 0.706879
0.907555 0.030865 0.707405
0.978608 0.030731 0.717697
0.018040 0.199745 0.677452
0.092810 0.198985 0.694358
0.620996 0.211775 0.714945
0.928663 0.224071 0.733107
0.981548 0.251209 0.739384
0.025337 0.657227 0.705849
0.105955 0.667202 0.724245
0.626163 0.669620 0.731476
0.958216 0.634011 0.714310
0.987015 0.682297 0.757508
0.028835 0.919533 0.722175
0.151609 0.939330 0.747668
0.658257 0.926989 0.744883
0.933578 0.916837 0.713602
0.990349 0.904365 0.719441
0.029739 0.990677 0.726059
0.194885 1.000000 0.748631
0.667740 0.996483 0.748917
0.956165 0.996655 0.720573
0.991166 0.969574 0.717041
0.014130 0.035934 0.880386
0.146816 0.054840 0.951912
0.647606 0.038532 0.947086
0.899143 0.036480 0.951586
0.968819 0.035942 0.952301
0.016813 0.223881 0.939142
0.130036 0.230825 0.954971
0.638692 0.243492 0.956756
0.902947 0.261394 0.959728
0.975397 0.269747 0.959850
0.025616 0.670677 0.954090
0.161273 0.682964 0.958544
0.644779 0.686518 0.960369
0.906247 0.700704 0.961900
0.976334 0.706280 0.961731
0.035679 0.917525 0.958822
0.201308 0.922840 0.959545
0.672374 0.924538 0.961356
0.924508 0.933608 0.962349
0.983883 0.937813 0.965990
0.042084 0.985496 0.959091
0.232832 0.987940 0.959879
0.693134 0.987690 0.961655
0.939155 0.993007 0.962564
0.993896 0.992195 0.961663
0.014130 0.038422 0.945831
0.160774 0.060768 1.000000
0.651322 0.043380 1.000000
0.895668 0.042335 1.000000
0.962585 0.042572 1.000000
0.019165 0.232621 1.000000
0.148371 0.242354 1.000000
0.641720 0.258869 1.000000
0.895664 0.278488 1.000000
0.964683 0.284851 1.000000
0.038376 0.672958 1.000000
0.189922 0.686195 1.000000
0.655342 0.693604 1.000000
0.904415 0.710545 1.000000
0.970551 0.716568 1.000000
0.057373 0.912453 1.000000
0.235382 0.919788 1.000000
0.690079 0.924747 1.000000
0.929348 0.937571 1.000000
0.985489 0.943214 1.000000
0.065460 0.978668 1.000000
0.254036 0.982979 1.000000
0.707595 0.985626 1.000000
0.945908 0.994331 1.000000
1.000000 1.000000 1.000000
