ml_luts/bw10__lut3d_33.cube
TITLE "BW10"
DOMAIN_MIN 0.000000 0.000000 0.000000
DOMAIN_MAX 1.000000 1.000000 1.000000
LUT_3D_SIZE 5
0.000000 0.000000 0.000000
0.086008 0.086008 0.086008
0.234791 0.234791 0.234791
0.447036 0.447036 0.447036
0.739193 0.739193 0.739193
0.160327 0.160327 0.160327
0.198426 0.198426 0.198426
0.318708 0.318708 0.318708
0.504375 0.504375 0.504375
0.768391 0.768391 0.768391
0.433264 0.433264 0.433264
0.450683 0.450683 0.450683
0.515217 0.515217 0.515217
0.656847 0.656847 0.656847
0.846189 0.846189 0.846189
0.714862 0.714862 0.714862
0.723403 0.723403 0.723403
0.752167 0.752167 0.752167
0.803748 0.803748 0.803748
0.925742 0.925742 0.925742
0.939574 0.939574 0.939574
0.942778 0.942778 0.942778
0.953460 0.953460 0.953460
0.970840 0.970840 0.970840
0.991272 0.991272 0.991272
0.050843 0.050843 0.050843
0.100429 0.100429 0.100429
0.266709 0.266709 0.266709
0.471796 0.471796 0.471796
0.743335 0.743335 0.743335
0.150093 0.150093 0.150093
0.215242 0.215242 0.215242
0.342215 0.342215 0.342215
0.523000 0.523000 0.523000
0.771746 0.771746 0.771746
0.436541 0.436541 0.436541
0.466499 0.466499 0.466499
0.525752 0.525752 0.525752
0.663952 0.663952 0.663952
0.848272 0.848272 0.848272
0.718582 0.718582 0.718582
0.729731 0.729731 0.729731
0.757302 0.757302 0.757302
0.807052 0.807052 0.807052
0.927380 0.927380 0.927380
0.940612 0.940612 0.940612
0.943755 0.943755 0.943755
0.954307 0.954307 0.954307
0.971382 0.971382 0.971382
0.991699 0.991699 0.991699
0.133593 0.133593 0.133593
0.169551 0.169551 0.169551
0.271229 0.271229 0.271229
0.496719 0.496719 0.496719
0.749202 0.749202 0.749202
0.236034 0.236034 0.236034
0.278819 0.278819 0.278819
0.354358 0.354358 0.354358
0.547374 0.547374 0.547374
0.770089 0.770089 0.770089
0.399008 0.399008 0.399008
0.442315 0.442315 0.442315
0.553815 0.553815 0.553815
0.675082 0.675082 0.675082
0.844884 0.844884 0.844884
0.715560 0.715560 0.715560
0.729970 0.729970 0.729970
0.771515 0.771515 0.771515
0.817082 0.817082 0.817082
0.930949 0.930949 0.930949
0.940246 0.940246 0.940246
0.944266 0.944266 0.944266
0.956679 0.956679 0.956679
0.973102 0.973102 0.973102
0.993088 0.993088 0.993088
0.270764 0.270764 0.270764
0.296546 0.296546 0.296546
0.372049 0.372049 0.372049
0.499863 0.499863 0.499863
0.777134 0.777134 0.777134
0.369028 0.369028 0.369028
0.387147 0.387147 0.387147
0.446652 0.446652 0.446652
0.552693 0.552693 0.552693
0.796561 0.796561 0.796561
0.478090 0.478090 0.478090
0.514164 0.514164 0.514164
0.620098 0.620098 0.620098
0.681928 0.681928 0.681928
0.849332 0.849332 0.849332
0.686440 0.686440 0.686440
0.703634 0.703634 0.703634
0.754863 0.754863 0.754863
0.836354 0.836354 0.836354
0.927714 0.927714 0.927714
0.939025 0.939025 0.939025
0.943000 0.943000 0.943000
0.956146 0.956146 0.956146
0.976511 0.976511 0.976511
0.995613 0.995613 0.995613
0.569207 0.569207 0.569207
0.585435 0.585435 0.585435
0.635187 0.635187 0.635187
0.705196 0.705196 0.705196
0.799924 0.799924 0.799924
0.623003 0.623003 0.623003
0.635285 0.635285 0.635285
0.674819 0.674819 0.674819
0.733558 0.733558 0.733558
0.816739 0.816739 0.816739
0.709285 0.709285 0.709285
0.735000 0.735000 0.735000
0.765973 0.765973 0.765965
0.805436 0.805436 0.805436
0.865721 0.865721 0.865721
0.825216 0.825216 0.825216
0.829042 0.829042 0.829042
0.840757 0.840757 0.840757
0.897261 0.897261 0.897261
0.934371 0.934371 0.934371
0.949187 0.949187 0.949187
0.951728 0.951728 0.951728
0.960602 0.960602 0.960602
0.976501 0.976501 0.976501
1.000000 1.000000 1.000000
