ml_luts/bw10__lut3d_33.cube
TITLE "BW10"
DOMAIN_MIN 0.000000 0.000000 0.000000
DOMAIN_MAX 1.000000 1.000000 1.000000
LUT_3D_SIZE 33
0.000000 0.000000 0.000000
0.002838 0.002838 0.002838
0.007508 0.007508 0.007508
0.017548 0.017548 0.017548
0.033082 0.033082 0.033082
0.049371 0.049371 0.049371
0.062466 0.062466 0.062466
0.073965 0.073965 0.073965
0.086008 0.086008 0.086008
0.099702 0.099702 0.099702
0.114900 0.114900 0.114900
0.131832 0.131832 0.131832
0.150176 0.150176 0.150176
0.169964 0.169964 0.169964
0.190925 0.190925 0.190925
0.212546 0.212546 0.212546
0.234791 0.234791 0.234791
0.257737 0.257737 0.257737
0.281207 0.281207 0.281207
0.305346 0.305346 0.305346
0.330671 0.330671 0.330671
0.357441 0.357441 0.357441
0.385757 0.385757 0.385757
0.415604 0.415604 0.415604
0.447036 0.447036 0.447036
0.479950 0.479950 0.479950
0.514372 0.514372 0.514372
0.550065 0.550065 0.550065
0.586812 0.586812 0.586812
0.624210 0.624210 0.624210
0.662169 0.662169 0.662169
0.700552 0.700552 0.700552
0.739193 0.739193 0.739193
0.006622 0.006622 0.006622
0.009461 0.009461 0.009461
0.014130 0.014130 0.014130
0.025028 0.025028 0.025028
0.039822 0.039822 0.039822
0.055220 0.055220 0.055220
0.066299 0.066299 0.066299
0.076949 0.076949 0.076949
0.088875 0.088875 0.088875
0.102379 0.102379 0.102379
0.117563 0.117563 0.117563
0.134348 0.134348 0.134348
0.152692 0.152692 0.152692
0.172378 0.172378 0.172378
0.193114 0.193114 0.193114
0.214692 0.214692 0.214692
0.236890 0.236890 0.236890
0.259705 0.259705 0.259705
0.283038 0.283038 0.283038
0.307025 0.307025 0.307025
0.332297 0.332297 0.332297
0.359006 0.359006 0.359006
0.387197 0.387197 0.387197
0.416990 0.416990 0.416990
0.448337 0.448337 0.448337
0.481244 0.481244 0.481244
0.515616 0.515616 0.515616
0.551189 0.551189 0.551189
0.587921 0.587921 0.587921
0.625203 0.625203 0.625203
0.663047 0.663047 0.663047
0.701290 0.701290 0.701290
0.739873 0.739873 0.739873
0.016907 0.016907 0.016907
0.018859 0.018859 0.018859
0.022641 0.022641 0.022641
0.035168 0.035168 0.035168
0.049510 0.049510 0.049510
0.061172 0.061172 0.061172
0.070678 0.070678 0.070678
0.080997 0.080997 0.080997
0.092759 0.092759 0.092759
0.106213 0.106213 0.106213
0.121220 0.121220 0.121220
0.137938 0.137938 0.137938
0.156114 0.156114 0.156114
0.175620 0.175620 0.175620
0.196223 0.196223 0.196223
0.217600 0.217600 0.217600
0.239661 0.239661 0.239661
0.262324 0.262324 0.262324
0.285475 0.285475 0.285475
0.309402 0.309402 0.309402
0.334584 0.334584 0.334584
0.361163 0.361163 0.361163
0.389248 0.389248 0.389248
0.418940 0.418940 0.418940
0.450167 0.450167 0.450167
0.482988 0.482988 0.482988
0.517201 0.517201 0.517201
0.552747 0.552747 0.552747
0.589344 0.589344 0.589344
0.626513 0.626513 0.626513
0.664241 0.664241 0.664241
0.702368 0.702368 0.702368
0.740810 0.740810 0.740810
0.040589 0.040589 0.040589
0.043338 0.043338 0.043338
0.045845 0.045845 0.045845
0.053208 0.053208 0.053208
0.063572 0.063572 0.063572
0.071745 0.071745 0.071745
0.080215 0.080215 0.080215
0.089961 0.089961 0.089961
0.101233 0.101233 0.101233
0.114209 0.114209 0.114209
0.128912 0.128912 0.128912
0.145339 0.145339 0.145339
0.163268 0.163268 0.163268
0.182494 0.182494 0.182494
0.202657 0.202657 0.202657
0.223688 0.223688 0.223688
0.245470 0.245470 0.245470
0.267826 0.267826 0.267826
0.290688 0.290688 0.290688
0.314301 0.314301 0.314301
0.339224 0.339224 0.339224
0.365626 0.365626 0.365626
0.393553 0.393553 0.393553
0.423066 0.423066 0.423066
0.454116 0.454116 0.454116
0.486688 0.486688 0.486688
0.520699 0.520699 0.520699
0.555943 0.555943 0.555943
0.592334 0.592334 0.592334
0.629229 0.629229 0.629229
0.666711 0.666711 0.666711
0.704615 0.704615 0.704615
0.742808 0.742808 0.742808
0.064893 0.064893 0.064893
0.066153 0.066153 0.066153
0.067632 0.067632 0.067632
0.071343 0.071343 0.071343
0.077736 0.077736 0.077736
0.087566 0.087566 0.087566
0.095265 0.095265 0.095265
0.104005 0.104005 0.104005
0.114493 0.114493 0.114493
0.126952 0.126952 0.126952
0.141163 0.141163 0.141163
0.157035 0.157035 0.157035
0.174379 0.174379 0.174379
0.193040 0.193040 0.193040
0.212656 0.212656 0.212656
0.233119 0.233119 0.233119
0.254383 0.254383 0.254383
0.276282 0.276282 0.276282
0.298711 0.298711 0.298711
0.321973 0.321973 0.321973
0.346572 0.346572 0.346572
0.372631 0.372631 0.372631
0.400266 0.400266 0.400266
0.429466 0.429466 0.429466
0.460228 0.460228 0.460228
0.492457 0.492457 0.492457
0.526127 0.526127 0.526127
0.561044 0.561044 0.561044
0.596943 0.596943 0.596943
0.633472 0.633472 0.633472
0.670567 0.670567 0.670567
0.708086 0.708086 0.708086
0.745892 0.745892 0.745892
0.085664 0.085664 0.085664
0.086623 0.086623 0.086623
0.087825 0.087825 0.087825
0.090617 0.090617 0.090617
0.095821 0.095821 0.095821
0.103391 0.103391 0.103391
0.114849 0.114849 0.114849
0.123342 0.123342 0.123342
0.132681 0.132681 0.132681
0.144089 0.144089 0.144089
0.157537 0.157537 0.157537
0.172624 0.172624 0.172624
0.189196 0.189196 0.189196
0.207039 0.207039 0.207039
0.225916 0.225916 0.225916
0.245688 0.245688 0.245688
0.266324 0.266324 0.266324
0.287628 0.287628 0.287628
0.309468 0.309468 0.309468
0.332246 0.332246 0.332246
0.356377 0.356377 0.356377
0.381984 0.381984 0.381984
0.409197 0.409197 0.409197
0.437963 0.437963 0.437963
0.468318 0.468318 0.468318
0.500148 0.500148 0.500148
0.533392 0.533392 0.533392
0.567848 0.567848 0.567848
0.603159 0.603159 0.603159
0.639143 0.639143 0.639143
0.675714 0.675714 0.675714
0.712733 0.712733 0.712733
0.750063 0.750063 0.750063
0.108022 0.108022 0.108022
0.108945 0.108945 0.108945
0.110049 0.110049 0.110049
0.112635 0.112635 0.112635
0.116835 0.116835 0.116835
0.123202 0.123202 0.123202
0.132038 0.132038 0.132038
0.145461 0.145461 0.145461
0.155310 0.155310 0.155310
0.165489 0.165489 0.165489
0.177833 0.177833 0.177833
0.191893 0.191893 0.191893
0.207503 0.207503 0.207503
0.224363 0.224363 0.224363
0.242294 0.242294 0.242294
0.261251 0.261251 0.261251
0.281122 0.281122 0.281122
0.301677 0.301677 0.301677
0.322861 0.322861 0.322861
0.345003 0.345003 0.345003
0.368515 0.368515 0.368515
0.393630 0.393630 0.393630
0.420356 0.420356 0.420356
0.448637 0.448637 0.448637
0.478440 0.478440 0.478440
0.509706 0.509706 0.509706
0.542371 0.542371 0.542371
0.576253 0.576253 0.576253
0.610885 0.610885 0.610885
0.646162 0.646162 0.646162
0.682114 0.682114 0.682114
0.718475 0.718475 0.718475
0.755198 0.755198 0.755198
0.132790 0.132790 0.132790
0.133683 0.133683 0.133683
0.134793 0.134793 0.134793
0.137138 0.137138 0.137138
0.140903 0.140903 0.140903
0.146288 0.146288 0.146288
0.153705 0.153705 0.153705
0.163833 0.163833 0.163833
0.179179 0.179179 0.179179
0.190475 0.190475 0.190475
0.201486 0.201486 0.201486
0.214340 0.214340 0.214340
0.228796 0.228796 0.228796
0.244589 0.244589 0.244589
0.261615 0.261615 0.261615
0.279662 0.279662 0.279662
0.298597 0.298597 0.298597
0.318330 0.318330 0.318330
0.338754 0.338754 0.338754
0.360166 0.360166 0.360166
0.383054 0.383054 0.383054
0.407563 0.407563 0.407563
0.433653 0.433653 0.433653
0.461324 0.461324 0.461324
0.490479 0.490479 0.490479
0.521096 0.521096 0.521096
0.553124 0.553124 0.553124
0.586145 0.586145 0.586145
0.619981 0.619981 0.619981
0.654511 0.654511 0.654511
0.689697 0.689697 0.689697
0.725348 0.725348 0.725348
0.761348 0.761348 0.761348
0.160327 0.160327 0.160327
0.161081 0.161081 0.161081
0.162192 0.162192 0.162192
0.164311 0.164311 0.164311
0.167774 0.167774 0.167774
0.172397 0.172397 0.172397
0.178888 0.178888 0.178888
0.187159 0.187159 0.187159
0.198426 0.198426 0.198426
0.213702 0.213702 0.213702
0.227449 0.227449 0.227449
0.239754 0.239754 0.239754
0.253021 0.253021 0.253021
0.267733 0.267733 0.267733
0.283712 0.283712 0.283712
0.300746 0.300746 0.300746
0.318708 0.318708 0.318708
0.337542 0.337542 0.337542
0.357103 0.357103 0.357103
0.377674 0.377674 0.377674
0.399819 0.399819 0.399819
0.423600 0.423600 0.423600
0.448955 0.448955 0.448955
0.475925 0.475925 0.475925
0.504375 0.504375 0.504375
0.534264 0.534264 0.534264
0.565387 0.565387 0.565387
0.597505 0.597505 0.597505
0.630430 0.630430 0.630430
0.664102 0.664102 0.664102
0.698422 0.698422 0.698422
0.733224 0.733224 0.733224
0.768391 0.768391 0.768391
0.190111 0.190111 0.190111
0.190862 0.190862 0.190862
0.191830 0.191830 0.191830
0.193745 0.193745 0.193745
0.196884 0.196884 0.196884
0.201129 0.201129 0.201129
0.206594 0.206594 0.206594
0.214024 0.214024 0.214024
0.222909 0.222909 0.222909
0.234665 0.234665 0.234665
0.249834 0.249834 0.249834
0.265915 0.265915 0.265915
0.279799 0.279799 0.279799
0.293353 0.293353 0.293353
0.308217 0.308217 0.308217
0.324245 0.324245 0.324245
0.341231 0.341231 0.341231
0.359042 0.359042 0.359042
0.377625 0.377625 0.377625
0.397310 0.397310 0.397310
0.418608 0.418608 0.418608
0.441589 0.441589 0.441589
0.466198 0.466198 0.466198
0.492338 0.492338 0.492338
0.519933 0.519933 0.519933
0.548934 0.548934 0.548934
0.579103 0.579103 0.579103
0.610206 0.610206 0.610206
0.642127 0.642127 0.642127
0.674825 0.674825 0.674825
0.708154 0.708154 0.708154
0.742026 0.742026 0.742026
0.776249 0.776249 0.776249
0.221702 0.221702 0.221702
0.222430 0.222430 0.222430
0.223281 0.223281 0.223281
0.225077 0.225077 0.225077
0.227931 0.227931 0.227931
0.231807 0.231807 0.231807
0.236730 0.236730 0.236730
0.243130 0.243130 0.243130
0.251211 0.251211 0.251211
0.260627 0.260627 0.260627
0.272466 0.272466 0.272466
0.287685 0.287685 0.287685
0.305864 0.305864 0.305864
0.321241 0.321241 0.321241
0.335002 0.335002 0.335002
0.349938 0.349938 0.349938
0.365838 0.365838 0.365838
0.382569 0.382569 0.382569
0.400134 0.400134 0.400134
0.418877 0.418877 0.418877
0.439283 0.439283 0.439283
0.461387 0.461387 0.461387
0.485085 0.485085 0.485085
0.510341 0.510341 0.510341
0.537001 0.537001 0.537001
0.564994 0.564994 0.564994
0.594073 0.594073 0.594073
0.624046 0.624046 0.624046
0.654896 0.654896 0.654896
0.686530 0.686530 0.686530
0.718793 0.718793 0.718793
0.751677 0.751677 0.751677
0.784865 0.784865 0.784865
0.254830 0.254830 0.254830
0.255463 0.255463 0.255463
0.256246 0.256246 0.256246
0.257885 0.257885 0.257885
0.260552 0.260552 0.260552
0.264130 0.264130 0.264130
0.268690 0.268690 0.268690
0.274260 0.274260 0.274260
0.281424 0.281424 0.281424
0.290095 0.290095 0.290095
0.299897 0.299897 0.299897
0.311658 0.311658 0.311658
0.326962 0.326962 0.326962
0.346900 0.346900 0.346900
0.363751 0.363751 0.363751
0.377522 0.377522 0.377522
0.392283 0.392283 0.392283
0.407945 0.407945 0.407945
0.424437 0.424437 0.424437
0.442135 0.442135 0.442135
0.461556 0.461556 0.461556
0.482688 0.482688 0.482688
0.505427 0.505427 0.505427
0.529686 0.529686 0.529686
0.555311 0.555311 0.555311
0.582201 0.582201 0.582201
0.610093 0.610093 0.610093
0.638877 0.638877 0.638877
0.668566 0.668566 0.668566
0.699079 0.699079 0.699079
0.730269 0.730269 0.730269
0.762016 0.762016 0.762016
0.794125 0.794125 0.794125
0.289132 0.289132 0.289132
0.289742 0.289742 0.289742
0.290452 0.290452 0.290452
0.292019 0.292019 0.292019
0.294466 0.294466 0.294466
0.297806 0.297806 0.297806
0.302036 0.302036 0.302036
0.307080 0.307080 0.307080
0.313239 0.313239 0.313239
0.321121 0.321121 0.321121
0.330289 0.330289 0.330289
0.340353 0.340353 0.340353
0.351900 0.351900 0.351900
0.367408 0.367408 0.367408
0.388666 0.388666 0.388666
0.406659 0.406659 0.406659
0.420302 0.420302 0.420302
0.434795 0.434795 0.434795
0.450139 0.450139 0.450139
0.466789 0.466789 0.466789
0.485174 0.485174 0.485174
0.505274 0.505274 0.505274
0.526975 0.526975 0.526975
0.550161 0.550161 0.550161
0.574642 0.574642 0.574642
0.600293 0.600293 0.600293
0.626927 0.626927 0.626927
0.654526 0.654526 0.654526
0.683031 0.683031 0.683031
0.712364 0.712364 0.712364
0.742400 0.742400 0.742400
0.772964 0.772964 0.772964
0.803910 0.803910 0.803910
0.324445 0.324445 0.324445
0.325013 0.325013 0.325013
0.325672 0.325672 0.325672
0.327171 0.327171 0.327171
0.329384 0.329384 0.329384
0.332477 0.332477 0.332477
0.336403 0.336403 0.336403
0.341116 0.341116 0.341116
0.346635 0.346635 0.346635
0.353515 0.353515 0.353515
0.361886 0.361886 0.361886
0.371325 0.371325 0.371325
0.381642 0.381642 0.381642
0.392837 0.392837 0.392837
0.409019 0.409019 0.409019
0.431114 0.431114 0.431114
0.449495 0.449495 0.449495
0.462774 0.462774 0.462774
0.476961 0.476961 0.476961
0.492523 0.492523 0.492523
0.509828 0.509828 0.509828
0.528857 0.528857 0.528857
0.549447 0.549447 0.549447
0.571451 0.571451 0.571451
0.594719 0.594719 0.594719
0.619069 0.619069 0.619069
0.644427 0.644427 0.644427
0.670791 0.670791 0.670791
0.698100 0.698100 0.698100
0.726214 0.726214 0.726214
0.755048 0.755048 0.755048
0.784418 0.784418 0.784418
0.814127 0.814127 0.814127
0.360502 0.360502 0.360502
0.360968 0.360968 0.360968
0.361564 0.361564 0.361564
0.362967 0.362967 0.362967
0.365039 0.365039 0.365039
0.367917 0.367917 0.367917
0.371529 0.371529 0.371529
0.375902 0.375902 0.375902
0.381012 0.381012 0.381012
0.387020 0.387020 0.387020
0.394456 0.394456 0.394456
0.403165 0.403165 0.403165
0.412781 0.412781 0.412781
0.423179 0.423179 0.423179
0.434333 0.434333 0.434333
0.450831 0.450831 0.450831
0.473141 0.473141 0.473141
0.491504 0.491504 0.491504
0.504530 0.504530 0.504530
0.518995 0.518995 0.518995
0.535211 0.535211 0.535211
0.553097 0.553097 0.553097
0.572511 0.572511 0.572511
0.593259 0.593259 0.593259
0.615238 0.615238 0.615238
0.638300 0.638300 0.638300
0.662412 0.662412 0.662412
0.687526 0.687526 0.687526
0.713614 0.713614 0.713614
0.740496 0.740496 0.740496
0.768093 0.768093 0.768093
0.796210 0.796210 0.796210
0.824659 0.824659 0.824659
0.396904 0.396904 0.396904
0.397303 0.397303 0.397303
0.397844 0.397844 0.397844
0.399118 0.399118 0.399118
0.401072 0.401072 0.401072
0.403732 0.403732 0.403732
0.407059 0.407059 0.407059
0.411102 0.411102 0.411102
0.415839 0.415839 0.415839
0.421256 0.421256 0.421256
0.427667 0.427667 0.427667
0.435516 0.435516 0.435516
0.444412 0.444412 0.444412
0.454050 0.454050 0.454050
0.464375 0.464375 0.464375
0.475330 0.475330 0.475330
0.491814 0.491814 0.491814
0.513479 0.513479 0.513479
0.531751 0.531751 0.531751
0.545845 0.545845 0.545845
0.560972 0.560972 0.560972
0.577676 0.577676 0.577676
0.595836 0.595836 0.595836
0.615311 0.615311 0.615311
0.635997 0.635997 0.635997
0.657795 0.657795 0.657795
0.680673 0.680673 0.680673
0.704542 0.704542 0.704542
0.729399 0.729399 0.729399
0.755047 0.755047 0.755047
0.781381 0.781381 0.781381
0.808210 0.808210 0.808210
0.835383 0.835383 0.835383
0.433264 0.433264 0.433264
0.433649 0.433649 0.433649
0.434148 0.434148 0.434148
0.435300 0.435300 0.435300
0.437112 0.437112 0.437112
0.439543 0.439543 0.439543
0.442613 0.442613 0.442613
0.446316 0.446316 0.446316
0.450683 0.450683 0.450683
0.455656 0.455656 0.455656
0.461279 0.461279 0.461279
0.468094 0.468094 0.468094
0.476154 0.476154 0.476154
0.485024 0.485024 0.485024
0.494519 0.494519 0.494519
0.504606 0.504606 0.504606
0.515217 0.515217 0.515217
0.530920 0.530920 0.530920
0.551940 0.551940 0.551940
0.571023 0.571023 0.571023
0.586723 0.586723 0.586723
0.602227 0.602227 0.602227
0.619138 0.619138 0.619138
0.637370 0.637370 0.637370
0.656847 0.656847 0.656847
0.677415 0.677415 0.677415
0.699061 0.699061 0.699061
0.721697 0.721697 0.721697
0.745308 0.745308 0.745308
0.769708 0.769708 0.769708
0.794780 0.794780 0.794780
0.820320 0.820320 0.820320
0.846189 0.846189 0.846189
0.469224 0.469224 0.469224
0.469581 0.469581 0.469581
0.470050 0.470050 0.470050
0.471095 0.471095 0.471095
0.472778 0.472778 0.472778
0.474993 0.474993 0.474993
0.477811 0.477811 0.477811
0.481167 0.481167 0.481167
0.485141 0.485141 0.485141
0.489734 0.489734 0.489734
0.494911 0.494911 0.494911
0.500808 0.500808 0.500808
0.507901 0.507901 0.507901
0.515997 0.515997 0.515997
0.524762 0.524762 0.524762
0.534086 0.534086 0.534086
0.543923 0.543923 0.543923
0.554255 0.554255 0.554255
0.569017 0.569017 0.569017
0.589546 0.589546 0.589546
0.609597 0.609597 0.609597
0.626478 0.626478 0.626478
0.642223 0.642223 0.642223
0.659280 0.659280 0.659280
0.677583 0.677583 0.677583
0.696973 0.696973 0.696973
0.717426 0.717426 0.717426
0.738855 0.738855 0.738855
0.761231 0.761231 0.761231
0.784382 0.784382 0.784382
0.808180 0.808180 0.808180
0.832429 0.832429 0.832429
0.856967 0.856967 0.856967
0.504872 0.504872 0.504872
0.505211 0.505211 0.505211
0.505666 0.505666 0.505666
0.506625 0.506625 0.506625
0.508173 0.508173 0.508173
0.510203 0.510203 0.510203
0.512785 0.512785 0.512785
0.515883 0.515883 0.515883
0.519557 0.519557 0.519557
0.523794 0.523794 0.523794
0.528589 0.528589 0.528589
0.533944 0.533944 0.533944
0.540078 0.540078 0.540078
0.547361 0.547361 0.547361
0.555490 0.555490 0.555490
0.564140 0.564140 0.564140
0.573287 0.573287 0.573287
0.582875 0.582875 0.582875
0.592836 0.592836 0.592836
0.606501 0.606501 0.606501
0.626313 0.626313 0.626313
0.647124 0.647124 0.647124
0.664941 0.664941 0.664941
0.680890 0.680890 0.680890
0.698043 0.698043 0.698043
0.716287 0.716287 0.716287
0.735591 0.735591 0.735591
0.755847 0.755847 0.755847
0.777009 0.777009 0.777009
0.798947 0.798947 0.798947
0.821468 0.821468 0.821468
0.844427 0.844427 0.844427
0.867632 0.867632 0.867632
0.540692 0.540692 0.540692
0.541023 0.541023 0.541023
0.541439 0.541439 0.541439
0.542334 0.542334 0.542334
0.543753 0.543753 0.543753
0.545652 0.545652 0.545652
0.548031 0.548031 0.548031
0.550909 0.550909 0.550909
0.554331 0.554331 0.554331
0.558233 0.558233 0.558233
0.562656 0.562656 0.562656
0.567582 0.567582 0.567582
0.572994 0.572994 0.572994
0.579383 0.579383 0.579383
0.586740 0.586740 0.586740
0.594697 0.594697 0.594697
0.603105 0.603105 0.603105
0.611919 0.611919 0.611919
0.621100 0.621100 0.621100
0.630635 0.630635 0.630635
0.643208 0.643208 0.643208
0.662110 0.662110 0.662110
0.683530 0.683530 0.683530
0.702054 0.702054 0.702054
0.718126 0.718126 0.718126
0.735264 0.735264 0.735264
0.753436 0.753436 0.753436
0.772555 0.772555 0.772555
0.792542 0.792542 0.792542
0.813278 0.813278 0.813278
0.834548 0.834548 0.834548
0.856218 0.856218 0.856218
0.878129 0.878129 0.878129
0.576646 0.576646 0.576646
0.576931 0.576931 0.576931
0.577301 0.577301 0.577301
0.578106 0.578106 0.578106
0.579409 0.579409 0.579409
0.581163 0.581163 0.581163
0.583350 0.583350 0.583350
0.586004 0.586004 0.586004
0.589126 0.589126 0.589126
0.592690 0.592690 0.592690
0.596746 0.596746 0.596746
0.601258 0.601258 0.601258
0.606210 0.606210 0.606210
0.611737 0.611737 0.611737
0.618174 0.618174 0.618174
0.625398 0.625398 0.625398
0.633103 0.633103 0.633103
0.641211 0.641211 0.641211
0.649680 0.649680 0.649680
0.658459 0.658459 0.658459
0.667529 0.667529 0.667529
0.678987 0.678987 0.678987
0.696807 0.696807 0.696807
0.718767 0.718767 0.718767
0.737694 0.737694 0.737694
0.753791 0.753791 0.753791
0.770880 0.770880 0.770880
0.788879 0.788879 0.788879
0.807743 0.807743 0.807743
0.827269 0.827269 0.827269
0.847325 0.847325 0.847325
0.867718 0.867718 0.867718
0.888380 0.888380 0.888380
0.612198 0.612198 0.612198
0.612454 0.612454 0.612454
0.612796 0.612796 0.612796
0.613546 0.613546 0.613546
0.614715 0.614715 0.614715
0.616286 0.616286 0.616286
0.618283 0.618283 0.618283
0.620699 0.620699 0.620699
0.623558 0.623558 0.623558
0.626806 0.626806 0.626806
0.630489 0.630489 0.630489
0.634629 0.634629 0.634629
0.639169 0.639169 0.639169
0.644094 0.644094 0.644094
0.649650 0.649650 0.649650
0.656078 0.656078 0.656078
0.663128 0.663128 0.663128
0.670565 0.670565 0.670565
0.678363 0.678363 0.678363
0.686436 0.686436 0.686436
0.694787 0.694787 0.694787
0.703413 0.703413 0.703413
0.713795 0.713795 0.713795
0.730324 0.730324 0.730324
0.752690 0.752690 0.752690
0.771744 0.771744 0.771744
0.787818 0.787818 0.787818
0.804740 0.804740 0.804740
0.822474 0.822474 0.822474
0.840844 0.840844 0.840844
0.859712 0.859712 0.859712
0.878876 0.878876 0.878876
0.898306 0.898306 0.898306
0.647131 0.647131 0.647131
0.647367 0.647367 0.647367
0.647681 0.647681 0.647681
0.648367 0.648367 0.648367
0.649444 0.649444 0.649444
0.650861 0.650861 0.650861
0.652695 0.652695 0.652695
0.654871 0.654871 0.654871
0.657480 0.657480 0.657480
0.660444 0.660444 0.660444
0.663818 0.663818 0.663818
0.667591 0.667591 0.667591
0.671733 0.671733 0.671733
0.676244 0.676244 0.676239
0.681105 0.681105 0.681101
0.686696 0.686696 0.686696
0.693045 0.693045 0.693045
0.699842 0.699842 0.699842
0.706990 0.706990 0.706990
0.714423 0.714423 0.714423
0.722108 0.722108 0.722108
0.730027 0.730027 0.730027
0.738159 0.738159 0.738159
0.747547 0.747547 0.747547
0.762534 0.762534 0.762534
0.785139 0.785139 0.785139
0.803941 0.803941 0.803941
0.820064 0.820064 0.820064
0.836716 0.836716 0.836716
0.853970 0.853970 0.853970
0.871655 0.871655 0.871655
0.889653 0.889653 0.889653
0.907879 0.907879 0.907879
0.681380 0.681380 0.681380
0.681616 0.681616 0.681616
0.681895 0.681895 0.681895
0.682505 0.682505 0.682505
0.683471 0.683471 0.683471
0.684763 0.684763 0.684763
0.686442 0.686442 0.686442
0.688439 0.688439 0.688439
0.690791 0.690791 0.690791
0.693493 0.693493 0.693493
0.696573 0.696573 0.696573
0.700007 0.700007 0.700007
0.703770 0.703770 0.703770
0.707884 0.707884 0.707870
0.712332 0.712332 0.712322
0.717206 0.717206 0.717206
0.722753 0.722753 0.722753
0.728904 0.728904 0.728904
0.735413 0.735413 0.735413
0.742223 0.742223 0.742223
0.749275 0.749275 0.749275
0.756535 0.756535 0.756535
0.764006 0.764006 0.764006
0.771656 0.771656 0.771656
0.780041 0.780041 0.780041
0.793151 0.793151 0.793151
0.815539 0.815539 0.815539
0.834181 0.834181 0.834181
0.850371 0.850371 0.850371
0.866542 0.866542 0.866542
0.883106 0.883106 0.883106
0.899973 0.899973 0.899973
0.917046 0.917046 0.917046
0.714862 0.714862 0.714862
0.715077 0.715077 0.715077
0.715320 0.715320 0.715320
0.715875 0.715875 0.715875
0.716745 0.716745 0.716745
0.717930 0.717930 0.717930
0.719436 0.719436 0.719436
0.721269 0.721269 0.721269
0.723403 0.723403 0.723403
0.725858 0.725858 0.725858
0.728658 0.728658 0.728658
0.731788 0.731788 0.731788
0.735211 0.735211 0.735211
0.738945 0.738945 0.738945
0.742999 0.742999 0.742999
0.747348 0.747348 0.747348
0.752167 0.752167 0.752167
0.757611 0.757611 0.757611
0.763540 0.763540 0.763540
0.769753 0.769753 0.769753
0.776178 0.776178 0.776178
0.782807 0.782807 0.782807
0.789625 0.789625 0.789625
0.796609 0.796609 0.796609
0.803748 0.803748 0.803748
0.811216 0.811216 0.811216
0.822208 0.822208 0.822208
0.843871 0.843871 0.843871
0.862622 0.862622 0.862622
0.878535 0.878535 0.878535
0.894045 0.894045 0.894045
0.909822 0.909822 0.909822
0.925742 0.925742 0.925742
0.747481 0.747481 0.747481
0.747635 0.747635 0.747635
0.747886 0.747886 0.747886
0.748388 0.748388 0.748388
0.749195 0.749195 0.749195
0.750244 0.750244 0.750244
0.751607 0.751607 0.751607
0.753251 0.753251 0.753251
0.755201 0.755201 0.755201
0.757441 0.757441 0.757441
0.759963 0.759963 0.759963
0.762800 0.762800 0.762800
0.765916 0.765916 0.765916
0.769308 0.769308 0.769308
0.772992 0.772992 0.772992
0.776953 0.776953 0.776953
0.781156 0.781156 0.781156
0.785869 0.785869 0.785869
0.791194 0.791194 0.791194
0.796822 0.796822 0.796822
0.802642 0.802642 0.802642
0.808674 0.808674 0.808674
0.814881 0.814881 0.814881
0.821236 0.821236 0.821236
0.827737 0.827737 0.827737
0.834325 0.834325 0.834325
0.841012 0.841012 0.841012
0.850058 0.850058 0.850058
0.870760 0.870760 0.870760
0.889107 0.889107 0.889107
0.904449 0.904449 0.904449
0.919157 0.919157 0.919157
0.934002 0.934002 0.934002
0.779116 0.779116 0.779116
0.779288 0.779288 0.779288
0.779488 0.779488 0.779488
0.779938 0.779938 0.779938
0.780663 0.780663 0.780663
0.781642 0.781642 0.781642
0.782873 0.782873 0.782873
0.784342 0.784342 0.784342
0.786095 0.786095 0.786095
0.788117 0.788117 0.788117
0.790405 0.790405 0.790405
0.792957 0.792957 0.792957
0.795770 0.795770 0.795770
0.798847 0.798847 0.798847
0.802170 0.802170 0.802170
0.805748 0.805748 0.805748
0.809565 0.809565 0.809565
0.813651 0.813651 0.813651
0.818232 0.818232 0.818232
0.823290 0.823290 0.823290
0.828552 0.828552 0.828552
0.834000 0.834000 0.834000
0.839603 0.839603 0.839603
0.845334 0.845334 0.845334
0.851196 0.851196 0.851196
0.857131 0.857131 0.857131
0.863153 0.863153 0.863153
