ml_luts/bw10__lut3d_33.cube
TITLE "BW10"
DOMAIN_MIN 0.000000 0.000000 0.000000
DOMAIN_MAX 1.000000 1.000000 1.000000
LUT_3D_SIZE 9
0.000000 0.000000 0.000000
0.033082 0.033082 0.033082
0.086008 0.086008 0.086008
0.150176 0.150176 0.150176
0.234791 0.234791 0.234791
0.330671 0.330671 0.330671
0.447036 0.447036 0.447036
0.586812 0.586812 0.586812
0.739193 0.739193 0.739193
0.064893 0.064893 0.064893
0.077736 0.077736 0.077736
0.114493 0.114493 0.114493
0.174379 0.174379 0.174379
0.254383 0.254383 0.254383
0.346572 0.346572 0.346572
0.460228 0.460228 0.460228
0.596943 0.596943 0.596943
0.745892 0.745892 0.745892
0.160327 0.160327 0.160327
0.167774 0.167774 0.167774
0.198426 0.198426 0.198426
0.253021 0.253021 0.253021
0.318708 0.318708 0.318708
0.399819 0.399819 0.399819
0.504375 0.504375 0.504375
0.630430 0.630430 0.630430
0.768391 0.768391 0.768391
0.289132 0.289132 0.289132
0.294466 0.294466 0.294466
0.313239 0.313239 0.313239
0.351900 0.351900 0.351900
0.420302 0.420302 0.420302
0.485174 0.485174 0.485174
0.574642 0.574642 0.574642
0.683031 0.683031 0.683031
0.803910 0.803910 0.803910
0.433264 0.433264 0.433264
0.437112 0.437112 0.437112
0.450683 0.450683 0.450683
0.476154 0.476154 0.476154
0.515217 0.515217 0.515217
0.586723 0.586723 0.586723
0.656847 0.656847 0.656847
0.745308 0.745308 0.745308
0.846189 0.846189 0.846189
0.576646 0.576646 0.576646
0.579409 0.579409 0.579409
0.589126 0.589126 0.589126
0.606210 0.606210 0.606210
0.633103 0.633103 0.633103
0.667529 0.667529 0.667529
0.737694 0.737694 0.737694
0.807743 0.807743 0.807743
0.888380 0.888380 0.888380
0.714862 0.714862 0.714862
0.716745 0.716745 0.716745
0.723403 0.723403 0.723403
0.735211 0.735211 0.735211
0.752167 0.752167 0.752167
0.776178 0.776178 0.776178
0.803748 0.803748 0.803748
0.862622 0.862622 0.862622
0.925742 0.925742 0.925742
0.838964 0.838964 0.838964
0.840185 0.840185 0.840185
0.844537 0.844537 0.844537
0.852290 0.852290 0.852290
0.863308 0.863308 0.863308
0.877791 0.877791 0.877791
0.895742 0.895742 0.895742
0.914920 0.914920 0.914920
0.955337 0.955337 0.955337
0.939574 0.939574 0.939574
0.940291 0.940291 0.940291
0.942778 0.942778 0.942778
0.947188 0.947188 0.947188
0.953460 0.953460 0.953460
0.961303 0.961303 0.961303
0.970840 0.970840 0.970840
0.981136 0.981136 0.981136
0.991272 0.991272 0.991272
0.014771 0.014771 0.014771
0.035019 0.035019 0.035019
0.097860 0.097860 0.097860
0.168767 0.168767 0.168767
0.250351 0.250351 0.250351
0.342558 0.342558 0.342558
0.455288 0.455288 0.455288
0.591365 0.591365 0.591365
0.740700 0.740700 0.740700
0.059682 0.059682 0.059682
0.083709 0.083709 0.083709
0.127064 0.127064 0.127064
0.189791 0.189791 0.189791
0.267814 0.267814 0.267814
0.357284 0.357284 0.357284
0.467856 0.467856 0.467856
0.601118 0.601118 0.601118
0.747375 0.747375 0.747375
0.162580 0.162580 0.162580
0.176219 0.176219 0.176219
0.203638 0.203638 0.203638
0.259853 0.259853 0.259853
0.326971 0.326971 0.326971
0.407426 0.407426 0.407426
0.510208 0.510208 0.510208
0.633703 0.633703 0.633703
0.769582 0.769582 0.769582
0.293093 0.293093 0.293093
0.300932 0.300932 0.300932
0.318765 0.318765 0.318765
0.356407 0.356407 0.356407
0.423463 0.423463 0.423463
0.489332 0.489332 0.489332
0.578210 0.578210 0.578210
0.685212 0.685212 0.685212
0.804772 0.804772 0.804772
0.437695 0.437695 0.437695
0.441581 0.441581 0.441581
0.454827 0.454827 0.454827
0.479374 0.479374 0.479374
0.517755 0.517755 0.517755
0.588285 0.588285 0.588285
0.658661 0.658661 0.658661
0.746652 0.746652 0.746652
0.846792 0.846792 0.846792
0.579563 0.579563 0.579563
0.582280 0.582280 0.582280
0.591828 0.591828 0.591828
0.608665 0.608665 0.608665
0.634951 0.634951 0.634951
0.668996 0.668996 0.668996
0.738563 0.738563 0.738563
0.808551 0.808551 0.808551
0.888857 0.888857 0.888857
0.716458 0.716458 0.716458
0.718339 0.718339 0.718339
0.724901 0.724901 0.724901
0.736615 0.736615 0.736615
0.753359 0.753359 0.753359
0.777095 0.777095 0.777095
0.804510 0.804510 0.804510
0.863306 0.863306 0.863306
0.926139 0.926139 0.926139
0.839690 0.839690 0.839690
0.840931 0.840931 0.840931
0.845245 0.845245 0.845245
0.852949 0.852949 0.852949
0.863907 0.863907 0.863907
0.878229 0.878229 0.878229
0.896126 0.896126 0.896126
0.915251 0.915251 0.915251
0.955713 0.955713 0.955713
0.939807 0.939807 0.939807
0.940527 0.940527 0.940527
0.943007 0.943007 0.943007
0.947407 0.947407 0.947407
0.953645 0.953645 0.953645
0.961476 0.961476 0.961476
0.970954 0.970954 0.970954
0.981250 0.981250 0.981250
0.991386 0.991386 0.991386
0.050843 0.050843 0.050843
0.063291 0.063291 0.063291
0.100429 0.100429 0.100429
0.180099 0.180099 0.180099
0.266709 0.266709 0.266709
0.362704 0.362704 0.362704
0.471796 0.471796 0.471796
0.600657 0.600657 0.600657
0.743335 0.743335 0.743335
0.087828 0.087828 0.087828
0.104783 0.104783 0.104783
0.133189 0.133189 0.133189
0.204130 0.204130 0.204130
0.285797 0.285797 0.285797
0.377109 0.377109 0.377109
0.483442 0.483442 0.483442
0.609946 0.609946 0.609946
0.749897 0.749897 0.749897
0.150093 0.150093 0.150093
0.168398 0.168398 0.168398
0.215242 0.215242 0.215242
0.272180 0.272180 0.272180
0.342215 0.342215 0.342215
0.423193 0.423193 0.423193
0.523000 0.523000 0.523000
0.641044 0.641044 0.641044
0.771746 0.771746 0.771746
0.291117 0.291117 0.291117
0.301691 0.301691 0.301691
0.332699 0.332699 0.332699
0.368488 0.368488 0.368488
0.431319 0.431319 0.431319
0.499449 0.499449 0.499449
0.587096 0.587096 0.587096
0.690596 0.690596 0.690596
0.806577 0.806577 0.806577
0.436541 0.436541 0.436541
0.444314 0.444314 0.444314
0.466499 0.466499 0.466499
0.489193 0.489193 0.489193
0.525752 0.525752 0.525752
0.593157 0.593157 0.593157
0.663952 0.663952 0.663952
0.750286 0.750286 0.750286
0.848272 0.848272 0.848272
0.580817 0.580817 0.580817
0.586160 0.586160 0.586160
0.600155 0.600155 0.600155
0.616328 0.616328 0.616328
0.640756 0.640756 0.640756
0.673751 0.673751 0.673751
0.741459 0.741459 0.741459
0.811018 0.811018 0.811018
0.890173 0.890173 0.890173
0.718582 0.718582 0.718582
0.721882 0.721882 0.721882
0.729731 0.729731 0.729731
0.741113 0.741113 0.741113
0.757302 0.757302 0.757302
0.780144 0.780144 0.780144
0.807052 0.807052 0.807052
0.865598 0.865598 0.865598
0.927380 0.927380 0.927380
0.841457 0.841457 0.841457
0.843149 0.843149 0.843149
0.847510 0.847510 0.847510
0.855078 0.855078 0.855078
0.865851 0.865851 0.865851
0.879709 0.879709 0.879709
0.897394 0.897394 0.897394
0.916359 0.916359 0.916359
0.956984 0.956984 0.956984
0.940612 0.940612 0.940612
0.941301 0.941301 0.941301
0.943755 0.943755 0.943755
0.948123 0.948123 0.948123
0.954307 0.954307 0.954307
0.962065 0.962065 0.962065
0.971382 0.971382 0.971382
0.981624 0.981624 0.981624
0.991699 0.991699 0.991699
0.086248 0.086248 0.086248
0.096306 0.096306 0.096306
0.127344 0.127344 0.127344
0.179564 0.179564 0.179564
0.275147 0.275147 0.275147
0.372592 0.372592 0.372592
0.484117 0.484117 0.484117
0.608613 0.608613 0.608613
0.741806 0.741806 0.741806
0.128972 0.128972 0.128972
0.136069 0.136069 0.136069
0.159673 0.159673 0.159673
0.204668 0.204668 0.204668
0.294698 0.294698 0.294698
0.388189 0.388189 0.388189
0.496458 0.496458 0.496458
0.617257 0.617257 0.617257
0.748490 0.748490 0.748490
0.173630 0.173630 0.173630
0.191766 0.191766 0.191766
0.243137 0.243137 0.243137
0.277998 0.277998 0.277998
0.355006 0.355006 0.355006
0.438458 0.438458 0.438458
0.536242 0.536242 0.536242
0.646718 0.646718 0.646718
0.770814 0.770814 0.770814
0.267611 0.267611 0.267611
0.280757 0.280757 0.280757
0.322721 0.322721 0.322721
0.382467 0.382467 0.382467
0.443072 0.443072 0.443072
0.512797 0.512797 0.512797
0.597224 0.597224 0.597224
0.695228 0.695228 0.695228
0.806350 0.806350 0.806350
0.433429 0.433429 0.433429
0.441076 0.441076 0.441076
0.466370 0.466370 0.466370
0.504574 0.504574 0.504574
0.540120 0.540120 0.540120
0.600768 0.600768 0.600768
0.670753 0.670753 0.670753
0.754044 0.754044 0.754044
0.848892 0.848892 0.848886
0.578804 0.578804 0.578804
0.584125 0.584125 0.584125
0.601832 0.601832 0.601832
0.627802 0.627802 0.627802
0.650131 0.650131 0.650131
0.681491 0.681491 0.681491
0.746061 0.746061 0.746061
0.814267 0.814267 0.814267
0.891518 0.891518 0.891518
0.717394 0.717394 0.717394
0.720702 0.720702 0.720702
0.731882 0.731882 0.731882
0.748143 0.748143 0.748143
0.763777 0.763777 0.763777
0.785011 0.785011 0.785011
0.811289 0.811289 0.811289
0.868814 0.868814 0.868814
0.929234 0.929234 0.929234
0.840839 0.840839 0.840839
0.842714 0.842714 0.842714
0.849182 0.849182 0.849182
0.858437 0.858437 0.858437
0.868980 0.868980 0.868980
0.882331 0.882331 0.882331
0.899516 0.899516 0.899516
0.918234 0.918234 0.918234
0.959175 0.959175 0.959175
0.940543 0.940543 0.940543
0.941436 0.941436 0.941436
0.944579 0.944579 0.944579
0.949241 0.949241 0.949241
0.955369 0.955369 0.955369
0.963050 0.963050 0.963050
0.972095 0.972095 0.972095
0.982284 0.982284 0.982284
0.992271 0.992271 0.992271
0.133593 0.133593 0.133593
0.142311 0.142311 0.142311
0.169551 0.169551 0.169551
0.210306 0.210306 0.210306
0.271229 0.271229 0.271229
0.378422 0.378422 0.378422
0.496719 0.496719 0.496719
0.619812 0.619812 0.619812
0.749202 0.749202 0.749202
0.171210 0.171210 0.171210
0.177773 0.177773 0.177773
0.199329 0.199329 0.199329
0.234436 0.234436 0.234436
0.291193 0.291193 0.291193
0.394904 0.394904 0.394904
0.508670 0.508670 0.508670
0.627981 0.627981 0.627981
0.754047 0.754047 0.754047
0.236034 0.236034 0.236034
0.254048 0.254048 0.254048
0.278819 0.278819 0.278819
0.306941 0.306941 0.306941
0.354358 0.354358 0.354358
0.447383 0.447383 0.447383
0.547374 0.547374 0.547374
0.654661 0.654661 0.654661
0.770089 0.770089 0.770089
0.291404 0.291404 0.291404
0.303845 0.303845 0.303845
0.345300 0.345300 0.345300
0.411880 0.411880 0.411880
0.448922 0.448922 0.448922
0.524320 0.524320 0.524320
0.605557 0.605557 0.605557
0.695581 0.695581 0.695581
0.798770 0.798770 0.798770
0.399008 0.399008 0.399008
0.409146 0.409146 0.409146
0.442315 0.442315 0.442315
0.494768 0.494768 0.494768
0.553815 0.553815 0.553815
0.609050 0.609050 0.609050
0.675082 0.675082 0.675082
0.753540 0.753540 0.753540
0.844884 0.844884 0.844884
0.572658 0.572658 0.572658
0.578584 0.578584 0.578584
0.598323 0.598323 0.598323
0.627487 0.627487 0.627487
0.662401 0.662401 0.662401
0.693634 0.693634 0.693634
0.751006 0.751006 0.751006
0.816179 0.816179 0.816179
0.890974 0.890974 0.890974
0.715560 0.715560 0.715560
0.718840 0.718840 0.718840
0.729970 0.729970 0.729970
0.748578 0.748578 0.748578
0.771515 0.771515 0.771515
0.791364 0.791364 0.791364
0.817082 0.817082 0.817082
0.872460 0.872460 0.872460
0.930949 0.930949 0.930949
0.839822 0.839822 0.839822
0.841686 0.841686 0.841686
0.848107 0.848107 0.848107
0.859075 0.859075 0.859075
0.872820 0.872820 0.872820
0.885951 0.885951 0.885951
0.902298 0.902298 0.902298
0.920890 0.920890 0.920890
0.962108 0.962108 0.962108
0.940246 0.940246 0.940246
0.941150 0.941150 0.941150
0.944266 0.944266 0.944266
0.949703 0.949703 0.949703
0.956679 0.956679 0.956679
0.964317 0.964317 0.964317
0.973102 0.973102 0.973102
0.983192 0.983192 0.983192
0.993088 0.993088 0.993088
0.192767 0.192767 0.192767
0.200126 0.200126 0.200126
0.223081 0.223081 0.223081
0.259267 0.259267 0.259267
0.307105 0.307105 0.307105
0.375838 0.375838 0.375838
0.498312 0.498312 0.498312
0.634456 0.634456 0.634456
0.762527 0.762527 0.762527
0.224388 0.224388 0.224388
0.230104 0.230104 0.230104
0.249503 0.249503 0.249503
0.281803 0.281803 0.281803
0.326405 0.326405 0.326405
0.392220 0.392219 0.392219
0.511051 0.511051 0.511051
0.642451 0.642451 0.642451
0.767067 0.767067 0.767067
0.304453 0.304453 0.304453
0.308795 0.308795 0.308795
0.323848 0.323848 0.323848
0.350353 0.350353 0.350353
0.387867 0.387867 0.387867
0.445074 0.445074 0.445074
0.552278 0.552278 0.552278
0.667746 0.667746 0.667746
0.782136 0.782136 0.782136
0.336797 0.336797 0.336797
0.351639 0.351639 0.351639
0.406553 0.406553 0.406553
0.450322 0.450322 0.450322
0.479709 0.479709 0.479709
0.524517 0.524517 0.524517
0.613773 0.613773 0.613773
0.706617 0.706617 0.706617
0.806185 0.806185 0.806185
0.429856 0.429856 0.429856
0.439126 0.439126 0.439126
0.469737 0.469737 0.469737
0.518130 0.518130 0.518130
0.580822 0.580822 0.580822
0.613602 0.613602 0.613602
0.681545 0.681545 0.681545
0.754448 0.754448 0.754448
0.837846 0.837846 0.837846
0.541755 0.541755 0.541755
0.548629 0.548629 0.548629
0.571349 0.571349 0.571349
0.608177 0.608177 0.608177
0.654092 0.654092 0.654092
0.705607 0.705607 0.705607
0.754633 0.754633 0.754633
0.814290 0.814290 0.814290
0.885772 0.885772 0.885772
0.704856 0.704856 0.704856
0.709174 0.709174 0.709174
0.723678 0.723678 0.723678
0.744613 0.744613 0.744613
0.770536 0.770536 0.770536
0.800260 0.800260 0.800260
0.826128 0.826128 0.826128
0.875856 0.875856 0.875856
0.931498 0.931498 0.931498
0.838288 0.838288 0.838288
0.840146 0.840146 0.840146
0.846508 0.846508 0.846508
0.857411 0.857411 0.857411
0.872549 0.872549 0.872549
0.890543 0.890543 0.890543
0.906049 0.906049 0.906049
0.924564 0.924564 0.924564
0.965216 0.965216 0.965216
0.939761 0.939761 0.939761
0.940671 0.940671 0.940671
0.943771 0.943771 0.943771
0.949198 0.949198 0.949198
0.956851 0.956851 0.956851
0.965905 0.965905 0.965905
0.974636 0.974636 0.974636
0.984381 0.984381 0.984381
0.994205 0.994205 0.994205
0.270764 0.270764 0.270764
0.276713 0.276713 0.276713
0.296546 0.296546 0.296546
0.328982 0.328982 0.328982
0.372049 0.372049 0.372049
0.427645 0.427645 0.427645
0.499863 0.499863 0.499863
0.632197 0.632197 0.632197
0.777134 0.777134 0.777134
0.296853 0.296853 0.296853
0.301961 0.301961 0.301961
0.319413 0.319413 0.319413
0.349231 0.349231 0.349231
0.389971 0.389971 0.389971
0.442753 0.442753 0.442753
0.512339 0.512339 0.512339
0.640629 0.640629 0.640629
0.781872 0.781872 0.781872
0.369028 0.369028 0.369028
0.373066 0.373066 0.373066
0.387147 0.387147 0.387147
0.411977 0.411977 0.411977
0.446652 0.446652 0.446652
0.491385 0.491385 0.491385
0.552693 0.552693 0.552693
0.668133 0.668133 0.668133
0.796561 0.796561 0.796561
0.433967 0.433967 0.433967
0.448251 0.448251 0.448251
0.482279 0.482279 0.482279
0.502605 0.502605 0.502605
0.529794 0.529794 0.529794
0.564026 0.564026 0.564026
0.612992 0.612992 0.612989
0.710209 0.710209 0.710209
0.819691 0.819691 0.819691
0.478090 0.478090 0.478090
0.485870 0.485870 0.485870
0.514164 0.514164 0.514164
0.574201 0.574201 0.574201
0.620098 0.620098 0.620098
0.645047 0.645047 0.645047
0.681928 0.681928 0.681928
0.761891 0.761891 0.761891
0.849332 0.849332 0.849332
0.585666 0.585666 0.585666
0.591401 0.591401 0.591401
0.610335 0.610335 0.610335
0.639834 0.639834 0.639834
0.676845 0.676845 0.676845
0.729733 0.729733 0.729733
0.758094 0.758094 0.758094
0.818577 0.818577 0.818577
0.884227 0.884227 0.884227
0.686440 0.686440 0.686440
0.690377 0.690377 0.690377
0.703634 0.703634 0.703634
0.725226 0.725226 0.725226
0.754863 0.754863 0.754863
0.793017 0.793017 0.793017
0.836354 0.836354 0.836354
0.876988 0.876988 0.876988
0.927714 0.927714 0.927714
0.824169 0.824169 0.824169
0.826789 0.826789 0.826789
0.835806 0.835806 0.835806
0.850870 0.850870 0.850870
0.869332 0.869332 0.869332
0.889613 0.889613 0.889613
0.911757 0.911757 0.911757
0.930109 0.930109 0.930109
0.967975 0.967975 0.967975
0.939025 0.939025 0.939025
0.939914 0.939914 0.939914
0.943000 0.943000 0.943000
0.948436 0.948436 0.948436
0.956146 0.956146 0.956146
0.965786 0.965786 0.965786
0.976511 0.976511 0.976511
0.985854 0.985854 0.985854
0.995613 0.995613 0.995613
0.383215 0.383215 0.383215
0.388203 0.388203 0.388203
0.405139 0.405139 0.405139
0.433753 0.433753 0.433753
0.472210 0.472210 0.472210
0.518132 0.518132 0.518132
0.575601 0.575601 0.575601
0.640474 0.640474 0.640474
0.776143 0.776143 0.776143
0.404277 0.404277 0.404277
0.408743 0.408743 0.408743
0.424244 0.424244 0.424244
0.450910 0.450910 0.450910
0.487295 0.487295 0.487295
0.531048 0.531048 0.531048
0.585847 0.585847 0.585847
0.648408 0.648408 0.648408
0.780823 0.780823 0.780823
0.465308 0.465308 0.465308
0.468962 0.468962 0.468962
0.481622 0.481622 0.481622
0.503828 0.503828 0.503828
0.534635 0.534635 0.534635
0.572047 0.572047 0.572047
0.618574 0.618574 0.618574
0.674219 0.674219 0.674219
0.796337 0.796337 0.796337
0.547533 0.547533 0.547533
0.552153 0.552153 0.552153
0.561813 0.561813 0.561813
0.578851 0.578851 0.578851
0.602553 0.602553 0.602553
0.631626 0.631626 0.631626
0.667236 0.667236 0.667236
0.713778 0.713778 0.713778
0.821315 0.821315 0.821315
0.563737 0.563737 0.563737
0.573950 0.573950 0.573950
0.607255 0.607255 0.607255
0.653303 0.653303 0.653303
0.675197 0.675197 0.675197
0.697383 0.697383 0.697383
0.724107 0.724107 0.724107
0.762981 0.762981 0.762981
0.854020 0.854020 0.854020
0.645155 0.645155 0.645155
0.649024 0.649024 0.649024
0.661527 0.661527 0.661527
0.681035 0.681035 0.681035
0.725919 0.725919 0.725919
0.768237 0.768237 0.768237
0.789449 0.789449 0.789448
0.819493 0.819493 0.819493
0.891810 0.891810 0.891810
0.741933 0.741933 0.741933
0.744617 0.744617 0.744617
0.753542 0.753542 0.753542
0.768262 0.768262 0.768262
0.789011 0.789011 0.789011
0.815836 0.815836 0.815836
0.857152 0.857152 0.857152
0.879207 0.879207 0.879207
0.930427 0.930427 0.930427
0.822544 0.822544 0.822544
0.824386 0.824386 0.824386
0.830758 0.830758 0.830758
0.842012 0.842012 0.842012
0.858180 0.858180 0.858180
0.879431 0.879431 0.879431
0.906219 0.906219 0.906219
0.937376 0.937376 0.937376
0.967631 0.967631 0.967631
0.927180 0.927180 0.927180
0.928480 0.928480 0.928480
0.933056 0.933056 0.933056
0.941019 0.941019 0.941019
0.952071 0.952071 0.952071
0.964432 0.964432 0.964432
0.976105 0.976105 0.976105
0.988037 0.988037 0.988037
0.997414 0.997414 0.997414
0.569207 0.569207 0.569207
0.572846 0.572846 0.572846
0.585435 0.585435 0.585435
0.606691 0.606691 0.606691
0.635187 0.635187 0.635187
0.668681 0.668681 0.668681
0.705196 0.705196 0.705196
0.752071 0.752071 0.752071
0.799924 0.799924 0.799924
0.582803 0.582803 0.582803
0.586198 0.586198 0.586198
0.597829 0.597829 0.597829
0.617824 0.617824 0.617824
0.644779 0.644779 0.644779
0.676793 0.676793 0.676793
0.711900 0.711900 0.711900
0.757121 0.757121 0.757121
0.803834 0.803834 0.803834
0.623003 0.623003 0.623003
0.625718 0.625718 0.625718
0.635285 0.635285 0.635285
0.651917 0.651917 0.651917
0.674819 0.674819 0.674819
0.702568 0.702568 0.702568
0.733558 0.733558 0.733558
0.773685 0.773685 0.773685
0.816739 0.816739 0.816739
0.677459 0.677459 0.677459
0.679580 0.679580 0.679570
0.686986 0.686986 0.686986
0.699980 0.699980 0.699980
0.718202 0.718202 0.718202
0.740698 0.740698 0.740698
0.766335 0.766335 0.766335
0.799350 0.799350 0.799350
0.837736 0.837736 0.837736
0.709285 0.709285 0.709285
0.715351 0.715351 0.715351
0.735000 0.735000 0.735000
0.751709 0.751709 0.751709
0.765973 0.765973 0.765965
0.784102 0.784102 0.784102
0.805436 0.805436 0.805436
0.832073 0.832073 0.832073
0.865721 0.865721 0.865721
0.728733 0.728733 0.728733
0.730497 0.730497 0.730497
0.743694 0.743694 0.743694
0.772146 0.772146 0.772146
0.812163 0.812163 0.812163
0.832231 0.832231 0.832231
0.850007 0.850007 0.850007
0.870273 0.870273 0.870273
0.898658 0.898658 0.898658
0.825216 0.825216 0.825216
0.826090 0.826090 0.826090
0.829042 0.829042 0.829042
0.834038 0.834038 0.834038
0.840757 0.840757 0.840757
0.865703 0.865703 0.865703
0.897261 0.897261 0.897261
0.913122 0.913122 0.913122
0.934371 0.934371 0.934371
0.898058 0.898058 0.898058
0.898772 0.898772 0.898772
0.901335 0.901335 0.901335
0.905914 0.905914 0.905914
0.912505 0.912505 0.912505
0.921117 0.921117 0.921117
0.931948 0.931948 0.931948
0.955598 0.955598 0.955598
0.969722 0.969722 0.969722
0.949187 0.949187 0.949187
0.949733 0.949733 0.949733
0.951728 0.951728 0.951728
0.955326 0.955326 0.955326
0.960602 0.960602 0.960602
0.967636 0.967636 0.967636
0.976501 0.976501 0.976501
0.987164 0.987164 0.987164
1.000000 1.000000 1.000000
