ml_luts/bw1__lut3d_33.cube
TITLE "BW1"
DOMAIN_MIN 0.000000 0.000000 0.000000
DOMAIN_MAX 1.000000 1.000000 1.000000
LUT_3D_SIZE 9
0.142824 0.133608 0.164614
0.152907 0.142908 0.175632
0.180537 0.168910 0.205890
0.238144 0.222816 0.266033
0.333150 0.311742 0.355764
0.473802 0.444362 0.468597
0.633287 0.599390 0.587816
0.754967 0.723495 0.691474
0.843961 0.818692 0.782895
0.166922 0.156245 0.191161
0.173790 0.162669 0.198574
0.191178 0.178885 0.217268
0.247762 0.231818 0.275715
0.339870 0.318015 0.361618
0.475162 0.445653 0.469641
0.626201 0.592349 0.582321
0.751723 0.720092 0.688425
0.841855 0.816434 0.780545
0.256161 0.239673 0.283955
0.265440 0.248345 0.293057
0.288241 0.269692 0.314910
0.317079 0.296659 0.341411
0.391436 0.366472 0.404879
0.524912 0.493315 0.506419
0.668301 0.634514 0.615812
0.776628 0.746259 0.712234
0.850645 0.826062 0.790531
0.421527 0.394839 0.428531
0.428869 0.401730 0.434278
0.457544 0.428909 0.456269
0.509644 0.478680 0.495134
0.574319 0.541262 0.542971
0.613505 0.579732 0.572491
0.712080 0.679022 0.652655
0.797420 0.768365 0.733027
0.858617 0.834828 0.799741
0.623896 0.590082 0.580606
0.628391 0.594562 0.584106
0.646773 0.612879 0.598527
0.675893 0.642184 0.622093
0.697391 0.664019 0.640070
0.737017 0.704783 0.674937
0.767365 0.736508 0.703337
0.818263 0.790762 0.754788
0.868192 0.845472 0.811047
0.758633 0.727333 0.694984
0.765927 0.735011 0.701952
0.773217 0.742665 0.708972
0.786407 0.756630 0.721937
0.797026 0.767954 0.732675
0.807382 0.779069 0.743369
0.837848 0.812038 0.776132
0.858068 0.834244 0.799142
0.880015 0.858686 0.825391
0.843778 0.818517 0.782750
0.845242 0.820129 0.784400
0.847019 0.822070 0.786408
0.851382 0.826875 0.791400
0.857023 0.833104 0.797914
0.862223 0.838859 0.804003
0.868788 0.846139 0.811769
0.883635 0.862746 0.829828
0.896155 0.876867 0.845587
0.884539 0.863767 0.830964
0.884744 0.864023 0.831224
0.885711 0.865073 0.832415
0.887877 0.867522 0.835122
0.890303 0.870254 0.838153
0.893233 0.873585 0.841890
0.896031 0.876733 0.845433
0.898915 0.880012 0.849143
0.906333 0.888484 0.858796
0.904265 0.886137 0.856107
0.904322 0.886164 0.856160
0.904707 0.886610 0.856657
0.905738 0.887781 0.858003
0.906905 0.889128 0.859556
0.908465 0.890910 0.861586
0.910056 0.892714 0.863676
0.911395 0.894277 0.865503
0.912444 0.895476 0.866911
0.147890 0.138353 0.170035
0.150933 0.141220 0.173508
0.183742 0.171987 0.209353
0.248805 0.232784 0.276739
0.340580 0.318710 0.362253
0.471690 0.442380 0.467055
0.619950 0.586136 0.577485
0.745868 0.713988 0.683010
0.837133 0.811235 0.775292
0.160618 0.150308 0.184191
0.169287 0.158474 0.193693
0.200045 0.187136 0.226661
0.259182 0.242506 0.287006
0.349532 0.327104 0.369980
0.477923 0.448279 0.471714
0.617996 0.584212 0.575977
0.742596 0.710566 0.679981
0.835517 0.809475 0.773502
0.243577 0.227880 0.271463
0.252194 0.235917 0.279999
0.276545 0.258731 0.303747
0.310984 0.290969 0.335949
0.396515 0.371207 0.408987
0.518474 0.487137 0.501706
0.648821 0.614921 0.600094
0.761970 0.730834 0.698099
0.844142 0.818918 0.783153
0.404810 0.379080 0.415421
0.412191 0.386019 0.421273
0.443468 0.415557 0.445570
0.484798 0.454867 0.476774
0.539538 0.507490 0.517211
0.586770 0.553424 0.552223
0.691824 0.658327 0.635302
0.784896 0.755034 0.720422
0.853773 0.829518 0.794132
0.613573 0.579850 0.572627
0.617275 0.583531 0.575489
0.633311 0.599444 0.587905
0.659130 0.625256 0.608398
0.678761 0.645092 0.624431
0.721780 0.689033 0.661266
0.755790 0.724364 0.692310
0.812661 0.784714 0.748847
0.865377 0.842350 0.807719
0.746503 0.714673 0.683673
0.748598 0.716866 0.685643
0.755501 0.724066 0.692087
0.769286 0.738555 0.705245
0.782930 0.752979 0.718611
0.796437 0.767349 0.732201
0.830486 0.804041 0.768085
0.853971 0.829737 0.794419
0.878329 0.856797 0.823315
0.838033 0.812237 0.776338
0.838150 0.812343 0.776445
0.840718 0.815175 0.779333
0.847007 0.822060 0.786406
0.854301 0.830101 0.794764
0.860457 0.836906 0.801923
0.867043 0.844200 0.809696
0.882504 0.861469 0.828433
0.895059 0.875646 0.844201
0.882857 0.861869 0.828857
0.883294 0.862366 0.829424
0.884443 0.863650 0.830850
0.886961 0.866496 0.833994
0.889734 0.869606 0.837442
0.892545 0.872806 0.841006
0.895116 0.875715 0.844271
0.897890 0.878861 0.847816
0.905663 0.887707 0.857910
0.903182 0.884878 0.854673
0.903599 0.885323 0.855190
0.904659 0.886550 0.856589
0.905821 0.887889 0.858120
0.907070 0.889303 0.859750
0.908583 0.891043 0.861732
0.910052 0.892721 0.863687
0.911384 0.894239 0.865462
0.912444 0.895476 0.866911
0.159884 0.149584 0.183413
0.162196 0.151734 0.185881
0.177724 0.166338 0.202882
0.239200 0.223782 0.267067
0.349150 0.326718 0.369616
0.503501 0.472766 0.490660
0.643462 0.609539 0.595847
0.757657 0.726314 0.694013
0.841657 0.816189 0.780339
0.178455 0.166985 0.203618
0.185413 0.173435 0.211060
0.197325 0.184654 0.223822
0.260836 0.244067 0.288581
0.369431 0.345757 0.386772
0.512460 0.481326 0.497260
0.644393 0.610460 0.596557
0.758061 0.726701 0.694383
0.841941 0.816500 0.780657
0.222858 0.208606 0.250549
0.233761 0.218738 0.261589
0.263885 0.246853 0.291581
0.327858 0.306765 0.351098
0.430101 0.402900 0.435446
0.548186 0.515791 0.523548
0.668282 0.634466 0.615758
0.771268 0.740597 0.707004
0.847257 0.822324 0.786639
0.385002 0.360411 0.399433
0.393490 0.368370 0.406297
0.424499 0.397626 0.430879
0.474918 0.445446 0.469402
0.528937 0.497233 0.509395
0.607068 0.573368 0.567567
0.707935 0.674792 0.649085
0.794032 0.764728 0.729557
0.856868 0.832908 0.797705
0.597986 0.564481 0.560769
0.603418 0.569825 0.564886
0.621599 0.587806 0.578802
0.654078 0.620180 0.604343
0.677424 0.643723 0.623337
0.717739 0.684882 0.657717
0.754701 0.723218 0.691283
0.817915 0.790383 0.754391
0.867452 0.844640 0.810166
0.741608 0.709568 0.679163
0.744458 0.712524 0.681764
0.752089 0.720503 0.688839
0.766550 0.735652 0.702533
0.782130 0.752110 0.717723
0.795871 0.766733 0.731553
0.829202 0.802616 0.766628
0.853570 0.829284 0.793945
0.878631 0.857128 0.823673
0.835575 0.809552 0.773604
0.836518 0.810571 0.774636
0.839112 0.813420 0.777532
0.844836 0.819683 0.783942
0.852415 0.828011 0.792599
0.859022 0.835307 0.800248
0.866357 0.843426 0.808863
0.882764 0.861760 0.828744
0.895476 0.876108 0.844730
0.882062 0.860983 0.827888
0.882222 0.861154 0.828076
0.883211 0.862270 0.829314
0.885596 0.864961 0.832282
0.888549 0.868278 0.835964
0.891970 0.872145 0.840262
0.894961 0.875519 0.844073
0.898082 0.879079 0.848075
0.905932 0.888010 0.858262
0.903533 0.885283 0.855108
0.903609 0.885359 0.855221
0.904152 0.885986 0.855921
0.905248 0.887238 0.857363
0.906645 0.888826 0.859197
0.908244 0.890670 0.861317
0.909825 0.892477 0.863392
0.911229 0.894063 0.865242
0.912444 0.895476 0.866911
0.182364 0.170595 0.207843
0.186332 0.174365 0.212121
0.197104 0.184400 0.223571
0.228894 0.214172 0.256685
0.319207 0.298673 0.343307
0.470662 0.441375 0.466251
0.629957 0.596071 0.585252
0.756895 0.725479 0.693291
0.841970 0.816526 0.780675
0.210958 0.197403 0.238117
0.213651 0.199855 0.240893
0.220919 0.206688 0.248525
0.249565 0.233487 0.277492
0.341545 0.319597 0.363027
0.490113 0.459946 0.480756
0.641029 0.607111 0.593918
0.761782 0.730620 0.697921
0.843175 0.817854 0.782045
0.249852 0.233762 0.277779
0.262023 0.245169 0.289788
0.295835 0.276792 0.322003
0.317761 0.297310 0.342063
0.419856 0.393236 0.427406
0.554675 0.522120 0.528368
0.683527 0.649903 0.628390
0.779184 0.748987 0.714773
0.848955 0.824192 0.788598
0.343118 0.321080 0.364390
0.353780 0.331074 0.373546
0.391341 0.366382 0.404761
0.450249 0.421970 0.450876
0.535065 0.503101 0.513883
0.626422 0.592568 0.582466
0.718777 0.685917 0.658539
0.799564 0.770641 0.735209
0.858550 0.834782 0.799667
0.572740 0.539731 0.541815
0.578005 0.544892 0.545732
0.596093 0.562615 0.559322
0.629624 0.595754 0.585020
0.664586 0.630756 0.612795
0.702445 0.669177 0.644414
0.758405 0.727091 0.694739
0.822901 0.795788 0.759749
0.868982 0.846359 0.811992
0.728331 0.695803 0.667156
0.731463 0.699067 0.670001
0.738929 0.706806 0.676742
0.753844 0.722346 0.690534
0.773859 0.743372 0.709642
0.789140 0.759578 0.724778
0.823567 0.796512 0.760544
0.849820 0.825163 0.789642
0.879262 0.857838 0.824453
0.830099 0.803592 0.767573
0.831361 0.804950 0.768945
0.834836 0.808748 0.772789
0.841555 0.816082 0.780258
0.849990 0.825348 0.789824
0.857844 0.834003 0.798861
0.864721 0.841620 0.806937
0.881259 0.860073 0.826894
0.894385 0.874865 0.843337
0.880536 0.859262 0.826010
0.880863 0.859619 0.826406
0.882076 0.860993 0.827894
0.884485 0.863698 0.830881
0.887609 0.867239 0.834796
0.891296 0.871374 0.839410
0.894456 0.874940 0.843419
0.897722 0.878655 0.847603
0.905857 0.887929 0.858152
0.903151 0.884836 0.854609
0.903391 0.885115 0.854955
0.903827 0.885619 0.855513
0.904925 0.886874 0.856947
0.906277 0.888399 0.858707
0.907889 0.890238 0.860825
0.909666 0.892283 0.863189
0.911123 0.893964 0.865131
0.912444 0.895476 0.866911
0.224414 0.209964 0.252079
0.228677 0.213958 0.256449
0.239437 0.224048 0.267422
0.255669 0.239212 0.283598
0.311177 0.291120 0.336156
0.435639 0.408143 0.439694
0.598577 0.565053 0.561185
0.741256 0.709182 0.678776
0.837705 0.811872 0.775921
0.253229 0.236936 0.281159
0.256193 0.239711 0.284056
0.264026 0.247050 0.291778
0.276463 0.258698 0.303805
0.330107 0.308888 0.353101
0.453935 0.425470 0.453691
0.611108 0.577415 0.570708
0.746750 0.714910 0.683829
0.839000 0.813281 0.777359
0.317205 0.296811 0.341612
0.331087 0.309801 0.353956
0.343734 0.321647 0.365000
0.356026 0.333170 0.375551
0.401856 0.376240 0.413268
0.518315 0.486976 0.501585
0.657142 0.623274 0.606829
0.768872 0.738078 0.704740
0.846883 0.821942 0.786255
0.384074 0.359489 0.398859
0.394839 0.369635 0.407608
0.433536 0.406146 0.438121
0.498552 0.467996 0.487004
0.528477 0.496763 0.509056
0.618695 0.584934 0.576585
0.720088 0.687293 0.659786
0.802577 0.773887 0.738357
0.859409 0.835727 0.800662
0.515141 0.483936 0.499260
0.524007 0.492467 0.505775
0.550921 0.518465 0.525574
0.593963 0.560496 0.557666
0.641234 0.607305 0.594064
0.700678 0.667355 0.642807
0.765768 0.734823 0.701722
0.825765 0.798870 0.762828
0.869703 0.847158 0.812856
0.706733 0.673604 0.648228
0.711729 0.678737 0.652574
0.721533 0.688804 0.661112
0.738105 0.705929 0.675991
0.759133 0.727872 0.695510
0.781443 0.751399 0.717094
0.813176 0.785292 0.749474
0.848081 0.823224 0.787598
0.880144 0.858816 0.825530
0.822633 0.795506 0.759506
0.823842 0.796817 0.760820
0.827190 0.800438 0.764425
0.834021 0.807855 0.771895
0.843370 0.818074 0.782311
0.854170 0.829967 0.794629
0.862332 0.838959 0.804131
0.879260 0.857824 0.824447
0.892641 0.872904 0.841131
0.877089 0.855409 0.821813
0.877328 0.855652 0.822069
0.878693 0.857192 0.823746
0.881579 0.860432 0.827287
0.885262 0.864575 0.831868
0.889545 0.869410 0.837230
0.893463 0.873845 0.842177
0.896812 0.877633 0.846446
0.905375 0.887379 0.857534
0.902266 0.883818 0.853452
0.902543 0.884138 0.853819
0.903155 0.884821 0.854616
0.904231 0.886067 0.856039
0.905684 0.887709 0.857923
0.907429 0.889717 0.860229
0.909461 0.892035 0.862898
0.911019 0.893841 0.864980
0.912444 0.895476 0.866911
0.286305 0.267880 0.313092
0.290221 0.271510 0.316756
0.300106 0.280825 0.326021
0.316980 0.296574 0.341351
0.344560 0.322414 0.365764
0.419969 0.393322 0.427598
0.566808 0.533929 0.537349
0.713198 0.680178 0.653670
0.825402 0.798440 0.762379
0.314093 0.293863 0.338793
0.316488 0.296154 0.340997
0.324374 0.303506 0.348027
0.339118 0.317313 0.361006
0.362226 0.339032 0.380848
0.436615 0.409036 0.440493
0.576880 0.543747 0.544849
0.717081 0.684169 0.657059
0.826147 0.799285 0.763215
0.401980 0.376349 0.413313
0.403995 0.378263 0.414966
0.410916 0.384771 0.420431
0.422591 0.395790 0.429622
0.438551 0.410890 0.441984
0.502676 0.471948 0.490077
0.624561 0.590713 0.581038
0.745449 0.713558 0.682619
0.837808 0.811970 0.776022
0.455198 0.426675 0.454674
0.467967 0.438795 0.464278
0.516792 0.485482 0.500442
0.549271 0.516886 0.524361
0.559183 0.526498 0.531701
0.598588 0.565040 0.561150
0.692016 0.658524 0.635491
0.783952 0.754031 0.719502
0.853183 0.828849 0.793444
0.561291 0.528544 0.533240
0.567498 0.534575 0.537834
0.589075 0.555679 0.553958
0.625506 0.591640 0.581750
0.668709 0.634894 0.616115
0.687482 0.653893 0.631648
0.752979 0.721405 0.689637
0.820509 0.793182 0.757191
0.868047 0.845321 0.810887
0.669696 0.635886 0.616903
0.674460 0.640685 0.620813
0.688437 0.654866 0.632437
0.711910 0.678856 0.652520
0.740118 0.708001 0.677733
0.771979 0.741369 0.707761
0.812617 0.784664 0.748789
0.851093 0.826558 0.791060
0.880841 0.859610 0.826390
0.804540 0.776008 0.740490
0.806495 0.778114 0.742501
0.812448 0.784507 0.748711
0.824074 0.797058 0.761049
0.834970 0.808890 0.772953
0.847677 0.822818 0.787192
0.859241 0.835549 0.800515
0.874916 0.852963 0.819157
0.891398 0.871492 0.839540
0.873284 0.851150 0.817178
0.873819 0.851746 0.817808
0.875379 0.853480 0.819708
0.878460 0.856937 0.823462
0.882320 0.861273 0.828217
0.887008 0.866533 0.834035
0.892157 0.872351 0.840509
0.895861 0.876557 0.845223
0.904699 0.886594 0.856632
0.901507 0.882978 0.852487
0.901520 0.883000 0.852530
0.902126 0.883670 0.853286
0.903272 0.884969 0.854794
0.904877 0.886813 0.856891
0.906894 0.889109 0.859523
0.909132 0.891684 0.862490
0.911002 0.893806 0.864963
0.912444 0.895476 0.866911
0.384214 0.359648 0.399069
0.387495 0.362697 0.401710
0.397828 0.372442 0.410096
0.414313 0.387992 0.423183
0.433619 0.406233 0.438247
0.471838 0.442456 0.467187
0.555980 0.523350 0.529307
0.694737 0.661304 0.637763
0.808759 0.780506 0.744716
0.411527 0.385383 0.421011
0.414613 0.388290 0.423407
0.423075 0.396251 0.430050
0.436296 0.408746 0.440289
0.452575 0.424158 0.452713
0.486051 0.456049 0.477790
0.564662 0.531792 0.535733
0.698337 0.664965 0.640814
0.809839 0.781667 0.745835
0.497335 0.466844 0.486111
0.498754 0.468173 0.487151
0.502620 0.471896 0.490027
0.511308 0.480225 0.496432
0.522601 0.491087 0.504734
0.544390 0.512103 0.520742
0.611099 0.577350 0.570619
0.724996 0.692331 0.664051
0.822211 0.794991 0.758951
0.572835 0.539779 0.541817
0.583701 0.550399 0.549903
0.606735 0.573053 0.567326
0.612766 0.579007 0.571930
0.619000 0.585177 0.576706
0.627998 0.594134 0.583682
0.676010 0.642262 0.622080
0.762176 0.731043 0.698307
0.839803 0.814145 0.778237
0.623705 0.589849 0.580361
0.629220 0.595348 0.584637
0.647564 0.613636 0.599060
0.686832 0.653237 0.631076
0.709497 0.676389 0.650433
0.712470 0.679439 0.653020
0.738563 0.706386 0.676289
0.802638 0.773960 0.738402
0.859354 0.835687 0.800618
0.713977 0.680979 0.654327
0.717378 0.684490 0.657331
0.727319 0.694719 0.666141
0.742920 0.710915 0.680274
0.761570 0.730408 0.697716
0.788485 0.758848 0.724015
0.801166 0.772367 0.736899
0.842704 0.817346 0.781549
0.877907 0.856324 0.822793
0.785797 0.755997 0.721317
0.787629 0.757927 0.723132
0.793696 0.764398 0.729255
0.803691 0.775081 0.739480
0.817050 0.789450 0.753491
0.833920 0.807744 0.771767
0.852151 0.827719 0.792288
0.872989 0.850831 0.816824
0.892031 0.872219 0.840348
0.863098 0.839797 0.805014
0.863857 0.840684 0.805951
0.866708 0.843832 0.809308
0.871460 0.849111 0.814988
0.876976 0.855283 0.821669
0.882771 0.861788 0.828783
0.889120 0.868909 0.836680
0.894574 0.875091 0.843576
0.903063 0.884731 0.854508
0.899710 0.880934 0.850187
0.899890 0.881112 0.850373
0.900555 0.881863 0.851232
0.901792 0.883298 0.852880
0.903552 0.885294 0.855150
0.905740 0.887780 0.858002
0.908287 0.890699 0.861353
0.910765 0.893558 0.864641
0.912444 0.895476 0.866911
0.536309 0.504354 0.514828
0.539164 0.507063 0.516908
0.544936 0.512640 0.521164
0.554238 0.521647 0.528015
0.565585 0.532691 0.536396
0.578776 0.545554 0.546219
0.621153 0.587287 0.578336
0.688405 0.654834 0.632370
0.799905 0.771012 0.735530
0.558355 0.525675 0.531065
0.560011 0.527269 0.532284
0.563844 0.531022 0.535128
0.570909 0.537902 0.540370
0.579714 0.546472 0.546914
0.590113 0.556692 0.554726
0.628887 0.595006 0.584356
0.693622 0.660146 0.636793
0.802318 0.773569 0.738000
0.619639 0.585824 0.577182
0.619959 0.586145 0.577447
0.621432 0.587572 0.578587
0.625852 0.591995 0.582010
0.631405 0.597504 0.586326
0.638898 0.604952 0.592179
0.667720 0.633877 0.615246
0.720897 0.688098 0.660384
0.815073 0.787294 0.751333
0.692991 0.659495 0.636268
0.694244 0.660801 0.637350
0.694808 0.661383 0.637848
0.697647 0.664265 0.640246
0.700855 0.667534 0.642973
0.703847 0.670596 0.645555
0.716583 0.683653 0.656587
0.756728 0.725303 0.693098
0.832870 0.806590 0.770567
0.714923 0.681962 0.655135
0.719930 0.687090 0.659536
0.736402 0.704132 0.674287
0.759161 0.727882 0.695413
0.762959 0.731863 0.699035
0.763750 0.732690 0.699796
0.766988 0.736096 0.702905
0.796981 0.767901 0.732591
0.852601 0.828216 0.792780
0.771183 0.740519 0.706967
0.773444 0.742906 0.709153
0.778541 0.748279 0.714125
0.786489 0.756712 0.721999
0.805890 0.777443 0.741744
0.820167 0.792820 0.756830
0.821767 0.794548 0.758531
0.837387 0.811544 0.775610
0.872189 0.849936 0.815845
0.826142 0.799280 0.763250
0.827209 0.800437 0.764409
0.830372 0.803884 0.767856
0.835525 0.809495 0.773534
0.842259 0.816865 0.781051
0.850973 0.826426 0.790909
0.863834 0.840643 0.805889
0.870021 0.847505 0.813244
0.889476 0.869326 0.837121
0.861831 0.838419 0.803510
0.862325 0.838949 0.804111
0.864040 0.840870 0.806132
0.867230 0.844409 0.809915
0.871764 0.849463 0.815338
0.877553 0.855917 0.822349
0.884763 0.864044 0.831252
0.892909 0.873202 0.841467
0.902968 0.884633 0.854375
0.895670 0.876345 0.844995
0.895975 0.876684 0.845365
0.896989 0.877835 0.846668
0.898835 0.879940 0.849032
0.901381 0.882815 0.852340
0.904302 0.886141 0.856104
0.907149 0.889404 0.859858
0.910148 0.892825 0.863814
0.912444 0.895476 0.866907
0.706783 0.673579 0.648005
0.707458 0.674254 0.648562
0.709087 0.675921 0.649974
0.712440 0.679366 0.652884
0.716151 0.683177 0.656153
0.719879 0.687053 0.659438
0.724353 0.691623 0.663401
0.760818 0.729614 0.696971
0.804196 0.775601 0.739925
0.716491 0.683566 0.656466
0.716824 0.683880 0.656746
0.718158 0.685250 0.657905
0.722031 0.689230 0.661316
0.724777 0.692079 0.663775
0.727617 0.695007 0.666298
0.730966 0.698465 0.669312
0.764926 0.733904 0.700883
0.807000 0.778614 0.742878
0.744853 0.712909 0.681987
0.745724 0.713809 0.682791
0.746031 0.714122 0.683078
0.746631 0.714761 0.683636
0.747871 0.716052 0.684791
0.749496 0.717753 0.686303
0.752094 0.720470 0.688716
0.780078 0.749908 0.715600
0.816747 0.789097 0.753124
0.784867 0.755001 0.720375
0.785193 0.755348 0.720682
0.785266 0.755419 0.720758
0.785494 0.755662 0.720979
0.785641 0.755818 0.721122
0.785971 0.756155 0.721449
0.787286 0.757546 0.722742
0.805338 0.776824 0.741146
0.833624 0.807412 0.771378
0.813123 0.785184 0.749279
0.814490 0.786666 0.750715
0.820253 0.792908 0.756863
0.823026 0.795901 0.759859
0.822515 0.795346 0.759304
0.822608 0.795462 0.759405
0.824037 0.796986 0.760941
0.832610 0.806319 0.770302
0.853025 0.828672 0.793270
0.827016 0.800240 0.764179
0.827457 0.800724 0.764684
0.831222 0.804800 0.768755
0.840666 0.815111 0.779246
0.852552 0.828149 0.792731
0.854725 0.830556 0.795246
0.855866 0.831806 0.796569
0.857450 0.833549 0.798386
0.871382 0.849020 0.814862
0.864996 0.841924 0.807255
0.865167 0.842105 0.807465
0.865797 0.842805 0.808209
0.867078 0.844227 0.809725
0.868849 0.846216 0.811849
0.874852 0.852898 0.819056
0.880793 0.859548 0.826324
0.881512 0.860354 0.827217
0.888319 0.868025 0.835676
0.886557 0.866049 0.833482
0.886870 0.866396 0.833860
0.887452 0.867056 0.834581
0.888453 0.868166 0.835836
0.889935 0.869842 0.837693
0.891957 0.872128 0.840242
0.894800 0.875336 0.843861
0.899675 0.880897 0.850137
0.902564 0.884157 0.853853
0.899443 0.880583 0.849821
0.899557 0.880758 0.849993
0.900015 0.881269 0.850561
0.900846 0.882219 0.851648
0.902113 0.883650 0.853284
0.903861 0.885653 0.855535
0.906218 0.888334 0.858640
0.909220 0.891752 0.862592
0.912444 0.895476 0.866911
