ml_luts/bw1__lut3d_33.cube
TITLE "BW1"
DOMAIN_MIN 0.000000 0.000000 0.000000
DOMAIN_MAX 1.000000 1.000000 1.000000
LUT_3D_SIZE 33
0.142824 0.133608 0.164614
0.143919 0.134643 0.165679
0.145212 0.135906 0.167201
0.148394 0.138727 0.170592
0.152907 0.142908 0.175632
0.158141 0.147920 0.181427
0.164231 0.153655 0.188154
0.171565 0.160510 0.196186
0.180537 0.168910 0.205890
0.191401 0.179028 0.217514
0.204483 0.191312 0.231323
0.220002 0.205853 0.247572
0.238144 0.222816 0.266033
0.258776 0.242134 0.286573
0.281662 0.263540 0.308687
0.306480 0.286775 0.331819
0.333150 0.311742 0.355764
0.361880 0.338683 0.380510
0.392824 0.367786 0.406033
0.429823 0.402652 0.435172
0.473802 0.444362 0.468597
0.517442 0.486144 0.500945
0.558431 0.525767 0.531160
0.596830 0.563328 0.559830
0.633287 0.599390 0.587816
0.667456 0.633590 0.615067
0.698764 0.665393 0.641184
0.727687 0.695088 0.666443
0.754967 0.723495 0.691474
0.780996 0.750904 0.716559
0.805016 0.776499 0.740826
0.826134 0.799298 0.763205
0.843961 0.818692 0.782895
0.145249 0.135914 0.167098
0.145913 0.136490 0.167933
0.146666 0.137379 0.168893
0.149545 0.139854 0.171871
0.154004 0.144132 0.176847
0.159210 0.148987 0.182489
0.165247 0.154642 0.189236
0.172548 0.161439 0.197165
0.181380 0.169715 0.206725
0.192135 0.179840 0.218334
0.205050 0.191896 0.231968
0.220388 0.206248 0.247940
0.238340 0.223060 0.266263
0.258788 0.242171 0.286622
0.281371 0.263265 0.308411
0.305866 0.286174 0.331250
0.332249 0.310870 0.354951
0.360649 0.337498 0.379440
0.391276 0.366293 0.404756
0.427736 0.400689 0.433572
0.470755 0.441486 0.466346
0.513473 0.482333 0.498023
0.553943 0.521389 0.527825
0.592101 0.558620 0.556246
0.628469 0.594571 0.584069
0.662931 0.629052 0.611400
0.694755 0.661313 0.637780
0.724184 0.691456 0.663322
0.751915 0.720265 0.688606
0.778349 0.748084 0.713934
0.802830 0.774162 0.738573
0.824430 0.797390 0.761324
0.842601 0.817214 0.781387
0.148074 0.138563 0.170353
0.148974 0.139375 0.171375
0.149611 0.140098 0.172082
0.152032 0.142292 0.174798
0.155667 0.145670 0.178721
0.160712 0.150347 0.184260
0.166716 0.155942 0.190784
0.173854 0.162705 0.198611
0.182745 0.170971 0.208218
0.193409 0.180973 0.219663
0.206250 0.192973 0.233258
0.221555 0.207301 0.249164
0.239436 0.224044 0.267336
0.259831 0.243099 0.287557
0.282262 0.264108 0.309225
0.306556 0.286850 0.331897
0.332763 0.311371 0.355425
0.360947 0.337783 0.379714
0.391389 0.366379 0.404850
0.427667 0.400608 0.433502
0.470239 0.440997 0.465941
0.512388 0.481300 0.497219
0.552497 0.519986 0.526740
0.590375 0.556944 0.554958
0.626604 0.592727 0.582624
0.661109 0.627218 0.609930
0.693026 0.659536 0.636318
0.722639 0.689903 0.661971
0.750553 0.718867 0.687330
0.777193 0.746864 0.712804
0.801853 0.773124 0.737592
0.823608 0.796532 0.760467
0.841957 0.816508 0.780680
0.155613 0.145650 0.178752
0.156584 0.146558 0.179733
0.157734 0.147533 0.180941
0.159433 0.149074 0.182822
0.162648 0.152179 0.186393
0.164677 0.154070 0.188654
0.170108 0.159130 0.194518
0.177251 0.165821 0.202306
0.186070 0.174110 0.211745
0.196720 0.184076 0.223184
0.209640 0.196135 0.236762
0.224960 0.210423 0.252574
0.242760 0.227072 0.270629
0.262912 0.245978 0.290603
0.285137 0.266778 0.311957
0.309237 0.289325 0.334310
0.335178 0.313632 0.357519
0.363132 0.339828 0.381539
0.393837 0.368663 0.406799
0.429817 0.402632 0.435184
0.470670 0.441403 0.466282
0.511456 0.480373 0.496529
0.550812 0.518358 0.525519
0.588578 0.555198 0.553599
0.625169 0.591315 0.581506
0.660383 0.626497 0.609355
0.693063 0.659593 0.636362
0.723108 0.690376 0.662397
0.751237 0.719579 0.687970
0.777823 0.747540 0.713433
0.802299 0.773567 0.738012
0.823770 0.796692 0.760626
0.841861 0.816437 0.780554
0.166922 0.156245 0.191161
0.167949 0.157187 0.192137
0.169131 0.158215 0.193498
0.171240 0.160273 0.195883
0.173790 0.162669 0.198574
0.177688 0.166351 0.202822
0.179358 0.167899 0.204626
0.183111 0.171397 0.208714
0.191178 0.178885 0.217268
0.201884 0.188911 0.228647
0.214733 0.200947 0.242106
0.230004 0.215251 0.257824
0.247762 0.231818 0.275715
0.267774 0.250553 0.295363
0.289824 0.271207 0.316413
0.313864 0.293688 0.338570
0.339870 0.318015 0.361618
0.367868 0.344255 0.385481
0.399303 0.373833 0.411188
0.435678 0.408185 0.439736
0.475162 0.445653 0.469641
0.514595 0.483396 0.498839
0.552880 0.520378 0.527031
0.589958 0.556544 0.554620
0.626201 0.592349 0.582321
0.661267 0.627381 0.610077
0.693844 0.660385 0.637018
0.723751 0.691069 0.662962
0.751723 0.720092 0.688425
0.778147 0.747872 0.713733
0.802453 0.773747 0.738165
0.823817 0.796766 0.760700
0.841855 0.816434 0.780545
0.181922 0.170197 0.207284
0.182907 0.171142 0.208435
0.184131 0.172392 0.209841
0.186803 0.174850 0.212590
0.189629 0.177427 0.215594
0.193035 0.180551 0.219190
0.198602 0.185812 0.225147
0.200132 0.187309 0.226803
0.202385 0.189372 0.229187
0.210199 0.196635 0.237365
0.222668 0.208305 0.250306
0.238005 0.222718 0.265924
0.255702 0.239285 0.283588
0.275629 0.257882 0.302907
0.297534 0.278401 0.323565
0.321435 0.300801 0.345378
0.347406 0.325097 0.368159
0.375426 0.351383 0.391804
0.407729 0.381803 0.417916
0.444769 0.416797 0.446701
0.483249 0.453383 0.475684
0.521787 0.490332 0.504160
0.568641 0.535828 0.538901
0.625338 0.591527 0.581741
0.659630 0.625810 0.608865
0.690923 0.657454 0.634644
0.719420 0.686614 0.659195
0.745806 0.713948 0.683007
0.770749 0.740058 0.706584
0.794073 0.764800 0.729667
0.815198 0.787465 0.751545
0.833522 0.807294 0.771312
0.848962 0.824210 0.788630
0.203067 0.190024 0.229875
0.204043 0.190875 0.230866
0.205392 0.192254 0.232318
0.208230 0.194935 0.235325
0.212542 0.198816 0.239732
0.215834 0.201938 0.243185
0.220295 0.206121 0.247793
0.228640 0.213975 0.256359
0.230691 0.215843 0.258440
0.233253 0.218239 0.261100
0.238978 0.223589 0.266896
0.252351 0.236095 0.280236
0.270346 0.252961 0.297845
0.290398 0.271692 0.316878
0.312282 0.292178 0.337071
0.335978 0.314400 0.358227
0.361701 0.338486 0.380327
0.391043 0.366040 0.404532
0.425367 0.398418 0.431722
0.463109 0.434189 0.460575
0.502085 0.471413 0.489613
0.541480 0.509354 0.518633
0.582623 0.549410 0.549195
0.625542 0.591722 0.581847
0.662057 0.628212 0.610744
0.694827 0.661390 0.637838
0.723634 0.690929 0.662848
0.749791 0.718085 0.686642
0.774262 0.743744 0.709937
0.797002 0.767912 0.732595
0.817402 0.789825 0.753843
0.835096 0.809018 0.773027
0.850055 0.825402 0.789855
0.227374 0.212780 0.255070
0.228303 0.213585 0.255993
0.229656 0.214873 0.257409
0.232379 0.217454 0.260222
0.236942 0.221632 0.264764
0.241561 0.226040 0.269473
0.245630 0.229793 0.273512
0.251498 0.235270 0.279402
0.262691 0.245808 0.290380
0.266445 0.249308 0.294005
0.268962 0.251646 0.296442
0.275007 0.257287 0.302318
0.286016 0.267585 0.312832
0.303661 0.284097 0.329233
0.325273 0.304359 0.348775
0.348661 0.326299 0.369241
0.374815 0.350836 0.391296
0.405471 0.379647 0.416108
0.439858 0.412097 0.442928
0.475998 0.446431 0.470259
0.513446 0.482277 0.497987
0.551435 0.518968 0.525970
0.589506 0.556134 0.554318
0.627266 0.593427 0.583175
0.663390 0.629544 0.611806
0.695901 0.662483 0.638759
0.724485 0.691818 0.663623
0.750460 0.718782 0.687249
0.774790 0.744316 0.710426
0.797372 0.768305 0.732985
0.817649 0.790088 0.754083
0.835256 0.809180 0.773183
0.850147 0.825512 0.789958
0.256161 0.239673 0.283955
0.257100 0.240494 0.284849
0.258403 0.241729 0.286123
0.261025 0.244229 0.288736
0.265440 0.248345 0.293057
0.270971 0.253520 0.298400
0.275828 0.258095 0.303095
0.280624 0.262595 0.307659
0.288241 0.269692 0.314910
0.300173 0.280831 0.325927
0.307568 0.287770 0.332705
0.311576 0.291511 0.336359
0.317079 0.296659 0.341411
0.325692 0.304753 0.349199
0.341237 0.319338 0.362836
0.363811 0.340518 0.382110
0.391436 0.366472 0.404879
0.422648 0.395867 0.429641
0.455489 0.426954 0.454840
0.489562 0.459412 0.480344
0.524912 0.493315 0.506419
0.560921 0.528178 0.532967
0.597340 0.563814 0.560209
0.633605 0.599720 0.588113
0.668301 0.634514 0.615812
0.699589 0.666266 0.641907
0.727339 0.694758 0.666166
0.752759 0.721181 0.689411
0.776628 0.746259 0.712234
0.798790 0.769819 0.734418
0.818668 0.791185 0.755195
0.835951 0.809964 0.773968
0.850645 0.826062 0.790531
0.289685 0.271063 0.316184
0.290588 0.271848 0.317007
0.291773 0.272972 0.318091
0.294308 0.275353 0.320492
0.298463 0.279264 0.324374
0.303978 0.284423 0.329483
0.310470 0.290478 0.335401
0.315481 0.295216 0.339931
0.320935 0.300300 0.344847
0.329624 0.308427 0.352669
0.342170 0.320188 0.363590
0.353572 0.330880 0.373307
0.359891 0.336809 0.378675
0.364928 0.341543 0.382951
0.374229 0.350277 0.390743
0.388974 0.364137 0.402904
0.412681 0.386477 0.421848
0.443169 0.415268 0.445497
0.474519 0.445029 0.469152
0.506636 0.475761 0.492968
0.539579 0.507493 0.517222
0.573144 0.540081 0.542036
0.607164 0.573496 0.567659
0.641121 0.607215 0.593993
0.673605 0.639864 0.620142
0.703302 0.670056 0.645081
0.730157 0.697666 0.668667
0.755130 0.723652 0.691623
0.778735 0.748484 0.714302
0.800667 0.771816 0.736344
0.820332 0.792979 0.756959
0.837364 0.811475 0.775544
0.851828 0.827371 0.791892
0.326739 0.305783 0.350013
0.327688 0.306633 0.350832
0.328853 0.307699 0.351860
0.331382 0.310113 0.354119
0.335417 0.313869 0.357642
0.340974 0.319060 0.362504
0.348113 0.325726 0.368678
0.354890 0.332142 0.374476
0.360758 0.337638 0.379440
0.367254 0.343713 0.384920
0.376715 0.352596 0.392828
0.390030 0.365110 0.403708
0.406213 0.380369 0.416577
0.416917 0.390469 0.424987
0.424793 0.397904 0.431134
0.434643 0.407211 0.438805
0.448286 0.420131 0.449358
0.467717 0.438563 0.464089
0.493566 0.463199 0.483316
0.523510 0.491969 0.505394
0.554251 0.521726 0.528042
0.585817 0.552511 0.551525
0.618046 0.584268 0.575992
0.650254 0.616356 0.601233
0.680869 0.647191 0.626130
0.708987 0.675854 0.649974
0.734708 0.702369 0.672769
0.758867 0.727548 0.695134
0.781784 0.751732 0.717324
0.803113 0.774443 0.738859
0.822266 0.795079 0.759045
0.838896 0.813138 0.777253
0.853050 0.828719 0.793300
0.368835 0.345204 0.386163
0.369733 0.346071 0.386933
0.370907 0.347130 0.387902
0.373390 0.349522 0.390014
0.377527 0.353339 0.393378
0.383121 0.358605 0.397994
0.390368 0.365418 0.403892
0.398742 0.373333 0.410632
0.405982 0.380125 0.416397
0.412774 0.386560 0.421817
0.420284 0.393647 0.427699
0.432062 0.404773 0.436872
0.458898 0.430250 0.457231
0.486733 0.456836 0.478012
0.500693 0.470206 0.488356
0.507860 0.477050 0.493697
0.515714 0.484590 0.499555
0.525569 0.494060 0.506865
0.539034 0.507014 0.516807
0.558876 0.526249 0.531486
0.585646 0.552385 0.551451
0.614583 0.580873 0.573411
0.643869 0.610000 0.596247
0.672455 0.638733 0.619302
0.699489 0.666161 0.641889
0.724591 0.691918 0.663736
0.748046 0.716260 0.685050
0.770238 0.739533 0.706064
0.791206 0.761750 0.726761
0.810592 0.782499 0.746672
0.828027 0.801315 0.765288
0.843214 0.817879 0.782108
0.856306 0.832293 0.797073
0.421527 0.394839 0.428531
0.422365 0.395659 0.429233
0.423251 0.396447 0.429902
0.425341 0.398448 0.431539
0.428869 0.401730 0.434278
0.433704 0.406306 0.438070
0.440240 0.412522 0.443118
0.448428 0.420255 0.449370
0.457544 0.428909 0.456269
0.466999 0.437940 0.463391
0.477381 0.447820 0.471136
0.489716 0.459617 0.480343
0.509644 0.478680 0.495134
0.531484 0.499657 0.511255
0.554435 0.521906 0.528203
0.568626 0.535707 0.538716
0.574319 0.541262 0.542971
0.580286 0.547100 0.547424
0.587075 0.553742 0.552488
0.597462 0.563934 0.560306
0.613505 0.579732 0.572491
0.635174 0.601251 0.589292
0.661924 0.628074 0.610607
0.687661 0.654110 0.631815
0.712080 0.679022 0.652655
0.735052 0.702721 0.673065
0.756899 0.725522 0.693285
0.777753 0.747472 0.713349
0.797420 0.768365 0.733027
0.815557 0.787828 0.751879
0.831898 0.805519 0.769496
0.846189 0.821166 0.785450
0.858617 0.834828 0.799741
0.473933 0.444523 0.468648
0.474743 0.445303 0.469258
0.475371 0.445896 0.469746
0.477105 0.447561 0.471034
0.479940 0.450242 0.473153
0.484576 0.454681 0.476629
0.491412 0.461217 0.481689
0.499855 0.469302 0.487936
0.510107 0.479121 0.495506
0.521262 0.489852 0.503724
0.532189 0.500355 0.511770
0.543632 0.511423 0.520229
0.555764 0.523193 0.529179
0.567901 0.535013 0.538177
0.584952 0.551666 0.550874
0.606457 0.572823 0.567189
0.619174 0.585403 0.576965
0.623246 0.589435 0.580089
0.628161 0.594309 0.583891
0.634731 0.600843 0.589017
0.643751 0.609847 0.596112
0.656854 0.622975 0.606546
0.675125 0.641390 0.621377
0.696539 0.663129 0.639299
0.719472 0.686629 0.659154
0.741276 0.709196 0.678752
0.762191 0.731069 0.698300
0.782233 0.752210 0.717767
0.801120 0.772310 0.736819
0.818570 0.791094 0.755088
0.834310 0.808144 0.772159
0.848139 0.823311 0.787667
0.860204 0.836605 0.801594
0.525964 0.494370 0.507188
0.526779 0.495172 0.507783
0.527413 0.495790 0.508276
0.529120 0.497425 0.509512
0.531710 0.499955 0.511453
0.535902 0.503984 0.514545
0.541964 0.509832 0.518993
0.549520 0.517160 0.524578
0.558744 0.526113 0.531409
0.569301 0.536395 0.539247
0.579196 0.546051 0.546620
0.588840 0.555488 0.553851
0.598863 0.565344 0.561407
0.608970 0.575314 0.569095
0.618653 0.584890 0.576520
0.633380 0.599496 0.587922
0.652198 0.618307 0.602840
0.663091 0.629270 0.611648
0.666395 0.632590 0.614318
0.671245 0.637476 0.618259
0.678027 0.644333 0.623835
0.686588 0.653013 0.630964
0.697303 0.663929 0.640009
0.711225 0.678162 0.651951
0.728242 0.695680 0.666958
0.748346 0.716575 0.685297
0.768511 0.737695 0.704360
0.787882 0.758193 0.723378
0.806123 0.777667 0.741984
0.822917 0.795800 0.759752
0.838011 0.812198 0.776278
0.851296 0.826777 0.791287
0.862848 0.839538 0.804702
0.577712 0.544578 0.545518
0.578524 0.545406 0.546139
0.579224 0.546093 0.546661
0.580822 0.547636 0.547838
0.583203 0.549998 0.549659
0.586715 0.553422 0.552292
0.591456 0.558074 0.555849
0.597579 0.564100 0.560479
0.605174 0.571582 0.566247
0.614208 0.580514 0.573162
0.623657 0.589864 0.580450
0.631864 0.598024 0.586821
0.639616 0.605761 0.592897
0.647392 0.613525 0.599037
0.654901 0.621040 0.605008
0.661865 0.628020 0.610598
0.674012 0.640257 0.620478
0.689803 0.656280 0.633614
0.699502 0.666185 0.641895
0.703969 0.670741 0.645730
0.709406 0.676306 0.650429
0.716425 0.683515 0.656561
0.724732 0.692084 0.663903
0.734073 0.701746 0.672288
0.745251 0.713340 0.682507
0.759932 0.728686 0.696183
0.776386 0.746000 0.712025
0.794899 0.765680 0.730471
0.812284 0.784303 0.748439
0.828160 0.801490 0.765438
0.842348 0.816958 0.781136
0.854840 0.830673 0.795376
0.865679 0.842678 0.808045
0.623896 0.590082 0.580606
0.624546 0.590732 0.581108
0.625097 0.591282 0.581540
0.626404 0.592576 0.582549
0.628391 0.594562 0.584106
0.631373 0.597531 0.586425
0.635372 0.601503 0.589556
0.640494 0.606631 0.593574
0.646773 0.612879 0.598527
0.654078 0.620216 0.604359
0.662328 0.628484 0.610997
0.669716 0.635942 0.617019
0.675893 0.642184 0.622093
0.681621 0.647992 0.626831
0.687168 0.653626 0.631453
0.692404 0.658944 0.635844
0.697391 0.664019 0.640070
0.707041 0.673887 0.648331
0.720753 0.687974 0.660285
0.730819 0.698364 0.669309
0.737017 0.704783 0.674937
0.742954 0.710968 0.680371
0.750112 0.718432 0.686992
0.758282 0.726962 0.694654
0.767365 0.736508 0.703337
0.777314 0.747001 0.712973
0.788892 0.759274 0.724436
0.803169 0.774526 0.738947
0.818263 0.790762 0.754788
0.833108 0.806874 0.770863
0.846365 0.821356 0.785671
0.858037 0.834208 0.799089
0.868192 0.845472 0.811047
0.664285 0.630478 0.612617
0.664913 0.631089 0.613113
0.672547 0.638884 0.619599
0.673994 0.640355 0.620798
0.675457 0.641833 0.621999
0.677552 0.643943 0.623703
0.680399 0.646815 0.626063
0.684049 0.650518 0.629077
0.688622 0.655147 0.632889
0.694054 0.660682 0.637446
0.700269 0.667012 0.642721
0.706729 0.673627 0.648268
0.712058 0.679073 0.652872
0.716441 0.683580 0.656692
0.720523 0.687776 0.660267
0.724375 0.691741 0.663677
0.728065 0.695556 0.666973
0.731806 0.699429 0.670312
0.739394 0.707286 0.677141
0.751514 0.719877 0.688272
0.761914 0.730774 0.698124
0.768871 0.738115 0.704845
0.774731 0.744305 0.710524
0.781561 0.751513 0.717202
0.789139 0.759574 0.724769
0.797258 0.768214 0.732952
0.805895 0.777447 0.741803
0.815168 0.787421 0.751531
0.826107 0.799260 0.763230
0.837843 0.812031 0.776099
0.850048 0.825406 0.789857
0.861037 0.837546 0.802605
0.870621 0.848166 0.813964
0.701236 0.667961 0.643437
0.702612 0.669364 0.644614
0.712495 0.679479 0.653067
0.714548 0.681587 0.654869
0.716170 0.683259 0.656314
0.717911 0.685033 0.657827
0.719940 0.687137 0.659626
0.722474 0.689726 0.661860
0.725722 0.693096 0.664762
0.729674 0.697172 0.668280
0.734292 0.701950 0.672439
0.739368 0.707244 0.677056
0.744086 0.712155 0.681394
0.747666 0.715884 0.684705
0.750622 0.718956 0.687447
0.753476 0.721920 0.690117
0.756265 0.724849 0.692742
0.759101 0.727827 0.695406
0.762116 0.730980 0.698263
0.768249 0.737430 0.704138
0.779095 0.748873 0.714664
0.789625 0.760052 0.725156
0.796992 0.767929 0.732634
0.802590 0.773904 0.738355
0.808730 0.780489 0.744752
0.815245 0.787501 0.751594
0.822165 0.794973 0.758976
0.829431 0.802868 0.766850
0.837078 0.811196 0.775256
0.845106 0.819985 0.784264
0.854710 0.830535 0.795210
0.863985 0.840805 0.806082
0.872966 0.850792 0.816783
0.733076 0.700708 0.671359
0.735102 0.702794 0.673179
0.737208 0.704988 0.675114
0.739444 0.707307 0.677134
0.741566 0.709544 0.679118
0.743500 0.711529 0.680871
0.745378 0.713494 0.682590
0.747546 0.715723 0.684586
0.750274 0.718590 0.687137
0.753543 0.722008 0.690196
0.757400 0.726032 0.693808
0.761684 0.730526 0.697855
0.766138 0.735219 0.702121
0.769782 0.739055 0.705630
0.772478 0.741884 0.708239
0.774831 0.744361 0.710531
0.777155 0.746834 0.712808
0.779556 0.749375 0.715164
0.782157 0.752120 0.717728
0.785080 0.755241 0.720639
0.790462 0.760967 0.726018
0.800371 0.771523 0.736056
0.811040 0.782968 0.747122
0.818494 0.790994 0.755024
0.823745 0.796684 0.760662
0.829304 0.802728 0.766707
0.835169 0.809109 0.773159
0.841338 0.815855 0.780014
0.847828 0.822953 0.787336
0.854516 0.830326 0.795010
0.861282 0.837784 0.802870
0.868190 0.845474 0.811072
0.875609 0.853755 0.819985
0.758633 0.727333 0.694984
0.760366 0.729137 0.696632
0.762203 0.731061 0.698373
0.764092 0.733076 0.700169
0.765927 0.735011 0.701952
0.767560 0.736718 0.703515
0.769145 0.738374 0.705016
0.770965 0.740278 0.706776
0.773217 0.742665 0.708972
0.775944 0.745545 0.711629
0.779140 0.748928 0.714754
0.782697 0.752690 0.718259
0.786407 0.756630 0.721937
0.790017 0.760474 0.725559
0.792816 0.763452 0.728383
0.794950 0.765730 0.730557
0.797026 0.767954 0.732675
0.799232 0.770318 0.734928
0.801646 0.772897 0.737425
0.804356 0.775804 0.740232
0.807382 0.779069 0.743369
0.812138 0.784173 0.748340
0.820859 0.793565 0.757585
0.831005 0.804557 0.768553
0.837848 0.812038 0.776132
0.842557 0.817191 0.781406
0.847472 0.822589 0.786979
0.852648 0.828265 0.792884
0.858068 0.834244 0.799142
0.863661 0.840453 0.805715
0.869298 0.846689 0.812379
0.874778 0.852832 0.818998
0.880015 0.858686 0.825391
0.783917 0.754008 0.719556
0.785189 0.755359 0.720818
0.786488 0.756736 0.722079
0.787890 0.758243 0.723488
0.789247 0.759673 0.724838
0.790498 0.760993 0.726097
0.791753 0.762333 0.727346
0.793250 0.763927 0.728857
0.795094 0.765907 0.730737
0.797344 0.768284 0.733020
0.799950 0.771084 0.735699
0.802835 0.774183 0.738668
0.805868 0.777429 0.741780
0.808990 0.780779 0.745030
0.811807 0.783817 0.747995
0.813984 0.786162 0.750294
0.815897 0.788219 0.752317
0.817977 0.790465 0.754524
0.820292 0.792962 0.756992
0.822845 0.795721 0.759723
0.825604 0.798726 0.762701
0.828553 0.801921 0.765898
0.832478 0.806182 0.770195
0.839455 0.813804 0.777937
0.848541 0.823751 0.788143
0.854642 0.830466 0.795143
0.858809 0.835061 0.799987
0.863148 0.839863 0.805084
0.867650 0.844888 0.810412
0.872268 0.850027 0.815965
0.876902 0.855187 0.821551
0.881404 0.860248 0.827087
0.885754 0.865130 0.832470
0.808181 0.779900 0.744194
0.808862 0.780632 0.744896
0.809467 0.781295 0.745519
0.810182 0.782050 0.746271
0.810950 0.782893 0.747078
0.811758 0.783738 0.747916
0.812704 0.784755 0.748900
0.813884 0.786032 0.750136
0.815414 0.787698 0.751785
0.817287 0.789704 0.753766
0.819467 0.792055 0.756086
0.821836 0.794625 0.758632
0.824271 0.797268 0.761253
0.826764 0.799962 0.763939
0.829304 0.802723 0.766704
0.831408 0.805014 0.768993
0.833028 0.806781 0.770780
0.834641 0.808541 0.772575
0.836437 0.810498 0.774551
0.838391 0.812638 0.776731
0.840490 0.814935 0.779088
0.842720 0.817370 0.781577
0.845053 0.819918 0.784207
0.847916 0.823058 0.787460
0.853079 0.828754 0.793367
0.860793 0.837269 0.802312
0.866116 0.843163 0.808574
0.869974 0.847450 0.813173
0.873854 0.851793 0.817868
0.877847 0.856237 0.822714
0.881835 0.860748 0.827614
0.885773 0.865179 0.832510
0.889624 0.869494 0.837318
0.826777 0.799996 0.763997
0.827365 0.800622 0.764610
0.827879 0.801187 0.765174
0.828414 0.801773 0.765761
0.828972 0.802381 0.766369
0.829530 0.802972 0.766967
0.830175 0.803664 0.767660
0.830965 0.804505 0.768508
0.832006 0.805659 0.769680
0.833334 0.807111 0.771129
0.834904 0.808823 0.772857
0.836665 0.810754 0.774810
0.838541 0.812791 0.776890
0.840485 0.814922 0.779054
0.842489 0.817107 0.781298
0.844447 0.819252 0.783504
0.846058 0.821030 0.785319
0.847424 0.822532 0.786874
0.848909 0.824166 0.788576
0.850581 0.826009 0.790491
0.852413 0.828023 0.792592
0.854356 0.830155 0.794824
0.856370 0.832376 0.797158
0.858416 0.834623 0.799527
0.860356 0.836777 0.801786
0.863412 0.840178 0.805409
0.870611 0.848173 0.813938
0.875389 0.853514 0.819725
0.878978 0.857516 0.824110
0.882442 0.861406 0.828377
0.885958 0.865359 0.832718
0.889477 0.869326 0.837129
0.892976 0.873260 0.841527
0.843778 0.818517 0.782750
0.844259 0.819056 0.783319
0.844624 0.819453 0.783724
0.844938 0.819796 0.784067
0.845242 0.820129 0.784400
0.845558 0.820475 0.784765
0.845919 0.820872 0.785172
0.846396 0.821374 0.785699
0.847019 0.822070 0.786408
0.847852 0.822971 0.787337
0.848846 0.824081 0.788485
0.850046 0.825406 0.789863
0.851382 0.826875 0.791400
0.852781 0.828419 0.793009
0.854205 0.829977 0.794639
0.855659 0.831594 0.796333
0.857023 0.833104 0.797914
0.858162 0.834350 0.799236
0.859298 0.835604 0.800578
0.860670 0.837127 0.802181
0.862223 0.838859 0.804003
0.863893 0.840693 0.805965
0.865578 0.842553 0.807948
0.867208 0.844387 0.809890
0.868788 0.846139 0.811769
0.870367 0.847890 0.813665
0.873090 0.850924 0.816935
0.879243 0.857817 0.824438
0.883635 0.862746 0.829828
0.886873 0.866397 0.833863
0.889910 0.869838 0.837684
0.893036 0.873342 0.841624
0.896155 0.876867 0.845587
0.855928 0.831879 0.796632
0.856310 0.832307 0.797089
0.856571 0.832604 0.797410
0.856806 0.832863 0.797682
0.857019 0.833105 0.797919
0.857275 0.833385 0.798205
0.857569 0.833727 0.798566
0.858000 0.834169 0.799042
0.858543 0.834775 0.799679
0.859270 0.835567 0.800523
0.860141 0.836539 0.801549
0.861164 0.837676 0.802747
0.862299 0.838931 0.804094
0.863484 0.840247 0.805495
0.864690 0.841592 0.806908
0.865919 0.842963 0.808370
0.867204 0.844392 0.809899
0.868362 0.845668 0.811267
0.869355 0.846778 0.812466
0.870452 0.848007 0.813786
0.871700 0.849380 0.815273
0.873022 0.850859 0.816871
0.874383 0.852381 0.818501
0.875731 0.853877 0.820138
0.877036 0.855338 0.821726
0.878303 0.856744 0.823264
0.879529 0.858135 0.824784
0.881442 0.860297 0.827161
0.886748 0.866244 0.833702
0.890759 0.870778 0.838747
0.893700 0.874125 0.842482
0.896466 0.877240 0.846005
0.899204 0.880356 0.849528
0.866699 0.843822 0.809272
0.866943 0.844071 0.809551
0.867065 0.844240 0.809721
0.867184 0.844367 0.809892
0.867312 0.844517 0.810031
0.867477 0.844690 0.810222
0.867710 0.844954 0.810499
0.868060 0.845320 0.810910
0.868541 0.845853 0.811487
0.869167 0.846544 0.812236
0.869925 0.847405 0.813145
0.870811 0.848392 0.814209
0.871788 0.849495 0.815387
0.872801 0.850621 0.816610
0.873802 0.851730 0.817820
0.874798 0.852841 0.819020
0.875824 0.853995 0.820266
0.876879 0.855169 0.821546
0.877832 0.856238 0.822708
0.878712 0.857238 0.823801
0.879706 0.858338 0.825019
0.880767 0.859538 0.826313
0.881862 0.860766 0.827651
0.882963 0.861982 0.829007
0.884047 0.863198 0.830348
0.885087 0.864395 0.831651
0.886111 0.865534 0.832928
