ml_luts/bw1__lut3d_33.cube
TITLE "BW1"
DOMAIN_MIN 0.000000 0.000000 0.000000
DOMAIN_MAX 1.000000 1.000000 1.000000
LUT_3D_SIZE 5
0.142824 0.133608 0.164614
0.180537 0.168910 0.205890
0.333150 0.311742 0.355764
0.633287 0.599390 0.587816
0.843961 0.818692 0.782895
0.256161 0.239673 0.283955
0.288241 0.269692 0.314910
0.391436 0.366472 0.404879
0.668301 0.634514 0.615812
0.850645 0.826062 0.790531
0.623896 0.590082 0.580606
0.646773 0.612879 0.598527
0.697391 0.664019 0.640070
0.767365 0.736508 0.703337
0.868192 0.845472 0.811047
0.843778 0.818517 0.782750
0.847019 0.822070 0.786408
0.857023 0.833104 0.797914
0.868788 0.846139 0.811769
0.896155 0.876867 0.845587
0.904265 0.886137 0.856107
0.904707 0.886610 0.856657
0.906905 0.889128 0.859556
0.910056 0.892714 0.863676
0.912444 0.895476 0.866911
0.159884 0.149584 0.183413
0.177724 0.166338 0.202882
0.349150 0.326718 0.369616
0.643462 0.609539 0.595847
0.841657 0.816189 0.780339
0.222858 0.208606 0.250549
0.263885 0.246853 0.291581
0.430101 0.402900 0.435446
0.668282 0.634466 0.615758
0.847257 0.822324 0.786639
0.597986 0.564481 0.560769
0.621599 0.587806 0.578802
0.677424 0.643723 0.623337
0.754701 0.723218 0.691283
0.867452 0.844640 0.810166
0.835575 0.809552 0.773604
0.839112 0.813420 0.777532
0.852415 0.828011 0.792599
0.866357 0.843426 0.808863
0.895476 0.876108 0.844730
0.903533 0.885283 0.855108
0.904152 0.885986 0.855921
0.906645 0.888826 0.859197
0.909825 0.892477 0.863392
0.912444 0.895476 0.866911
0.224414 0.209964 0.252079
0.239437 0.224048 0.267422
0.311177 0.291120 0.336156
0.598577 0.565053 0.561185
0.837705 0.811872 0.775921
0.317205 0.296811 0.341612
0.343734 0.321647 0.365000
0.401856 0.376240 0.413268
0.657142 0.623274 0.606829
0.846883 0.821942 0.786255
0.515141 0.483936 0.499260
0.550921 0.518465 0.525574
0.641234 0.607305 0.594064
0.765768 0.734823 0.701722
0.869703 0.847158 0.812856
0.822633 0.795506 0.759506
0.827190 0.800438 0.764425
0.843370 0.818074 0.782311
0.862332 0.838959 0.804131
0.892641 0.872904 0.841131
0.902266 0.883818 0.853452
0.903155 0.884821 0.854616
0.905684 0.887709 0.857923
0.909461 0.892035 0.862898
0.912444 0.895476 0.866911
0.384214 0.359648 0.399069
0.397828 0.372442 0.410096
0.433619 0.406233 0.438247
0.555980 0.523350 0.529307
0.808759 0.780506 0.744716
0.497335 0.466844 0.486111
0.502620 0.471896 0.490027
0.522601 0.491087 0.504734
0.611099 0.577350 0.570619
0.822211 0.794991 0.758951
0.623705 0.589849 0.580361
0.647564 0.613636 0.599060
0.709497 0.676389 0.650433
0.738563 0.706386 0.676289
0.859354 0.835687 0.800618
0.785797 0.755997 0.721317
0.793696 0.764398 0.729255
0.817050 0.789450 0.753491
0.852151 0.827719 0.792288
0.892031 0.872219 0.840348
0.899710 0.880934 0.850187
0.900555 0.881863 0.851232
0.903552 0.885294 0.855150
0.908287 0.890699 0.861353
0.912444 0.895476 0.866911
0.706783 0.673579 0.648005
0.709087 0.675921 0.649974
0.716151 0.683177 0.656153
0.724353 0.691623 0.663401
0.804196 0.775601 0.739925
0.744853 0.712909 0.681987
0.746031 0.714122 0.683078
0.747871 0.716052 0.684791
0.752094 0.720470 0.688716
0.816747 0.789097 0.753124
0.813123 0.785184 0.749279
0.820253 0.792908 0.756863
0.822515 0.795346 0.759304
0.824037 0.796986 0.760941
0.853025 0.828672 0.793270
0.864996 0.841924 0.807255
0.865797 0.842805 0.808209
0.868849 0.846216 0.811849
0.880793 0.859548 0.826324
0.888319 0.868025 0.835676
0.899443 0.880583 0.849821
0.900015 0.881269 0.850561
0.902113 0.883650 0.853284
0.906218 0.888334 0.858640
0.912444 0.895476 0.866911
