ml_luts/bw2__lut3d_33.cube
TITLE "BW2"
DOMAIN_MIN 0.000000 0.000000 0.000000
DOMAIN_MAX 1.000000 1.000000 1.000000
LUT_3D_SIZE 33
0.000000 0.000000 0.000000
0.000000 0.000000 0.000000
0.000000 0.000000 0.000000
0.008850 0.008850 0.008850
0.049313 0.049313 0.049313
0.072627 0.072627 0.072627
0.092338 0.092338 0.092338
0.113918 0.113918 0.113918
0.138468 0.138468 0.138468
0.166465 0.166465 0.166465
0.197969 0.197969 0.197969
0.232282 0.232282 0.232282
0.268464 0.268464 0.268464
0.305900 0.305900 0.305900
0.344425 0.344425 0.344425
0.383744 0.383744 0.383744
0.423423 0.423423 0.423423
0.463315 0.463315 0.463315
0.503446 0.503446 0.503446
0.551825 0.551825 0.551825
0.609041 0.609041 0.609041
0.658783 0.658783 0.658783
0.698818 0.698818 0.698818
0.730532 0.730532 0.730532
0.756504 0.756504 0.756504
0.778500 0.778500 0.778500
0.798098 0.798098 0.798098
0.816409 0.816409 0.816409
0.833737 0.833737 0.833737
0.849851 0.849851 0.849851
0.861080 0.861080 0.861080
0.861525 0.861525 0.861525
0.862028 0.862028 0.862028
0.000000 0.000000 0.000000
0.000000 0.000000 0.000000
0.000000 0.000000 0.000000
0.009707 0.009707 0.009707
0.049432 0.049432 0.049432
0.072128 0.072128 0.072128
0.091506 0.091506 0.091506
0.112477 0.112477 0.112477
0.136628 0.136628 0.136628
0.164119 0.164119 0.164119
0.194866 0.194866 0.194866
0.228426 0.228426 0.228426
0.263911 0.263911 0.263911
0.300678 0.300678 0.300678
0.338477 0.338477 0.338477
0.377149 0.377149 0.377149
0.416283 0.416283 0.416283
0.455715 0.455715 0.455715
0.495498 0.495498 0.495498
0.543274 0.543274 0.543274
0.599344 0.599344 0.599344
0.648281 0.648281 0.648281
0.688710 0.688710 0.688710
0.721210 0.721210 0.721210
0.748071 0.748071 0.748071
0.770954 0.770954 0.770954
0.791440 0.791440 0.791440
0.810630 0.810630 0.810630
0.828786 0.828786 0.828786
0.846005 0.846005 0.846005
0.860931 0.860931 0.860931
0.861347 0.861347 0.861347
0.861821 0.861821 0.861821
0.000000 0.000000 0.000000
0.000000 0.000000 0.000000
0.000000 0.000000 0.000000
0.009735 0.009735 0.009735
0.048835 0.048835 0.048835
0.071764 0.071764 0.071764
0.090891 0.090891 0.090891
0.111504 0.111504 0.111504
0.135223 0.135223 0.135223
0.162316 0.162316 0.162316
0.192738 0.192738 0.192738
0.225959 0.225959 0.225959
0.261142 0.261142 0.261142
0.297638 0.297638 0.297638
0.335229 0.335229 0.335229
0.373635 0.373635 0.373635
0.412476 0.412476 0.412476
0.451645 0.451645 0.451645
0.491315 0.491315 0.491315
0.539031 0.539031 0.539031
0.594600 0.594600 0.594600
0.643012 0.643012 0.643012
0.683599 0.683599 0.683599
0.716449 0.716449 0.716449
0.743665 0.743665 0.743665
0.766959 0.766959 0.766959
0.787845 0.787845 0.787845
0.807478 0.807478 0.807478
0.826076 0.826076 0.826076
0.843757 0.843757 0.843757
0.859391 0.859391 0.859391
0.861255 0.861255 0.861255
0.861729 0.861729 0.861729
0.011506 0.011506 0.011506
0.013220 0.013220 0.013220
0.015764 0.015764 0.015764
0.020853 0.020853 0.020853
0.052445 0.052445 0.052445
0.072855 0.072855 0.072855
0.091524 0.091524 0.091524
0.111949 0.111949 0.111949
0.135251 0.135251 0.135251
0.161963 0.161963 0.161963
0.191910 0.191910 0.191910
0.224673 0.224673 0.224673
0.259297 0.259297 0.259297
0.295341 0.295341 0.295341
0.332614 0.332614 0.332614
0.370694 0.370694 0.370694
0.409168 0.409168 0.409168
0.447880 0.447880 0.447880
0.488257 0.488257 0.488257
0.535706 0.535706 0.535706
0.588113 0.588113 0.588113
0.634814 0.634814 0.634814
0.675305 0.675305 0.675305
0.709282 0.709282 0.709282
0.738148 0.738148 0.738148
0.763212 0.763212 0.763212
0.785669 0.785669 0.785669
0.806329 0.806329 0.806329
0.825509 0.825509 0.825509
0.843329 0.843329 0.843329
0.858928 0.858928 0.858928
0.861276 0.861276 0.861276
0.861695 0.861695 0.861695
0.049680 0.049680 0.049680
0.051158 0.051158 0.051158
0.052751 0.052751 0.052751
0.054907 0.054907 0.054907
0.060714 0.060714 0.060714
0.072975 0.072975 0.072975
0.091444 0.091444 0.091444
0.111771 0.111771 0.111771
0.134509 0.134509 0.134509
0.160666 0.160666 0.160666
0.190019 0.190019 0.190019
0.222151 0.222151 0.222151
0.256325 0.256325 0.256325
0.292292 0.292292 0.292292
0.329737 0.329737 0.329737
0.368115 0.368115 0.368115
0.407048 0.407048 0.407048
0.446284 0.446284 0.446284
0.488727 0.488727 0.488727
0.537307 0.537307 0.537307
0.587139 0.587139 0.587139
0.632002 0.632002 0.632002
0.671603 0.671603 0.671603
0.705457 0.705457 0.705457
0.734695 0.734695 0.734695
0.760347 0.760347 0.760347
0.783333 0.783333 0.783333
0.804360 0.804360 0.804360
0.823745 0.823745 0.823745
0.841683 0.841683 0.841683
0.857487 0.857487 0.857487
0.861252 0.861252 0.861252
0.861692 0.861692 0.861692
0.071031 0.071031 0.071031
0.071776 0.071776 0.071776
0.072281 0.072281 0.072281
0.073280 0.073280 0.073280
0.074355 0.074355 0.074355
0.078730 0.078730 0.078730
0.090829 0.090829 0.090829
0.110968 0.110968 0.110968
0.135650 0.135650 0.135650
0.162127 0.162127 0.162127
0.191188 0.191188 0.191188
0.223070 0.223070 0.223070
0.257183 0.257183 0.257183
0.293267 0.293267 0.293267
0.330717 0.330717 0.330717
0.369130 0.369130 0.369130
0.408246 0.408246 0.408246
0.447700 0.447700 0.447700
0.492289 0.492289 0.492289
0.542706 0.542706 0.542706
0.591053 0.591053 0.591053
0.635139 0.635139 0.635139
0.689724 0.689724 0.689724
0.755488 0.755488 0.755488
0.778781 0.778781 0.778781
0.798720 0.798720 0.798720
0.816372 0.816372 0.816372
0.832449 0.832449 0.832449
0.847127 0.847127 0.847127
0.858636 0.858636 0.858636
0.861411 0.861411 0.861411
0.862355 0.862355 0.862355
0.862774 0.862774 0.862774
0.092182 0.092182 0.092182
0.092490 0.092490 0.092490
0.092722 0.092722 0.092722
0.093230 0.093230 0.093230
0.093729 0.093729 0.093729
0.096053 0.096053 0.096053
0.101235 0.101235 0.101235
0.114354 0.114354 0.114354
0.138950 0.138950 0.138950
0.169852 0.169852 0.169852
0.204708 0.204708 0.204708
0.239773 0.239773 0.239773
0.275154 0.275154 0.275154
0.311609 0.311609 0.311609
0.348682 0.348682 0.348682
0.386072 0.386072 0.386072
0.424049 0.424049 0.424049
0.466054 0.466054 0.466054
0.515012 0.515012 0.515012
0.566764 0.566764 0.566764
0.616084 0.616084 0.616084
0.661957 0.661957 0.661957
0.706066 0.706066 0.706066
0.747882 0.747882 0.747882
0.775703 0.775703 0.775703
0.798686 0.798686 0.798686
0.817665 0.817665 0.817665
0.834007 0.834007 0.834007
0.848599 0.848599 0.848599
0.860737 0.860737 0.860737
0.862148 0.862148 0.862148
0.862510 0.862510 0.862510
0.862899 0.862899 0.862899
0.110252 0.110252 0.110252
0.110443 0.110443 0.110443
0.110493 0.110493 0.110493
0.110587 0.110587 0.110587
0.110803 0.110803 0.110803
0.111530 0.111530 0.111530
0.115072 0.115072 0.115072
0.121480 0.121480 0.121480
0.136087 0.136087 0.136087
0.164592 0.164592 0.164592
0.201058 0.201058 0.201058
0.240969 0.240969 0.240969
0.280598 0.280598 0.280598
0.317960 0.317960 0.317960
0.354483 0.354483 0.354483
0.391248 0.391248 0.391248
0.430173 0.430173 0.430173
0.475056 0.475056 0.475056
0.524444 0.524444 0.524444
0.573425 0.573425 0.573425
0.620815 0.620815 0.620815
0.665636 0.665636 0.665636
0.705759 0.705759 0.705759
0.740214 0.740214 0.740214
0.769193 0.769193 0.769193
0.793208 0.793208 0.793208
0.812949 0.812949 0.812949
0.829876 0.829876 0.829876
0.845020 0.845020 0.845020
0.858154 0.858154 0.858154
0.862142 0.862142 0.862142
0.862498 0.862498 0.862498
0.862859 0.862859 0.862859
0.128534 0.128534 0.128534
0.128579 0.128579 0.128579
0.128580 0.128580 0.128580
0.128580 0.128580 0.128580
0.128620 0.128620 0.128620
0.128800 0.128800 0.128800
0.131467 0.131467 0.131467
0.136664 0.136664 0.136664
0.144907 0.144907 0.144907
0.161583 0.161583 0.161583
0.193186 0.193186 0.193186
0.233191 0.233191 0.233191
0.275769 0.275769 0.275769
0.319363 0.319363 0.319363
0.359391 0.359391 0.359391
0.397438 0.397438 0.397438
0.439719 0.439719 0.439719
0.485888 0.485888 0.485888
0.532390 0.532390 0.532390
0.578225 0.578225 0.578225
0.623138 0.623138 0.623138
0.666020 0.666020 0.666020
0.704713 0.704713 0.704713
0.738240 0.738240 0.738240
0.766665 0.766665 0.766665
0.790421 0.790421 0.790421
0.810144 0.810144 0.810144
0.827204 0.827204 0.827204
0.842491 0.842491 0.842491
0.855973 0.855973 0.855973
0.862209 0.862209 0.862209
0.862543 0.862543 0.862543
0.862875 0.862875 0.862875
0.150114 0.150114 0.150114
0.150029 0.150029 0.150029
0.149923 0.149923 0.149923
0.149837 0.149837 0.149837
0.149752 0.149752 0.149752
0.149629 0.149629 0.149629
0.150188 0.150188 0.150188
0.154786 0.154786 0.154786
0.161659 0.161659 0.161659
0.171476 0.171476 0.171476
0.189610 0.189610 0.189610
0.222745 0.222745 0.222745
0.264628 0.264628 0.264628
0.309754 0.309754 0.309754
0.357480 0.357480 0.357480
0.407646 0.407646 0.407646
0.455924 0.455924 0.455924
0.501099 0.501099 0.501099
0.545440 0.545440 0.545440
0.588675 0.588675 0.588675
0.630542 0.630542 0.630542
0.670082 0.670082 0.670082
0.705658 0.705658 0.705658
0.736761 0.736761 0.736761
0.763609 0.763609 0.763609
0.786631 0.786631 0.786631
0.806342 0.806342 0.806342
0.823790 0.823790 0.823790
0.839642 0.839642 0.839642
0.853841 0.853841 0.853841
0.862321 0.862321 0.862321
0.862667 0.862667 0.862667
0.863014 0.863014 0.863014
0.172605 0.172605 0.172605
0.172506 0.172506 0.172506
0.172380 0.172380 0.172380
0.172261 0.172261 0.172261
0.172161 0.172161 0.172161
0.171960 0.171960 0.171960
0.171887 0.171887 0.171887
0.174110 0.174110 0.174110
0.180383 0.180383 0.180383
0.188940 0.188940 0.188940
0.200104 0.200104 0.200104
0.218997 0.218997 0.218997
0.253555 0.253555 0.253555
0.299644 0.299644 0.299644
0.351404 0.351404 0.351404
0.406286 0.406286 0.406286
0.460797 0.460797 0.460797
0.511236 0.511236 0.511236
0.555876 0.555876 0.555876
0.596655 0.596655 0.596655
0.636170 0.636170 0.636170
0.673461 0.673461 0.673461
0.707134 0.707134 0.707134
0.736845 0.736845 0.736845
0.762700 0.762700 0.762700
0.785059 0.785059 0.785059
0.804414 0.804414 0.804414
0.821683 0.821683 0.821683
0.837538 0.837538 0.837538
0.852018 0.852018 0.852018
0.862460 0.862460 0.862460
0.862794 0.862794 0.862794
0.863129 0.863129 0.863129
0.196466 0.196466 0.196466
0.196435 0.196435 0.196435
0.196338 0.196338 0.196338
0.196185 0.196185 0.196185
0.195967 0.195967 0.195967
0.195724 0.195724 0.195724
0.195587 0.195587 0.195587
0.195858 0.195858 0.195858
0.200204 0.200204 0.200204
0.208352 0.208352 0.208352
0.218542 0.218542 0.218542
0.232809 0.232809 0.232809
0.269496 0.269496 0.269496
0.319688 0.319688 0.319688
0.375404 0.375404 0.375404
0.434759 0.434759 0.434759
0.494496 0.494496 0.494496
0.551014 0.551014 0.551014
0.600991 0.600991 0.600991
0.642283 0.642283 0.642283
0.675691 0.675691 0.675691
0.706015 0.706015 0.706015
0.733402 0.733402 0.733402
0.757736 0.757736 0.757736
0.779348 0.779348 0.779348
0.798384 0.798384 0.798384
0.815216 0.815216 0.815216
0.830366 0.830366 0.830366
0.844323 0.844323 0.844323
0.856814 0.856814 0.856814
0.863085 0.863085 0.863085
0.863372 0.863372 0.863372
0.863678 0.863678 0.863678
0.227985 0.227985 0.227985
0.227893 0.227893 0.227893
0.227446 0.227446 0.227446
0.226697 0.226697 0.226697
0.225722 0.225722 0.225722
0.224685 0.224685 0.224685
0.223749 0.223749 0.223749
0.222954 0.222954 0.222954
0.223918 0.223918 0.223918
0.232889 0.232889 0.232889
0.246614 0.246614 0.246614
0.264001 0.264001 0.264001
0.292410 0.292410 0.292410
0.326798 0.326798 0.326798
0.373800 0.373800 0.373800
0.433183 0.433183 0.433183
0.494923 0.494923 0.494923
0.554027 0.554027 0.554027
0.608110 0.608110 0.608110
0.654541 0.654541 0.654541
0.692158 0.692158 0.692158
0.722188 0.722188 0.722188
0.745895 0.745895 0.745895
0.767108 0.767108 0.767108
0.786266 0.786266 0.786266
0.803440 0.803440 0.803440
0.818914 0.818914 0.818914
0.833032 0.833032 0.833032
0.846141 0.846141 0.846141
0.857889 0.857889 0.857889
0.863482 0.863482 0.863482
0.863731 0.863731 0.863731
0.864027 0.864027 0.864027
0.256440 0.256440 0.256440
0.256275 0.256275 0.256275
0.255662 0.255662 0.255662
0.254637 0.254637 0.254637
0.253158 0.253158 0.253158
0.252183 0.252183 0.252183
0.251885 0.251885 0.251885
0.251883 0.251883 0.251883
0.252342 0.252342 0.252342
0.258501 0.258501 0.258501
0.272252 0.272252 0.272252
0.290394 0.290394 0.290394
0.311122 0.311122 0.311122
0.333700 0.333700 0.333700
0.363758 0.363758 0.363758
0.408702 0.408702 0.408702
0.465892 0.465892 0.465892
0.525769 0.525769 0.525769
0.582208 0.582208 0.582208
0.633522 0.633522 0.633522
0.678408 0.678408 0.678408
0.715177 0.715177 0.715177
0.743696 0.743696 0.743696
0.765977 0.765977 0.765977
0.784714 0.784714 0.784714
0.801575 0.801575 0.801575
0.816845 0.816845 0.816845
0.830881 0.830881 0.830881
0.844002 0.844002 0.844002
0.856034 0.856034 0.856034
0.863684 0.863684 0.863684
0.863940 0.863940 0.863940
0.864236 0.864236 0.864236
0.285720 0.285720 0.285720
0.285708 0.285708 0.285708
0.285216 0.285216 0.285216
0.284352 0.284352 0.284352
0.283019 0.283019 0.283019
0.282009 0.282009 0.282009
0.281650 0.281650 0.281650
0.281590 0.281590 0.281590
0.282136 0.282136 0.282136
0.284252 0.284252 0.284252
0.293562 0.293562 0.293562
0.309581 0.309581 0.309581
0.328967 0.328967 0.328967
0.350036 0.350036 0.350036
0.371953 0.371953 0.371953
0.399550 0.399550 0.399550
0.440763 0.440763 0.440763
0.495324 0.495324 0.495324
0.553767 0.553767 0.553767
0.608493 0.608493 0.608493
0.657618 0.657618 0.657618
0.700039 0.700039 0.700039
0.734788 0.734788 0.734788
0.762065 0.762065 0.762065
0.783841 0.783841 0.783841
0.800723 0.800723 0.800723
0.816002 0.816002 0.816002
0.830225 0.830225 0.830225
0.843610 0.843610 0.843610
0.855935 0.855935 0.855935
0.864096 0.864096 0.864096
0.864396 0.864396 0.864396
0.864725 0.864725 0.864725
0.319537 0.319537 0.319537
0.319749 0.319749 0.319749
0.319403 0.319403 0.319403
0.318678 0.318678 0.318678
0.317567 0.317567 0.317567
0.316328 0.316328 0.316328
0.315384 0.315384 0.315384
0.314751 0.314751 0.314751
0.314644 0.314644 0.314644
0.315049 0.315049 0.315049
0.318388 0.318388 0.318388
0.330438 0.330438 0.330438
0.347732 0.347732 0.347732
0.366685 0.366685 0.366685
0.386431 0.386431 0.386431
0.406299 0.406299 0.406299
0.431160 0.431160 0.431160
0.469841 0.469841 0.469841
0.523300 0.523300 0.523300
0.581535 0.581535 0.581535
0.635416 0.635416 0.635416
0.682613 0.682613 0.682613
0.721963 0.721963 0.721963
0.754303 0.754303 0.754303
0.780564 0.780564 0.780564
0.800724 0.800724 0.800724
0.817492 0.817492 0.817492
0.831666 0.831666 0.831666
0.845023 0.845023 0.845023
0.857194 0.857194 0.857194
0.864660 0.864660 0.864660
0.864955 0.864955 0.864955
0.865278 0.865278 0.865278
0.352178 0.352178 0.352178
0.352193 0.352193 0.352193
0.351807 0.351807 0.351807
0.351007 0.351007 0.351007
0.349886 0.349886 0.349886
0.348617 0.348617 0.348617
0.347554 0.347554 0.347554
0.346748 0.346748 0.346748
0.346258 0.346258 0.346258
0.346096 0.346096 0.346096
0.346127 0.346127 0.346127
0.352149 0.352149 0.352149
0.366011 0.366011 0.366011
0.383260 0.383260 0.383260
0.401219 0.401219 0.401219
0.419425 0.419425 0.419425
0.437880 0.437880 0.437880
0.461307 0.461307 0.461307
0.498980 0.498980 0.498980
0.552068 0.552068 0.552068
0.609607 0.609607 0.609607
0.661918 0.661918 0.661918
0.706108 0.706108 0.706108
0.742316 0.742316 0.742316
0.772172 0.772172 0.772172
0.796730 0.796730 0.796730
0.816622 0.816622 0.816622
0.832625 0.832625 0.832625
0.846252 0.846252 0.846252
0.858106 0.858106 0.858106
0.865204 0.865204 0.865204
0.865471 0.865471 0.865471
0.865782 0.865782 0.865782
0.384090 0.384090 0.384090
0.384281 0.384281 0.384281
0.400471 0.400471 0.400471
0.400548 0.400548 0.400548
0.399012 0.399012 0.399012
0.397102 0.397102 0.397102
0.395132 0.395132 0.395132
0.393269 0.393269 0.393269
0.391783 0.391783 0.391783
0.390723 0.390723 0.390723
0.389967 0.389967 0.389967
0.390522 0.390522 0.390522
0.398829 0.398829 0.398829
0.413772 0.413772 0.413772
0.430623 0.430623 0.430623
0.447595 0.447595 0.447595
0.464715 0.464715 0.464715
0.482321 0.482321 0.482321
0.504801 0.504801 0.504801
0.541025 0.541025 0.541025
0.591815 0.591815 0.591815
0.645898 0.645898 0.645898
0.693849 0.693849 0.693849
0.733059 0.733059 0.733059
0.765092 0.765092 0.765092
0.791310 0.791310 0.791310
0.813060 0.813060 0.813060
0.831221 0.831221 0.831221
0.846059 0.846059 0.846059
0.858419 0.858419 0.858419
0.865707 0.865707 0.865707
0.865988 0.865988 0.865988
0.866285 0.866285 0.866285
0.421861 0.421861 0.421861
0.424445 0.424445 0.424445
0.446350 0.446350 0.446350
0.448728 0.448728 0.448728
0.448608 0.448608 0.448608
0.447134 0.447134 0.447134
0.444797 0.444797 0.444797
0.442162 0.442162 0.442162
0.439879 0.439879 0.439879
0.438011 0.438011 0.438011
0.436471 0.436471 0.436471
0.434880 0.434880 0.434880
0.436303 0.436303 0.436303
0.446443 0.446443 0.446443
0.461633 0.461633 0.461633
0.477337 0.477337 0.477337
0.493230 0.493230 0.493230
0.509489 0.509489 0.509489
0.526517 0.526517 0.526517
0.548342 0.548342 0.548342
0.582471 0.582471 0.582471
0.629710 0.629710 0.629710
0.679860 0.679860 0.679860
0.722885 0.722885 0.722885
0.757570 0.757570 0.757570
0.785585 0.785585 0.785585
0.808656 0.808656 0.808656
0.828001 0.828001 0.828001
0.844483 0.844483 0.844483
0.858141 0.858141 0.858141
0.866137 0.866137 0.866137
0.866532 0.866532 0.866532
0.866798 0.866798 0.866798
0.460125 0.460125 0.460125
0.465120 0.465120 0.465120
0.470083 0.470083 0.470083
0.473994 0.473994 0.473994
0.476251 0.476251 0.476251
0.476186 0.476186 0.476186
0.474548 0.474548 0.474548
0.472221 0.472221 0.472221
0.470135 0.470135 0.470135
0.468294 0.468294 0.468294
0.466814 0.466814 0.466814
0.465341 0.465341 0.465341
0.463166 0.463166 0.463166
0.467103 0.467103 0.467103
0.478871 0.478871 0.478871
0.493456 0.493456 0.493456
0.508267 0.508267 0.508267
0.523550 0.523550 0.523550
0.539695 0.539695 0.539695
0.556997 0.556997 0.556997
0.578451 0.578451 0.578451
0.611161 0.611161 0.611161
0.656455 0.656455 0.656455
0.703579 0.703579 0.703579
0.743455 0.743455 0.743455
0.775388 0.775388 0.775388
0.801450 0.801450 0.801450
0.823111 0.823111 0.823111
0.841466 0.841466 0.841466
0.856723 0.856723 0.856723
0.866263 0.866263 0.866263
0.866839 0.866839 0.866839
0.867273 0.867273 0.867273
0.492037 0.492037 0.492037
0.497088 0.497088 0.497088
0.502162 0.502162 0.502162
0.506195 0.506195 0.506195
0.508598 0.508598 0.508598
0.508677 0.508677 0.508677
0.507188 0.507188 0.507188
0.505017 0.505017 0.505017
0.503010 0.503010 0.503010
0.501221 0.501221 0.501221
0.499800 0.499800 0.499800
0.498413 0.498413 0.498413
0.496404 0.496404 0.496404
0.495262 0.495262 0.495262
0.501549 0.501549 0.501549
0.514405 0.514405 0.514405
0.529006 0.529006 0.529006
0.544295 0.544295 0.544295
0.560491 0.560491 0.560491
0.577846 0.577846 0.577846
0.596383 0.596383 0.596383
0.618323 0.618323 0.618323
0.649786 0.649786 0.649786
0.691697 0.691697 0.691697
0.734492 0.734492 0.734492
0.770273 0.770273 0.770273
0.798983 0.798983 0.798983
0.822544 0.822544 0.822544
0.842290 0.842290 0.842290
0.858363 0.858363 0.858363
0.866414 0.866414 0.866414
0.867109 0.867109 0.867109
0.867811 0.867811 0.867811
0.534823 0.534823 0.534823
0.539053 0.539053 0.539053
0.543133 0.543133 0.543133
0.546261 0.546261 0.546261
0.547996 0.547996 0.547996
0.547754 0.547754 0.547754
0.546299 0.546299 0.546299
0.544368 0.544368 0.544368
0.542652 0.542652 0.542652
0.541255 0.541255 0.541255
0.540248 0.540248 0.540248
0.539225 0.539225 0.539225
0.537662 0.537662 0.537662
0.535493 0.535493 0.535493
0.536422 0.536422 0.536422
0.545291 0.545291 0.545291
0.559511 0.559511 0.559511
0.574937 0.574937 0.574937
0.591396 0.591396 0.591396
0.608981 0.608981 0.608981
0.627514 0.627514 0.627514
0.646594 0.646594 0.646594
0.667374 0.667374 0.667374
0.694582 0.694582 0.694582
0.730740 0.730740 0.730740
0.768221 0.768221 0.768221
0.799722 0.799722 0.799722
0.825232 0.825232 0.825232
0.846250 0.846250 0.846250
0.862650 0.862650 0.862650
0.866755 0.866755 0.866755
0.867522 0.867522 0.867522
0.868272 0.868272 0.868272
0.587642 0.587642 0.587642
0.590163 0.590163 0.590163
0.592211 0.592211 0.592211
0.593415 0.593415 0.593415
0.593650 0.593650 0.593650
0.592604 0.592604 0.592604
0.591014 0.591014 0.591014
0.589418 0.589418 0.589418
0.588326 0.588326 0.588326
0.587798 0.587798 0.587798
0.587773 0.587773 0.587773
0.587693 0.587693 0.587693
0.586999 0.586999 0.586999
0.585634 0.585634 0.585634
0.583650 0.583650 0.583650
0.587107 0.587107 0.587107
0.597894 0.597894 0.597894
0.611590 0.611590 0.611590
0.626150 0.626150 0.626150
0.641504 0.641504 0.641504
0.657406 0.657406 0.657406
0.673484 0.673484 0.673484
0.689460 0.689460 0.689460
0.706040 0.706040 0.706040
0.726880 0.726880 0.726880
0.755486 0.755486 0.755486
0.789418 0.789418 0.789418
0.818409 0.818409 0.818409
0.842215 0.842215 0.842215
0.860809 0.860809 0.860809
0.866442 0.866442 0.866442
0.867220 0.867220 0.867220
0.867998 0.867998 0.867998
0.632212 0.632212 0.632212
0.634898 0.634898 0.634898
0.637026 0.637026 0.637026
0.638134 0.638134 0.638134
0.638110 0.638110 0.638110
0.636830 0.636830 0.636830
0.634881 0.634881 0.634881
0.632749 0.632749 0.632749
0.630997 0.630997 0.630997
0.629820 0.629820 0.629820
0.629112 0.629112 0.629112
0.628692 0.628692 0.628692
0.628028 0.628028 0.628028
0.626917 0.626917 0.626917
0.625315 0.625315 0.625315
0.624587 0.624587 0.624587
0.629919 0.629919 0.629919
0.641294 0.641294 0.641294
0.654454 0.654454 0.654454
0.668566 0.668566 0.668566
0.683352 0.683352 0.683352
0.698401 0.698401 0.698401
0.713250 0.713250 0.713250
0.727490 0.727490 0.727490
0.739362 0.739362 0.739362
0.750653 0.750653 0.750653
0.778666 0.778666 0.778666
0.809978 0.809978 0.809978
0.836585 0.836585 0.836585
0.857729 0.857729 0.857729
0.865996 0.865996 0.865996
0.866795 0.866795 0.866795
0.867601 0.867601 0.867601
0.684833 0.684833 0.684833
0.687686 0.687686 0.687686
0.689401 0.689401 0.689401
0.689806 0.689806 0.689806
0.689043 0.689043 0.689043
0.687327 0.687327 0.687327
0.684978 0.684978 0.684978
0.682275 0.682275 0.682275
0.679688 0.679688 0.679688
0.677554 0.677554 0.677554
0.675678 0.675678 0.675678
0.674354 0.674354 0.674354
0.673181 0.673181 0.673181
0.671617 0.671617 0.671617
0.669317 0.669317 0.669317
0.666507 0.666507 0.666507
0.666201 0.666201 0.666201
0.671853 0.671853 0.671853
0.682219 0.682219 0.682219
0.694445 0.694445 0.694445
0.707871 0.707871 0.707871
0.721621 0.721621 0.721621
0.734913 0.734913 0.734913
0.747199 0.747199 0.747199
0.758311 0.758311 0.758311
0.768498 0.768498 0.768498
0.781546 0.781546 0.781546
0.806722 0.806722 0.806722
0.834377 0.834377 0.834377
0.857235 0.857235 0.857235
0.865682 0.865682 0.865682
0.866503 0.866503 0.866503
0.867346 0.867346 0.867346
0.720509 0.720509 0.720509
0.723028 0.723028 0.723028
0.724505 0.724505 0.724505
0.724807 0.724807 0.724807
0.724097 0.724097 0.724097
0.722684 0.722684 0.722684
0.720896 0.720896 0.720896
0.719000 0.719000 0.719000
0.717419 0.717419 0.717419
0.716384 0.716384 0.716384
0.715759 0.715759 0.715759
0.715718 0.715718 0.715718
0.715914 0.715914 0.715914
0.715832 0.715832 0.715832
0.715187 0.715187 0.715187
0.714104 0.714104 0.714104
0.712986 0.712986 0.712986
0.715406 0.715406 0.715406
0.723012 0.723012 0.723012
0.733018 0.733018 0.733018
0.744049 0.744049 0.744049
0.755438 0.755438 0.755438
0.766572 0.766572 0.766572
0.776994 0.776994 0.776994
0.786533 0.786533 0.786533
0.795126 0.795126 0.795126
0.802998 0.802998 0.802998
0.813038 0.813038 0.813038
0.836083 0.836083 0.836083
0.859406 0.859406 0.859406
0.865494 0.865494 0.865494
0.866381 0.866381 0.866381
0.867269 0.867269 0.867269
0.758852 0.758852 0.758852
0.760523 0.760523 0.760523
0.761219 0.761219 0.761219
0.760991 0.760991 0.760991
0.760000 0.760000 0.760000
0.758616 0.758616 0.758616
0.757226 0.757226 0.757226
0.756046 0.756046 0.756046
0.755406 0.755406 0.755406
0.755491 0.755491 0.755491
0.756119 0.756119 0.756119
0.757424 0.757424 0.757424
0.758981 0.758981 0.758981
0.760247 0.760247 0.760247
0.760891 0.760891 0.760891
0.760923 0.760923 0.760923
0.760747 0.760747 0.760747
0.761500 0.761500 0.761500
0.765638 0.765638 0.765638
0.773314 0.773314 0.773314
0.782076 0.782076 0.782076
0.791284 0.791284 0.791284
0.800360 0.800360 0.800360
0.808893 0.808893 0.808893
0.816737 0.816737 0.816737
0.823515 0.823515 0.823515
0.829255 0.829255 0.829255
