ml_luts/bw2__lut3d_33.cube
TITLE "BW2"
DOMAIN_MIN 0.000000 0.000000 0.000000
DOMAIN_MAX 1.000000 1.000000 1.000000
LUT_3D_SIZE 9
0.000000 0.000000 0.000000
0.049313 0.049313 0.049313
0.138468 0.138468 0.138468
0.268464 0.268464 0.268464
0.423423 0.423423 0.423423
0.609041 0.609041 0.609041
0.756504 0.756504 0.756504
0.833737 0.833737 0.833737
0.862028 0.862028 0.862028
0.049680 0.049680 0.049680
0.060714 0.060714 0.060714
0.134509 0.134509 0.134509
0.256325 0.256325 0.256325
0.407048 0.407048 0.407048
0.587139 0.587139 0.587139
0.734695 0.734695 0.734695
0.823745 0.823745 0.823745
0.861692 0.861692 0.861692
0.128534 0.128534 0.128534
0.128620 0.128620 0.128620
0.144907 0.144907 0.144907
0.275769 0.275769 0.275769
0.439719 0.439719 0.439719
0.623138 0.623138 0.623138
0.766665 0.766665 0.766665
0.842491 0.842491 0.842491
0.862875 0.862875 0.862875
0.227985 0.227985 0.227985
0.225722 0.225722 0.225722
0.223918 0.223918 0.223918
0.292410 0.292410 0.292410
0.494923 0.494923 0.494923
0.692158 0.692158 0.692158
0.786266 0.786266 0.786266
0.846141 0.846141 0.846141
0.864027 0.864027 0.864027
0.352178 0.352178 0.352178
0.349886 0.349886 0.349886
0.346258 0.346258 0.346258
0.366011 0.366011 0.366011
0.437880 0.437880 0.437880
0.609607 0.609607 0.609607
0.772172 0.772172 0.772172
0.846252 0.846252 0.846252
0.865782 0.865782 0.865782
0.492037 0.492037 0.492037
0.508598 0.508598 0.508598
0.503010 0.503010 0.503010
0.496404 0.496404 0.496404
0.529006 0.529006 0.529006
0.596383 0.596383 0.596383
0.734492 0.734492 0.734492
0.842290 0.842290 0.842290
0.867811 0.867811 0.867811
0.684833 0.684833 0.684833
0.689043 0.689043 0.689043
0.679688 0.679688 0.679688
0.673181 0.673181 0.673181
0.666201 0.666201 0.666201
0.707871 0.707871 0.707871
0.758311 0.758311 0.758311
0.834377 0.834377 0.834377
0.867346 0.867346 0.867346
0.844080 0.844080 0.844080
0.843618 0.843618 0.843618
0.843857 0.843857 0.843857
0.850793 0.850793 0.850793
0.857662 0.857662 0.857662
0.861444 0.861444 0.861444
0.862866 0.862866 0.862866
0.864633 0.864633 0.864633
0.866861 0.866861 0.866861
0.862943 0.862943 0.862943
0.862829 0.862829 0.862829
0.862677 0.862677 0.862677
0.862680 0.862680 0.862680
0.862455 0.862455 0.862455
0.862272 0.862272 0.862272
0.863158 0.863158 0.863158
0.864717 0.864717 0.864717
0.867155 0.867155 0.867155
0.050046 0.050046 0.050046
0.056862 0.056862 0.056862
0.133672 0.133672 0.133672
0.263476 0.263476 0.263476
0.408719 0.408719 0.408719
0.579487 0.579487 0.579487
0.726882 0.726882 0.726882
0.818074 0.818074 0.818074
0.862840 0.862840 0.862840
0.057084 0.057084 0.057084
0.077192 0.077192 0.077192
0.148253 0.148253 0.148253
0.263477 0.263477 0.263477
0.405007 0.405007 0.405007
0.571497 0.571497 0.571497
0.712314 0.712314 0.712314
0.807200 0.807200 0.807200
0.862533 0.862533 0.862533
0.130583 0.130583 0.130583
0.147906 0.147906 0.147906
0.164306 0.164306 0.164306
0.285160 0.285160 0.285160
0.433926 0.433926 0.433926
0.594000 0.594000 0.594000
0.729792 0.729792 0.729792
0.819379 0.819379 0.819379
0.863523 0.863523 0.863523
0.232587 0.232587 0.232587
0.237407 0.237407 0.237407
0.236622 0.236622 0.236622
0.282808 0.282808 0.282808
0.447591 0.447591 0.447591
0.638257 0.638261 0.638257
0.749887 0.749887 0.749887
0.826339 0.826339 0.826339
0.864679 0.864679 0.864679
0.359144 0.359144 0.359144
0.355441 0.355441 0.355441
0.347383 0.347383 0.347383
0.352436 0.352436 0.352436
0.412760 0.412760 0.412760
0.582663 0.582663 0.582663
0.757227 0.757227 0.757227
0.837135 0.837135 0.837135
0.866598 0.866598 0.866598
0.471635 0.471635 0.471635
0.469728 0.469728 0.469728
0.461385 0.461385 0.461385
0.453051 0.453051 0.453051
0.484445 0.484445 0.484445
0.560256 0.560256 0.560256
0.711850 0.711850 0.711850
0.833006 0.833006 0.833006
0.868998 0.868998 0.868998
0.655480 0.655480 0.655480
0.649505 0.649505 0.649505
0.643160 0.643160 0.643160
0.646615 0.646615 0.646615
0.647670 0.647670 0.647670
0.696474 0.696474 0.696474
0.747779 0.747779 0.747779
0.827832 0.827832 0.827832
0.868042 0.868042 0.868042
0.829132 0.829132 0.829132
0.831093 0.831093 0.831093
0.833233 0.833233 0.833233
0.843435 0.843435 0.843435
0.850540 0.850540 0.850540
0.859439 0.859439 0.859439
0.863327 0.863327 0.863327
0.864948 0.864948 0.864948
0.867128 0.867128 0.867128
0.862959 0.862959 0.862959
0.863121 0.863121 0.863121
0.863545 0.863545 0.863545
0.863646 0.863646 0.863646
0.863437 0.863437 0.863437
0.863180 0.863180 0.863180
0.863892 0.863892 0.863892
0.865502 0.865502 0.865502
0.868070 0.868070 0.868070
0.133173 0.133173 0.133173
0.134617 0.134617 0.134617
0.150570 0.150570 0.150570
0.262557 0.262557 0.262557
0.419948 0.419948 0.419948
0.611648 0.611648 0.611648
0.748293 0.748293 0.748293
0.831845 0.831845 0.831845
0.869131 0.869131 0.869131
0.145392 0.145392 0.145392
0.155000 0.155000 0.155000
0.170578 0.170578 0.170578
0.276240 0.276240 0.276240
0.428440 0.428440 0.428440
0.608182 0.608182 0.608182
0.740599 0.740599 0.740599
0.827420 0.827420 0.827420
0.868949 0.868949 0.868949
0.163847 0.163847 0.163847
0.181807 0.181807 0.181807
0.227960 0.227960 0.227960
0.329836 0.329836 0.329836
0.477915 0.477915 0.477915
0.631189 0.631189 0.631189
0.750716 0.750716 0.750716
0.831291 0.831291 0.831291
0.869486 0.869486 0.869486
0.255570 0.255570 0.255570
0.268362 0.268362 0.268362
0.302821 0.302821 0.302821
0.340053 0.340053 0.340053
0.522103 0.522103 0.522103
0.674089 0.674089 0.674089
0.772830 0.772830 0.772830
0.840700 0.840700 0.840700
0.870957 0.870957 0.870957
0.377241 0.377241 0.377241
0.385874 0.385874 0.385874
0.403892 0.403892 0.403892
0.398185 0.398185 0.398185
0.464653 0.464653 0.464653
0.640764 0.640764 0.640764
0.785064 0.785064 0.785064
0.847943 0.847943 0.847943
0.872862 0.872862 0.872862
0.497685 0.497685 0.497685
0.504502 0.504502 0.504502
0.509423 0.509423 0.509423
0.497734 0.497734 0.497734
0.513045 0.513045 0.513045
0.593994 0.593994 0.593994
0.740298 0.740298 0.740298
0.847545 0.847545 0.847545
0.875422 0.875422 0.875422
0.670254 0.670254 0.670254
0.673057 0.673057 0.673057
0.669455 0.669455 0.669455
0.665332 0.665332 0.665332
0.660361 0.660361 0.660361
0.701288 0.701288 0.701288
0.758041 0.758041 0.758041
0.842195 0.842195 0.842195
0.874155 0.874155 0.874155
0.832697 0.832697 0.832697
0.831898 0.831898 0.831898
0.831509 0.831509 0.831509
0.838156 0.838156 0.838156
0.844694 0.844694 0.844694
0.856301 0.856301 0.856301
0.866322 0.866322 0.866322
0.868722 0.868722 0.868722
0.871715 0.871715 0.871715
0.866468 0.866468 0.866468
0.866330 0.866330 0.866330
0.866210 0.866210 0.866210
0.866189 0.866189 0.866189
0.865953 0.865953 0.865953
0.865541 0.865541 0.865541
0.866104 0.866104 0.866104
0.867979 0.867979 0.867979
0.870733 0.870733 0.870733
0.237911 0.237911 0.237911
0.242661 0.242661 0.242661
0.256157 0.256157 0.256157
0.280269 0.280269 0.280269
0.393735 0.393735 0.393735
0.575797 0.575797 0.575797
0.731939 0.731939 0.731939
0.831144 0.831144 0.831144
0.877249 0.877249 0.877249
0.259945 0.259945 0.259945
0.265091 0.265091 0.265091
0.274938 0.274938 0.274938
0.294736 0.294736 0.294736
0.407393 0.407393 0.407393
0.584255 0.584255 0.584255
0.734928 0.734928 0.734928
0.832117 0.832117 0.832117
0.877269 0.877269 0.877269
0.279063 0.279063 0.279063
0.291104 0.291104 0.291104
0.317192 0.317192 0.317192
0.335347 0.335347 0.335347
0.457453 0.457453 0.457453
0.627067 0.627067 0.627067
0.763963 0.763963 0.763963
0.842175 0.842175 0.842175
0.878177 0.878177 0.878177
0.302247 0.302247 0.302247
0.313485 0.313485 0.313485
0.354163 0.354163 0.354163
0.417932 0.417932 0.417932
0.553583 0.553583 0.553583
0.684316 0.684316 0.684316
0.782803 0.782803 0.782803
0.850463 0.850463 0.850463
0.879981 0.879981 0.879981
0.414364 0.414364 0.414364
0.421986 0.421986 0.421986
0.447925 0.447925 0.447925
0.486803 0.486803 0.486803
0.528349 0.528349 0.528349
0.708533 0.708533 0.708533
0.807443 0.807443 0.807443
0.860087 0.860087 0.860087
0.882158 0.882158 0.882158
0.523857 0.523857 0.523857
0.531442 0.531442 0.531442
0.545322 0.545322 0.545322
0.562518 0.562518 0.562518
0.546604 0.546604 0.546604
0.628863 0.628863 0.628863
0.775981 0.775981 0.775981
0.865058 0.865058 0.865058
0.885080 0.885080 0.885080
0.680378 0.680378 0.680378
0.684405 0.684405 0.684405
0.693118 0.693118 0.693118
0.703643 0.703643 0.703643
0.696831 0.696831 0.696831
0.718526 0.718526 0.718526
0.771380 0.771380 0.771380
0.853483 0.853483 0.853483
0.883380 0.883380 0.883380
0.833642 0.833642 0.833642
0.834646 0.834646 0.834646
0.839249 0.839249 0.839249
0.847021 0.847021 0.847021
0.852512 0.852512 0.852512
0.861300 0.861300 0.861300
0.871516 0.871516 0.871516
0.874945 0.874945 0.874945
0.879254 0.879254 0.879254
0.868013 0.868013 0.868013
0.868789 0.868789 0.868789
0.870804 0.870804 0.870804
0.871878 0.871878 0.871878
0.871193 0.871193 0.871193
0.870289 0.870289 0.870289
0.870328 0.870328 0.870328
0.872937 0.872937 0.872937
0.876684 0.876684 0.876684
0.375967 0.375967 0.375967
0.381449 0.381449 0.381449
0.387137 0.387137 0.387137
0.400893 0.400893 0.400893
0.431930 0.431930 0.431930
0.555030 0.555030 0.555030
0.712589 0.712589 0.712589
0.828637 0.828637 0.828637
0.878065 0.878065 0.878065
0.382763 0.382763 0.382763
0.387176 0.387176 0.387176
0.393679 0.393679 0.393679
0.404761 0.404761 0.404761
0.435983 0.435983 0.435983
0.557737 0.557737 0.557737
0.715393 0.715393 0.715393
0.828964 0.828964 0.828964
0.878763 0.878763 0.878763
0.415740 0.415740 0.415740
0.422961 0.422961 0.422961
0.429687 0.429687 0.429687
0.446088 0.446088 0.446088
0.470489 0.470489 0.470489
0.584059 0.584059 0.584059
0.738910 0.738910 0.738910
0.838864 0.838864 0.838864
0.883009 0.883009 0.883009
0.432490 0.432490 0.432490
0.440609 0.440609 0.440609
0.472517 0.472517 0.472517
0.526146 0.526146 0.526146
0.552347 0.552347 0.552347
0.658093 0.658093 0.658093
0.782367 0.782367 0.782367
0.860353 0.860353 0.860353
0.890083 0.890083 0.890083
0.458549 0.458549 0.458549
0.467636 0.467636 0.467636
0.495135 0.495135 0.495135
0.546631 0.546631 0.546631
0.605520 0.605520 0.605520
0.726579 0.726579 0.726579
0.812892 0.812892 0.812892
0.869485 0.869485 0.869485
0.892546 0.892546 0.892546
0.564723 0.564723 0.564723
0.575721 0.575721 0.575721
0.591354 0.591354 0.591354
0.620369 0.620369 0.620369
0.638772 0.638772 0.638772
0.678607 0.678607 0.678607
0.823365 0.823365 0.823365
0.882208 0.882208 0.882208
0.895792 0.895792 0.895792
0.703063 0.703063 0.703063
0.706107 0.706107 0.706107
0.712158 0.712158 0.712158
0.726013 0.726013 0.726013
0.734918 0.734918 0.734918
0.727466 0.727466 0.727466
0.789760 0.789760 0.789760
0.874533 0.874533 0.874533
0.897021 0.897021 0.897021
0.826564 0.826564 0.826564
0.826498 0.826498 0.826498
0.831292 0.831292 0.831292
0.844328 0.844328 0.844328
0.855955 0.855955 0.855955
0.863161 0.863161 0.863161
0.878241 0.878241 0.878241
0.883164 0.883164 0.883164
0.889471 0.889471 0.889471
0.869505 0.869505 0.869505
0.870316 0.870316 0.870316
0.872599 0.872599 0.872599
0.876690 0.876690 0.876690
0.879629 0.879629 0.879629
0.878071 0.878071 0.878071
0.876887 0.876887 0.876887
0.879919 0.879919 0.879919
0.884306 0.884306 0.884306
0.518283 0.518283 0.518283
0.522057 0.522057 0.522057
0.525945 0.525945 0.525945
0.540461 0.540461 0.540461
0.564122 0.564122 0.564122
0.582723 0.582723 0.582723
0.701761 0.701761 0.701761
0.818955 0.818955 0.818955
0.875303 0.875303 0.875303
0.521709 0.521709 0.521709
0.523233 0.523233 0.523233
0.528174 0.528174 0.528174
0.541692 0.541692 0.541692
0.559076 0.559076 0.559076
0.580983 0.580983 0.580983
0.697329 0.697329 0.697329
0.813894 0.813894 0.813894
0.875636 0.875636 0.875636
0.556738 0.556738 0.556738
0.558648 0.558648 0.558648
0.564945 0.564945 0.564945
0.575928 0.575928 0.575928
0.587546 0.587546 0.587546
0.607339 0.607339 0.607339
0.717213 0.717213 0.717213
0.828950 0.828950 0.828950
0.880189 0.880189 0.880189
0.579846 0.579846 0.579846
0.584133 0.584133 0.584133
0.603377 0.603377 0.603377
0.626558 0.626558 0.626558
0.640592 0.640592 0.640592
0.656854 0.656854 0.656854
0.749938 0.749938 0.749938
0.849277 0.849277 0.849277
0.888318 0.888318 0.888318
0.595911 0.595911 0.595911
0.599322 0.599322 0.599322
0.614677 0.614677 0.614677
0.647407 0.647407 0.647407
0.679860 0.679860 0.679860
0.695049 0.695049 0.695049
0.782005 0.782005 0.782005
0.868224 0.868224 0.868224
0.899708 0.899708 0.899708
0.613586 0.613586 0.613586
0.619735 0.619735 0.619735
0.636444 0.636444 0.636444
0.668374 0.668374 0.668374
0.708178 0.708178 0.708178
0.754682 0.754682 0.754682
0.847055 0.847055 0.847055
0.894211 0.894211 0.894211
0.908085 0.908085 0.908085
0.716632 0.716632 0.716632
0.720079 0.720079 0.720079
0.729599 0.729599 0.729599
0.755870 0.755870 0.755870
0.774412 0.774412 0.774412
0.785966 0.785966 0.785966
0.817795 0.817795 0.817795
0.901932 0.901932 0.901932
0.913733 0.913733 0.913733
0.829688 0.829688 0.829688
0.831780 0.831780 0.831780
0.837038 0.837038 0.837037
0.849088 0.849088 0.849088
0.862561 0.862561 0.862561
0.875649 0.875649 0.875649
0.883777 0.883777 0.883777
0.896104 0.896104 0.896104
0.905915 0.905915 0.905915
0.872381 0.872381 0.872381
0.872770 0.872770 0.872770
0.875029 0.875029 0.875029
0.879339 0.879339 0.879339
0.886050 0.886050 0.886050
0.892776 0.892776 0.892776
0.890743 0.890743 0.890743
0.892442 0.892442 0.892442
0.898944 0.898944 0.898944
0.681720 0.681720 0.681720
0.684096 0.684096 0.684096
0.687906 0.687906 0.687906
0.696631 0.696631 0.696631
0.706210 0.706210 0.706210
0.715165 0.715165 0.715165
0.729797 0.729797 0.729797
0.822838 0.822838 0.822838
0.872793 0.872793 0.872793
0.680282 0.680282 0.680282
0.682998 0.682998 0.682998
0.687071 0.687071 0.687071
0.693256 0.693256 0.693256
0.700302 0.700302 0.700302
0.707853 0.707853 0.707853
0.720073 0.720073 0.720073
0.813701 0.813701 0.813701
0.872790 0.872790 0.872790
0.699745 0.699745 0.699745
0.700363 0.700363 0.700363
0.700714 0.700714 0.700714
0.706368 0.706368 0.706368
0.713107 0.713107 0.713107
0.721178 0.721178 0.721178
0.735695 0.735695 0.735695
0.824951 0.824951 0.824951
0.876322 0.876322 0.876322
0.714468 0.714468 0.714468
0.717381 0.717381 0.717381
0.724717 0.724717 0.724717
0.731898 0.731898 0.731898
0.738451 0.738451 0.738451
0.745228 0.745228 0.745228
0.757948 0.757948 0.757948
0.839266 0.839266 0.839266
0.882613 0.882613 0.882613
0.721832 0.721832 0.721832
0.724757 0.724757 0.724757
0.731991 0.731991 0.731991
0.747621 0.747621 0.747621
0.759257 0.759257 0.759257
0.765226 0.765224 0.765224
0.776272 0.776272 0.776272
0.851531 0.851531 0.851531
0.893035 0.893035 0.893035
0.729397 0.729397 0.729397
0.734310 0.734310 0.734310
0.741837 0.741837 0.741837
0.757285 0.757285 0.757285
0.773187 0.773187 0.773187
0.798374 0.798374 0.798374
0.811426 0.811426 0.811426
0.878293 0.878293 0.878293
0.910011 0.910011 0.910011
0.748986 0.748986 0.748986
0.751058 0.751058 0.751058
0.757772 0.757772 0.757772
0.771095 0.771095 0.771095
0.789481 0.789481 0.789481
0.818590 0.818590 0.818590
0.857964 0.857964 0.857964
0.919097 0.919097 0.919097
0.926997 0.926997 0.926997
0.824130 0.824130 0.824130
0.825253 0.825253 0.825253
0.832285 0.832285 0.832285
0.845901 0.845901 0.845901
0.862258 0.862258 0.862258
0.881766 0.881766 0.881766
0.901343 0.901343 0.901343
0.915768 0.915768 0.915768
0.928492 0.928492 0.928492
0.874700 0.874700 0.874700
0.875236 0.875236 0.875236
0.877460 0.877460 0.877460
0.882066 0.882066 0.882066
0.889296 0.889296 0.889296
0.899939 0.899939 0.899939
0.912980 0.912980 0.912980
0.909971 0.909971 0.909971
0.918647 0.918647 0.918647
0.792755 0.792755 0.792755
0.798521 0.798521 0.798521
0.800407 0.800407 0.800407
0.804851 0.804851 0.804851
0.810105 0.810105 0.810105
0.818585 0.818585 0.818585
0.824567 0.824567 0.824567
0.830583 0.830583 0.830583
0.871752 0.871752 0.871752
0.799215 0.799215 0.799215
0.800957 0.800957 0.800957
0.799195 0.799195 0.799195
0.800194 0.800194 0.800194
0.800519 0.800519 0.800519
0.802895 0.802895 0.802895
0.809080 0.809080 0.809080
0.817730 0.817730 0.817730
0.871655 0.871655 0.871655
0.814053 0.814053 0.814053
0.812244 0.812244 0.812244
0.808040 0.808040 0.808040
0.810375 0.810375 0.810375
0.811000 0.811000 0.811000
0.816684 0.816684 0.816684
0.828615 0.828615 0.828615
0.836054 0.836054 0.836054
0.875041 0.875041 0.875041
0.819714 0.819714 0.819714
0.818405 0.818405 0.818405
0.816894 0.816894 0.816894
0.824152 0.824152 0.824152
0.830504 0.830504 0.830504
0.833951 0.833951 0.833951
0.840102 0.840102 0.840102
0.845998 0.845998 0.845998
0.880659 0.880659 0.880659
0.818530 0.818530 0.818530
0.819084 0.819084 0.819084
0.822380 0.822380 0.822380
0.833391 0.833391 0.833391
0.838310 0.838310 0.838310
0.840722 0.840722 0.840722
0.846190 0.846190 0.846180
0.853856 0.853856 0.853856
0.888812 0.888812 0.888812
0.827634 0.827634 0.827634
0.832981 0.832981 0.832981
0.835845 0.835845 0.835845
0.843100 0.843100 0.843100
0.853222 0.853222 0.853222
0.860462 0.860462 0.860462
0.867913 0.867913 0.867913
0.878215 0.878215 0.878215
0.902304 0.902304 0.902304
0.838887 0.838887 0.838887
0.841096 0.841096 0.841096
0.845591 0.845591 0.845591
0.854042 0.854042 0.854042
0.863252 0.863252 0.863252
0.878370 0.878370 0.878370
0.900402 0.900402 0.900402
0.912200 0.912200 0.912200
0.924167 0.924167 0.924167
0.857761 0.857761 0.857761
0.858551 0.858551 0.858551
0.861084 0.861084 0.861084
0.868563 0.868563 0.868563
0.880143 0.880143 0.880143
0.894731 0.894731 0.894731
0.916364 0.916364 0.916364
0.943448 0.943448 0.943448
0.946459 0.946459 0.946459
0.877081 0.877081 0.877081
0.877729 0.877729 0.877729
0.880095 0.880095 0.880095
0.885087 0.885087 0.885087
0.892996 0.892996 0.892996
0.904863 0.904863 0.904863
0.922411 0.922411 0.922411
0.947387 0.947387 0.947387
0.947387 0.947387 0.947387
0.857877 0.857877 0.857877
0.857992 0.857992 0.857992
0.858335 0.858335 0.858335
0.859049 0.859049 0.859049
0.860059 0.860059 0.860059
0.861353 0.861353 0.861353
0.863211 0.863211 0.863211
0.865904 0.865904 0.865904
0.869810 0.869810 0.869810
0.858435 0.858435 0.858435
0.858546 0.858546 0.858546
0.858878 0.858878 0.858878
0.859727 0.859727 0.859727
0.860678 0.860678 0.860678
0.861920 0.861920 0.861920
0.863617 0.863617 0.863617
0.866238 0.866238 0.866238
0.870154 0.870154 0.870154
0.860350 0.860350 0.860350
0.860568 0.860568 0.860568
0.860820 0.860820 0.860815
0.861303 0.861303 0.861303
0.862116 0.862116 0.862116
0.863267 0.863267 0.863267
0.865112 0.865112 0.865112
0.868155 0.868155 0.868155
0.871778 0.871778 0.871778
0.864199 0.864199 0.864199
0.864392 0.864392 0.864392
0.864677 0.864677 0.864677
0.865270 0.865270 0.865270
0.866092 0.866092 0.866092
0.867353 0.867353 0.867353
0.869640 0.869640 0.869640
0.873654 0.873654 0.873654
0.876990 0.876990 0.876990
0.868788 0.868788 0.868788
0.868851 0.868851 0.868851
0.870066 0.870066 0.870066
0.871233 0.871233 0.871233
0.872000 0.872000 0.872000
0.873720 0.873720 0.873720
0.877420 0.877420 0.877420
0.882509 0.882509 0.882509
0.885787 0.885787 0.885787
0.868124 0.868124 0.868124
0.868572 0.868572 0.868572
0.870121 0.870121 0.870121
0.875000 0.875000 0.875000
0.881718 0.881718 0.881718
0.885182 0.885182 0.885182
0.890100 0.890100 0.890100
0.893841 0.893841 0.893841
0.897421 0.897421 0.897421
0.873778 0.873778 0.873778
0.874333 0.874333 0.874333
0.876417 0.876417 0.876417
0.880934 0.880934 0.880934
0.888449 0.888449 0.888449
0.899579 0.899579 0.899579
0.909344 0.909344 0.909344
0.913185 0.913185 0.913185
0.918158 0.918158 0.918158
0.878344 0.878344 0.878344
0.879689 0.879689 0.879689
0.882465 0.882465 0.882465
0.887567 0.887567 0.887567
0.895781 0.895781 0.895781
0.908008 0.908008 0.908008
0.927169 0.927169 0.927169
0.946686 0.946686 0.946686
0.947387 0.947387 0.947387
0.879881 0.879881 0.879881
0.880659 0.880659 0.880659
0.883231 0.883231 0.883231
0.888235 0.888235 0.888235
0.896498 0.896498 0.896498
0.909102 0.909102 0.909102
0.929458 0.929458 0.929458
0.947387 0.947387 0.947387
0.947387 0.947387 0.947387
