ml_luts/bw2__lut3d_33.cube
TITLE "BW2"
DOMAIN_MIN 0.000000 0.000000 0.000000
DOMAIN_MAX 1.000000 1.000000 1.000000
LUT_3D_SIZE 5
0.000000 0.000000 0.000000
0.138468 0.138468 0.138468
0.423423 0.423423 0.423423
0.756504 0.756504 0.756504
0.862028 0.862028 0.862028
0.128534 0.128534 0.128534
0.144907 0.144907 0.144907
0.439719 0.439719 0.439719
0.766665 0.766665 0.766665
0.862875 0.862875 0.862875
0.352178 0.352178 0.352178
0.346258 0.346258 0.346258
0.437880 0.437880 0.437880
0.772172 0.772172 0.772172
0.865782 0.865782 0.865782
0.684833 0.684833 0.684833
0.679688 0.679688 0.679688
0.666201 0.666201 0.666201
0.758311 0.758311 0.758311
0.867346 0.867346 0.867346
0.862943 0.862943 0.862943
0.862677 0.862677 0.862677
0.862455 0.862455 0.862455
0.863158 0.863158 0.863158
0.867155 0.867155 0.867155
0.133173 0.133173 0.133173
0.150570 0.150570 0.150570
0.419948 0.419948 0.419948
0.748293 0.748293 0.748293
0.869131 0.869131 0.869131
0.163847 0.163847 0.163847
0.227960 0.227960 0.227960
0.477915 0.477915 0.477915
0.750716 0.750716 0.750716
0.869486 0.869486 0.869486
0.377241 0.377241 0.377241
0.403892 0.403892 0.403892
0.464653 0.464653 0.464653
0.785064 0.785064 0.785064
0.872862 0.872862 0.872862
0.670254 0.670254 0.670254
0.669455 0.669455 0.669455
0.660361 0.660361 0.660361
0.758041 0.758041 0.758041
0.874155 0.874155 0.874155
0.866468 0.866468 0.866468
0.866210 0.866210 0.866210
0.865953 0.865953 0.865953
0.866104 0.866104 0.866104
0.870733 0.870733 0.870733
0.375967 0.375967 0.375967
0.387137 0.387137 0.387137
0.431930 0.431930 0.431930
0.712589 0.712589 0.712589
0.878065 0.878065 0.878065
0.415740 0.415740 0.415740
0.429687 0.429687 0.429687
0.470489 0.470489 0.470489
0.738910 0.738910 0.738910
0.883009 0.883009 0.883009
0.458549 0.458549 0.458549
0.495135 0.495135 0.495135
0.605520 0.605520 0.605520
0.812892 0.812892 0.812892
0.892546 0.892546 0.892546
0.703063 0.703063 0.703063
0.712158 0.712158 0.712158
0.734918 0.734918 0.734918
0.789760 0.789760 0.789760
0.897021 0.897021 0.897021
0.869505 0.869505 0.869505
0.872599 0.872599 0.872599
0.879629 0.879629 0.879629
0.876887 0.876887 0.876887
0.884306 0.884306 0.884306
0.681720 0.681720 0.681720
0.687906 0.687906 0.687906
0.706210 0.706210 0.706210
0.729797 0.729797 0.729797
0.872793 0.872793 0.872793
0.699745 0.699745 0.699745
0.700714 0.700714 0.700714
0.713107 0.713107 0.713107
0.735695 0.735695 0.735695
0.876322 0.876322 0.876322
0.721832 0.721832 0.721832
0.731991 0.731991 0.731991
0.759257 0.759257 0.759257
0.776272 0.776272 0.776272
0.893035 0.893035 0.893035
0.748986 0.748986 0.748986
0.757772 0.757772 0.757772
0.789481 0.789481 0.789481
0.857964 0.857964 0.857964
0.926997 0.926997 0.926997
0.874700 0.874700 0.874700
0.877460 0.877460 0.877460
0.889296 0.889296 0.889296
0.912980 0.912980 0.912980
0.918647 0.918647 0.918647
0.857877 0.857877 0.857877
0.858335 0.858335 0.858335
0.860059 0.860059 0.860059
0.863211 0.863211 0.863211
0.869810 0.869810 0.869810
0.860350 0.860350 0.860350
0.860820 0.860820 0.860815
0.862116 0.862116 0.862116
0.865112 0.865112 0.865112
0.871778 0.871778 0.871778
0.868788 0.868788 0.868788
0.870066 0.870066 0.870066
0.872000 0.872000 0.872000
0.877420 0.877420 0.877420
0.885787 0.885787 0.885787
0.873778 0.873778 0.873778
0.876417 0.876417 0.876417
0.888449 0.888449 0.888449
0.909344 0.909344 0.909344
0.918158 0.918158 0.918158
0.879881 0.879881 0.879881
0.883231 0.883231 0.883231
0.896498 0.896498 0.896498
0.929458 0.929458 0.929458
0.947387 0.947387 0.947387
