ml_luts/bw3__lut3d_33.cube
TITLE "BW3"
DOMAIN_MIN 0.000000 0.000000 0.000000
DOMAIN_MAX 1.000000 1.000000 1.000000
LUT_3D_SIZE 5
0.000000 0.000000 0.000000
0.102006 0.100100 0.090135
0.274891 0.272465 0.252964
0.540513 0.546304 0.536004
0.847349 0.856229 0.860441
0.189227 0.186465 0.169962
0.225080 0.222233 0.204118
0.331071 0.329652 0.309991
0.578865 0.585990 0.578275
0.860212 0.868688 0.872900
0.514114 0.518875 0.506882
0.538583 0.544285 0.533894
0.596307 0.604013 0.597436
0.702991 0.713104 0.712981
0.896940 0.903868 0.907790
0.814206 0.823949 0.827749
0.822097 0.831648 0.835586
0.847047 0.855943 0.860121
0.876356 0.884186 0.888317
0.962859 0.965789 0.967735
0.985046 0.986328 0.987182
0.986824 0.987915 0.988678
0.993500 0.994064 0.994430
1.000000 1.000000 1.000000
1.000000 1.000000 1.000000
0.073297 0.071938 0.064614
0.101467 0.099397 0.089463
0.294953 0.292824 0.273076
0.557980 0.564388 0.555286
0.846479 0.855406 0.859586
0.160508 0.157807 0.143258
0.207313 0.204467 0.187067
0.363651 0.363083 0.343964
0.589175 0.596673 0.589635
0.858232 0.866773 0.870991
0.498428 0.502602 0.489647
0.522342 0.527419 0.515980
0.583889 0.591176 0.583795
0.693734 0.703743 0.703121
0.897356 0.904257 0.908164
0.805770 0.815656 0.819285
0.813878 0.823604 0.827390
0.842002 0.851032 0.855178
0.873708 0.881651 0.885789
0.962089 0.965072 0.967054
0.983887 0.985229 0.986152
0.985952 0.987125 0.987942
0.993153 0.993732 0.994137
1.000000 1.000000 1.000000
1.000000 1.000000 1.000000
0.169849 0.167086 0.151919
0.188300 0.185485 0.169108
0.267415 0.264859 0.245457
0.526764 0.532025 0.520859
0.843259 0.852292 0.856459
0.269779 0.267250 0.247818
0.296099 0.293979 0.274204
0.350193 0.349231 0.329824
0.584453 0.591751 0.584418
0.858698 0.867216 0.871443
0.441863 0.443877 0.427733
0.471862 0.475006 0.460473
0.560311 0.566796 0.557839
0.712476 0.722705 0.723064
0.902197 0.908858 0.912688
0.790635 0.800740 0.804013
0.799454 0.809430 0.812943
0.830012 0.839376 0.843403
0.869312 0.877418 0.881582
0.957584 0.960899 0.963077
0.981781 0.983292 0.984329
0.984253 0.985573 0.986469
0.991737 0.992447 0.992920
1.000000 1.000000 1.000000
1.000000 1.000000 1.000000
0.361288 0.360624 0.341436
0.372517 0.372206 0.353319
0.401457 0.402010 0.384115
0.505903 0.510347 0.497873
0.816693 0.826383 0.830251
0.448108 0.450336 0.434514
0.453552 0.455970 0.440440
0.472148 0.475295 0.460761
0.559108 0.565568 0.556521
0.834376 0.843656 0.847744
0.568990 0.575772 0.567395
0.590880 0.598392 0.591484
0.655198 0.664498 0.661704
0.693978 0.703998 0.703413
0.889162 0.896452 0.900488
0.756239 0.766608 0.768856
0.766650 0.776997 0.779588
0.799989 0.809974 0.813505
0.858644 0.867140 0.871337
0.958232 0.961492 0.963636
0.978058 0.979850 0.981079
0.980675 0.982290 0.983358
0.988598 0.989547 0.990211
0.999943 0.999948 0.999948
1.000000 1.000000 1.000000
0.770901 0.781247 0.783993
0.772404 0.782719 0.785550
0.775402 0.785702 0.788602
0.777005 0.787296 0.790242
0.845762 0.854734 0.858915
0.802762 0.812711 0.816328
0.803144 0.813092 0.816714
0.805330 0.815244 0.818906
0.800610 0.810607 0.814170
0.857939 0.866491 0.870703
0.855451 0.864103 0.868315
0.862585 0.870977 0.875185
0.863165 0.871511 0.875738
0.857939 0.866476 0.870699
0.891539 0.898710 0.902709
0.916388 0.922316 0.925834
0.916445 0.922351 0.925866
0.915839 0.921779 0.925311
0.933204 0.938147 0.941190
0.947623 0.951629 0.954193
0.973266 0.975433 0.976898
0.974212 0.976318 0.977730
0.977996 0.979797 0.981033
0.986625 0.987755 0.988525
1.000000 1.000000 1.000000
