ml_luts/bw3__lut3d_33.cube
TITLE "BW3"
DOMAIN_MIN 0.000000 0.000000 0.000000
DOMAIN_MAX 1.000000 1.000000 1.000000
LUT_3D_SIZE 33
0.000000 0.000000 0.000000
0.007036 0.006622 0.004523
0.014788 0.014161 0.010963
0.034649 0.033262 0.026014
0.055505 0.053773 0.044938
0.068189 0.066831 0.059528
0.078420 0.076989 0.069207
0.089581 0.087663 0.078815
0.102006 0.100100 0.090135
0.116517 0.114262 0.103020
0.133354 0.130818 0.118204
0.152368 0.149734 0.135711
0.173594 0.170863 0.155364
0.196791 0.193959 0.177079
0.221652 0.218784 0.200792
0.247812 0.245073 0.226187
0.274891 0.272465 0.252964
0.302700 0.300687 0.280943
0.331035 0.329559 0.309930
0.361548 0.360859 0.341754
0.395140 0.395495 0.377360
0.429488 0.431059 0.414312
0.464723 0.467634 0.452676
0.501639 0.505953 0.493168
0.540513 0.546304 0.536004
0.580052 0.587206 0.579567
0.619335 0.627714 0.622690
0.658098 0.667464 0.664831
0.696293 0.706347 0.705890
0.734741 0.745111 0.746505
0.773821 0.784106 0.786946
0.811901 0.821698 0.825496
0.847349 0.856229 0.860441
0.014812 0.014191 0.011027
0.017781 0.017147 0.013918
0.023627 0.022793 0.018532
0.040799 0.039204 0.030919
0.058879 0.057690 0.048493
0.070057 0.068826 0.061306
0.080100 0.078675 0.070709
0.091012 0.089372 0.080370
0.103455 0.101593 0.091347
0.117932 0.115660 0.104285
0.134601 0.132045 0.119413
0.153492 0.150868 0.136825
0.174688 0.171875 0.156347
0.197780 0.194870 0.177996
0.222403 0.219522 0.201525
0.248401 0.245663 0.226730
0.275320 0.272894 0.253348
0.302898 0.300927 0.281126
0.331033 0.329633 0.309928
0.361322 0.360668 0.341515
0.394601 0.394955 0.376780
0.428547 0.430078 0.413282
0.463391 0.466211 0.451196
0.499976 0.504226 0.491331
0.538665 0.544337 0.533941
0.578160 0.585284 0.577521
0.617465 0.625815 0.620654
0.656352 0.665688 0.662967
0.694707 0.704737 0.704190
0.733242 0.743612 0.744923
0.772411 0.782696 0.785507
0.810634 0.820433 0.824202
0.846225 0.855165 0.859347
0.033285 0.032072 0.025717
0.038092 0.036685 0.029331
0.042224 0.040610 0.032221
0.053360 0.051608 0.041998
0.063762 0.062480 0.054623
0.073097 0.071755 0.064202
0.082452 0.080935 0.072621
0.093165 0.091471 0.082187
0.105462 0.103608 0.093289
0.119792 0.117691 0.106189
0.136435 0.134067 0.121164
0.155425 0.152822 0.138521
0.176472 0.173618 0.157984
0.199459 0.196536 0.179548
0.224022 0.221124 0.202988
0.249798 0.247092 0.228090
0.276593 0.274195 0.254620
0.304072 0.302086 0.282282
0.332013 0.330652 0.310962
0.362137 0.361558 0.342416
0.395162 0.395553 0.377404
0.428849 0.430378 0.413599
0.463504 0.466321 0.451313
0.499923 0.504172 0.491294
0.538441 0.544095 0.533689
0.577845 0.584924 0.577122
0.617056 0.625410 0.620188
0.655924 0.665283 0.662511
0.694287 0.704316 0.703763
0.732850 0.743220 0.744500
0.772021 0.782307 0.785090
0.810223 0.820049 0.823817
0.845846 0.854788 0.858969
0.062446 0.061223 0.053832
0.064517 0.063274 0.056319
0.066787 0.065472 0.058283
0.070498 0.069121 0.061473
0.076025 0.074614 0.066747
0.079608 0.078134 0.069955
0.087768 0.086180 0.077292
0.098228 0.096258 0.086712
0.110232 0.108212 0.097454
0.124436 0.122256 0.110319
0.140968 0.138548 0.125317
0.159867 0.157210 0.142596
0.180841 0.178015 0.162035
0.203604 0.200697 0.183505
0.227810 0.224945 0.206717
0.253314 0.250634 0.231588
0.279843 0.277476 0.257898
0.307033 0.305116 0.285338
0.334941 0.333626 0.314015
0.364831 0.364306 0.345242
0.397051 0.397516 0.379417
0.430073 0.431657 0.414954
0.464311 0.467157 0.452205
0.500587 0.504831 0.492010
0.539149 0.544851 0.534506
0.578774 0.585871 0.578161
0.618220 0.626569 0.621482
0.657207 0.666541 0.663890
0.695604 0.705605 0.705111
0.734051 0.744396 0.745754
0.773000 0.783287 0.786120
0.810880 0.820708 0.824475
0.846210 0.855124 0.859305
0.082509 0.080995 0.072690
0.084179 0.082329 0.073995
0.086039 0.084121 0.075689
0.089154 0.087225 0.078593
0.092889 0.090925 0.081896
0.098624 0.096581 0.087009
0.101328 0.099238 0.089429
0.106714 0.104714 0.094228
0.117615 0.115531 0.104087
0.131717 0.129440 0.116905
0.148042 0.145554 0.131839
0.166733 0.163999 0.149042
0.187403 0.184600 0.168302
0.209860 0.207019 0.189498
0.233827 0.230975 0.212492
0.259053 0.256391 0.237211
0.285271 0.282960 0.263315
0.312135 0.310304 0.290500
0.340078 0.338886 0.319319
0.369981 0.369574 0.350641
0.401474 0.402028 0.384121
0.433806 0.435495 0.418967
0.467579 0.470546 0.455758
0.503514 0.507845 0.495228
0.541867 0.547681 0.537496
0.581211 0.588411 0.580845
0.620408 0.628832 0.623881
0.659154 0.668538 0.665980
0.697218 0.707263 0.706852
0.735490 0.745833 0.747248
0.774185 0.784469 0.787308
0.811824 0.821600 0.825393
0.846891 0.855802 0.859983
0.103579 0.101714 0.091462
0.104836 0.102910 0.092591
0.106626 0.104665 0.094306
0.110271 0.108051 0.097524
0.114092 0.112000 0.100856
0.118708 0.116560 0.105055
0.126180 0.123763 0.111735
0.128827 0.126519 0.114196
0.132570 0.130112 0.117489
0.142713 0.140223 0.126867
0.158186 0.155561 0.141130
0.176580 0.173724 0.158113
0.196858 0.193987 0.177185
0.218895 0.216058 0.198152
0.242449 0.239681 0.220928
0.267265 0.264733 0.245368
0.293081 0.290893 0.271162
0.319505 0.317825 0.298040
0.347399 0.346393 0.326928
0.377239 0.377055 0.358305
0.408046 0.408866 0.391185
0.439976 0.441875 0.425639
0.477796 0.481144 0.466971
0.523169 0.528278 0.516884
0.561447 0.567997 0.559109
0.599718 0.607543 0.601197
0.637426 0.646320 0.642440
0.674504 0.684206 0.682554
0.711144 0.721359 0.721654
0.748293 0.758676 0.760596
0.785580 0.795779 0.798941
0.821392 0.830978 0.834899
0.854605 0.863284 0.867465
0.129145 0.126924 0.114649
0.130424 0.127987 0.115652
0.132117 0.129645 0.117187
0.135603 0.133050 0.120327
0.140752 0.138334 0.125074
0.145044 0.142590 0.129110
0.150758 0.148198 0.134245
0.160652 0.157984 0.143369
0.163975 0.161227 0.146406
0.168010 0.165237 0.150196
0.175429 0.172694 0.157147
0.190891 0.188096 0.171602
0.210926 0.208057 0.190503
0.232557 0.229698 0.211272
0.255527 0.252831 0.233742
0.279629 0.277247 0.257669
0.304645 0.302702 0.282895
0.330995 0.329626 0.309928
0.359173 0.358514 0.339294
0.388799 0.388974 0.370612
0.419588 0.420766 0.403607
0.452010 0.454376 0.438786
0.487678 0.491401 0.477815
0.527162 0.532420 0.521268
0.566237 0.572945 0.564386
0.605044 0.613012 0.607032
0.642744 0.651769 0.648208
0.679449 0.689234 0.687865
0.715636 0.725904 0.726402
0.752332 0.762718 0.764802
0.789027 0.799162 0.802432
0.824148 0.833676 0.837645
0.856759 0.865347 0.869552
0.157567 0.154944 0.140515
0.158683 0.156002 0.141560
0.160260 0.157549 0.142986
0.163573 0.160833 0.145963
0.168714 0.165958 0.150806
0.174202 0.171372 0.155894
0.179059 0.176302 0.160505
0.186007 0.183276 0.166992
0.198152 0.195310 0.178455
0.203254 0.200353 0.183237
0.207296 0.204454 0.187140
0.214898 0.212105 0.194355
0.227571 0.224775 0.206498
0.246501 0.243734 0.224891
0.268796 0.266234 0.246870
0.292121 0.289923 0.270250
0.316680 0.314942 0.295193
0.342987 0.341871 0.322332
0.370653 0.370316 0.351371
0.399205 0.399746 0.381739
0.429157 0.430707 0.413962
0.461048 0.463752 0.448642
0.495527 0.499559 0.486449
0.532740 0.538211 0.527433
0.571296 0.578153 0.569932
0.609514 0.617622 0.611927
0.646703 0.655828 0.652498
0.682866 0.692721 0.691522
0.718650 0.728947 0.729596
0.755004 0.765408 0.767581
0.791273 0.801373 0.804723
0.825944 0.835442 0.839440
0.858171 0.866723 0.870934
0.189227 0.186465 0.169962
0.190225 0.187441 0.170939
0.191731 0.188939 0.172365
0.194781 0.191836 0.175120
0.199533 0.196659 0.179681
0.205627 0.202785 0.185514
0.211169 0.208306 0.190801
0.216691 0.213906 0.196108
0.225080 0.222233 0.204118
0.237401 0.234634 0.216049
0.245713 0.243021 0.224209
0.251218 0.248534 0.229549
0.258374 0.255760 0.236554
0.268565 0.266016 0.246581
0.284826 0.282495 0.262822
0.306576 0.304652 0.284853
0.331071 0.329652 0.309991
0.356954 0.356179 0.336938
0.383404 0.383442 0.364879
0.410720 0.411667 0.394094
0.439689 0.441619 0.425380
0.470838 0.473921 0.459341
0.504742 0.509148 0.496589
0.541299 0.547064 0.536857
0.578865 0.585990 0.578275
0.616090 0.624384 0.619117
0.652358 0.661615 0.658648
0.687798 0.697732 0.696810
0.723018 0.733339 0.734183
0.758846 0.769230 0.771551
0.794524 0.804571 0.807984
0.828541 0.837964 0.841991
0.860212 0.868688 0.872900
0.224101 0.221347 0.203176
0.225119 0.222272 0.204102
0.226427 0.223616 0.205410
0.229229 0.226367 0.208075
0.233613 0.230763 0.212312
0.239465 0.236670 0.218075
0.246164 0.243446 0.224620
0.251751 0.249059 0.230073
0.257754 0.255128 0.235989
0.266712 0.264181 0.244835
0.278861 0.276456 0.256921
0.290183 0.287960 0.268312
0.297512 0.295443 0.275706
0.304102 0.302113 0.282359
0.314025 0.312227 0.292469
0.327857 0.326391 0.306655
0.348072 0.347074 0.327622
0.372904 0.372564 0.353713
0.398156 0.398647 0.380592
0.424373 0.425779 0.408781
0.452344 0.454732 0.439133
0.482674 0.486220 0.472319
0.515735 0.520573 0.508691
0.551103 0.557246 0.547664
0.587237 0.594647 0.587499
0.623183 0.631689 0.626911
0.658500 0.667891 0.665299
0.693204 0.703196 0.702569
0.728000 0.738326 0.739409
0.763432 0.773806 0.776277
0.798582 0.808589 0.812101
0.832013 0.841346 0.845423
0.863168 0.871534 0.875745
0.261305 0.258706 0.239481
0.262238 0.259663 0.240377
0.263509 0.260893 0.241617
0.266019 0.263438 0.244079
0.270000 0.267470 0.248069
0.275435 0.273016 0.253515
0.282272 0.279979 0.260358
0.288959 0.286732 0.267081
0.294841 0.292725 0.273036
0.301300 0.299261 0.279546
0.310252 0.308356 0.288619
0.322224 0.320572 0.300870
0.336278 0.334970 0.315409
0.346157 0.345120 0.325710
0.353922 0.353100 0.333844
0.363272 0.362720 0.343634
0.375598 0.375379 0.356598
0.392209 0.392487 0.374241
0.413654 0.414665 0.397233
0.438824 0.440730 0.424443
0.465956 0.468876 0.454025
0.495663 0.499713 0.486601
0.528081 0.533377 0.522310
0.562375 0.568937 0.560124
0.597243 0.604992 0.598504
0.631933 0.640688 0.636445
0.666126 0.675651 0.673511
0.699892 0.709957 0.709695
0.734000 0.744357 0.745715
0.768795 0.779126 0.781779
0.803156 0.813109 0.816713
0.835823 0.845066 0.849159
0.866327 0.874574 0.878786
0.300420 0.298387 0.278646
0.301267 0.299266 0.279494
0.302404 0.300373 0.280667
0.304729 0.302752 0.282984
0.308391 0.306500 0.286761
0.313451 0.311632 0.291880
0.319823 0.318164 0.298424
0.327104 0.325613 0.305947
0.333553 0.332191 0.312606
0.339746 0.338531 0.319022
0.346523 0.345479 0.326063
0.355975 0.355181 0.335929
0.372606 0.372275 0.353446
0.391936 0.392248 0.374054
0.404005 0.404704 0.386972
0.411609 0.412568 0.395125
0.420086 0.421334 0.404246
0.430331 0.431926 0.415296
0.443526 0.445610 0.429573
0.462292 0.465062 0.449999
0.487897 0.491644 0.478056
0.517111 0.521973 0.510201
0.548516 0.554557 0.544838
0.581107 0.588308 0.580740
0.614095 0.622337 0.616964
0.646966 0.656089 0.652784
0.679483 0.689261 0.687872
0.711872 0.722101 0.722428
0.744852 0.755219 0.757017
0.778327 0.788589 0.791554
0.811244 0.821036 0.824801
0.842420 0.851475 0.855605
0.871724 0.879773 0.883945
0.342710 0.341588 0.322103
0.343446 0.342379 0.322875
0.344410 0.343346 0.323908
0.346409 0.345400 0.325998
0.349613 0.348673 0.329345
0.353966 0.353109 0.333865
0.359661 0.358976 0.339826
0.366508 0.366057 0.347066
0.373956 0.373693 0.354905
0.381113 0.381063 0.362499
0.388700 0.388894 0.370572
0.397468 0.397956 0.379924
0.409647 0.410533 0.392954
0.424697 0.426101 0.409122
0.443653 0.445722 0.429685
0.457043 0.459621 0.444305
0.464359 0.467231 0.452300
0.472420 0.475584 0.461104
0.481474 0.484973 0.471012
0.493856 0.497835 0.484586
0.511724 0.516401 0.504253
0.535708 0.541289 0.530709
0.565889 0.572556 0.563982
0.596859 0.604560 0.598044
0.628141 0.636774 0.632307
0.659440 0.668852 0.666310
0.690533 0.700502 0.699719
0.721835 0.732153 0.732959
0.753891 0.764265 0.766409
0.786260 0.796439 0.799644
0.817969 0.827628 0.831519
0.847978 0.856853 0.861040
0.876368 0.884218 0.888349
0.384395 0.384442 0.365964
0.385092 0.385193 0.366720
0.385883 0.386002 0.367553
0.387622 0.387797 0.369433
0.390378 0.390613 0.372337
0.394444 0.394820 0.376674
0.399997 0.400532 0.382610
0.406736 0.407516 0.389837
0.414744 0.415798 0.398434
0.423043 0.424384 0.407377
0.430912 0.432534 0.415889
0.439209 0.441154 0.424889
0.448181 0.450453 0.434647
0.457625 0.460227 0.444917
0.471987 0.475121 0.460584
0.492080 0.495989 0.482639
0.506116 0.510573 0.498102
0.513138 0.517867 0.505844
0.521212 0.526241 0.514732
0.531047 0.536450 0.525564
0.543555 0.549434 0.539362
0.560312 0.566789 0.557837
0.582839 0.590096 0.582647
0.609810 0.617917 0.612267
0.639774 0.648710 0.644978
0.669762 0.679395 0.677470
0.699771 0.709883 0.709589
0.730246 0.740600 0.741793
0.761533 0.771874 0.774306
0.793005 0.803092 0.806464
0.823689 0.833220 0.837180
0.852803 0.861511 0.865720
0.880439 0.888112 0.892232
0.426526 0.427999 0.411170
0.427252 0.428737 0.411955
0.427994 0.429509 0.412744
0.429674 0.431246 0.414549
0.432243 0.433933 0.417354
0.436113 0.437931 0.421540
0.441252 0.443228 0.427100
0.447566 0.449789 0.433942
0.455133 0.457629 0.442194
0.463741 0.466575 0.451600
0.471766 0.474915 0.460372
0.479537 0.483001 0.468901
0.487774 0.491542 0.477964
0.496552 0.500645 0.487598
0.505596 0.510037 0.497527
0.520186 0.525173 0.513576
0.540479 0.546224 0.535955
0.554571 0.560841 0.551514
0.561502 0.568016 0.559153
0.570162 0.576974 0.568694
0.581021 0.588204 0.580646
0.593978 0.601598 0.594896
0.609594 0.617709 0.612031
0.629172 0.637826 0.633432
0.652884 0.662132 0.659202
0.680893 0.690725 0.689437
0.709975 0.720202 0.720431
0.739793 0.750194 0.751783
0.770427 0.780734 0.783459
0.801036 0.811009 0.814567
0.830736 0.840083 0.844131
0.858941 0.867437 0.871645
0.885763 0.893207 0.897293
0.470254 0.473328 0.458713
0.471009 0.474114 0.459559
0.471761 0.474897 0.460372
0.473398 0.476576 0.462137
0.475868 0.479189 0.464900
0.479469 0.482922 0.468858
0.484112 0.487708 0.473907
0.489878 0.493729 0.480250
0.496841 0.500951 0.487913
0.505101 0.509526 0.496994
0.513754 0.518519 0.506519
0.521345 0.526410 0.514897
0.528701 0.534025 0.523015
0.536470 0.542089 0.531578
0.544474 0.550390 0.540391
0.552568 0.558772 0.549293
0.566629 0.573342 0.564794
0.585669 0.593030 0.585761
0.599459 0.607262 0.600917
0.607913 0.615969 0.610197
0.617582 0.625905 0.620772
0.629215 0.637875 0.633469
0.642558 0.651569 0.647995
0.657435 0.666774 0.664115
0.674750 0.684438 0.682781
0.696609 0.706664 0.706226
0.721546 0.731859 0.732646
0.750686 0.761085 0.763117
0.780487 0.790720 0.793755
0.810011 0.819845 0.823583
0.838490 0.847643 0.851770
0.865605 0.873865 0.878054
0.891438 0.898632 0.902643
0.514114 0.518875 0.506882
0.514750 0.519541 0.507592
0.515415 0.520235 0.508330
0.516923 0.521787 0.509995
0.519278 0.524246 0.512606
0.522599 0.527690 0.516276
0.526863 0.532111 0.520958
0.532200 0.537659 0.526862
0.538583 0.544285 0.533894
0.546049 0.552025 0.542125
0.554471 0.560749 0.551408
0.562232 0.568790 0.559965
0.568976 0.575772 0.567407
0.575579 0.582596 0.574674
0.582367 0.589615 0.582128
0.589292 0.596769 0.589726
0.596307 0.604013 0.597436
0.608787 0.616894 0.611147
0.626625 0.635262 0.630674
0.641304 0.650309 0.646660
0.651881 0.661106 0.658119
0.662304 0.671757 0.669379
0.674349 0.684034 0.682365
0.687927 0.697833 0.696916
0.702991 0.713104 0.712981
0.719713 0.729982 0.730687
0.739323 0.749701 0.751261
0.763591 0.773949 0.776450
0.790646 0.800767 0.804082
0.818919 0.828572 0.832475
0.846098 0.855041 0.859207
0.872092 0.880098 0.884257
0.896940 0.903868 0.907790
0.557189 0.563564 0.554393
0.557775 0.564164 0.555036
0.562322 0.568861 0.560033
0.563903 0.570495 0.561784
0.565973 0.572649 0.564069
0.568755 0.575507 0.567127
0.572329 0.579232 0.571072
0.576819 0.583874 0.576022
0.582241 0.589469 0.581967
0.588575 0.596016 0.588949
0.595783 0.603449 0.596854
0.603382 0.611282 0.605191
0.609919 0.618029 0.612381
0.615677 0.623953 0.618679
0.621407 0.629843 0.624926
0.627233 0.635824 0.631282
0.633181 0.641937 0.637775
0.639366 0.648303 0.644514
0.650241 0.659457 0.656338
0.667015 0.676593 0.674494
0.682628 0.692463 0.691253
0.694598 0.704596 0.704036
0.705428 0.715557 0.715569
0.717851 0.728097 0.728707
0.731793 0.742128 0.743379
0.747126 0.757483 0.759373
0.763908 0.774238 0.776743
0.782406 0.792608 0.795680
0.804115 0.814018 0.817632
0.827942 0.837371 0.841399
0.853555 0.862246 0.866437
0.878509 0.886249 0.890375
0.902458 0.909104 0.912923
0.599451 0.607254 0.600896
0.600506 0.608326 0.602053
0.606298 0.614291 0.608393
0.608182 0.616239 0.610461
0.610229 0.618360 0.612711
0.612697 0.620889 0.615411
0.615755 0.624045 0.618759
0.619456 0.627865 0.622820
0.624002 0.632520 0.627774
0.629303 0.637961 0.633564
0.635355 0.644173 0.640157
0.642050 0.651052 0.647458
0.648511 0.657662 0.654479
0.653841 0.663121 0.660258
0.658680 0.668053 0.665476
0.663619 0.673087 0.670810
0.668728 0.678303 0.676318
0.674063 0.683751 0.682051
0.679648 0.689452 0.688057
0.689136 0.699093 0.698231
0.705039 0.715201 0.715188
0.721758 0.732044 0.732850
0.735228 0.745577 0.746975
0.746725 0.757102 0.758984
0.759617 0.769979 0.772335
0.773680 0.783958 0.786789
0.788975 0.799098 0.802368
0.805342 0.815227 0.818866
0.822729 0.832254 0.836196
0.841208 0.850283 0.854403
0.862805 0.871167 0.875358
0.884961 0.892434 0.896516
0.907975 0.914342 0.918055
0.639344 0.648291 0.644497
0.640785 0.649744 0.646044
0.642335 0.651323 0.647730
0.644270 0.653321 0.649856
0.646514 0.655614 0.652285
0.648944 0.658101 0.654922
0.651732 0.660953 0.657938
0.655010 0.664305 0.661493
0.658978 0.668360 0.665788
0.663571 0.673054 0.670756
0.668845 0.678421 0.676441
0.674690 0.684399 0.682749
0.680956 0.690761 0.689472
0.686473 0.696368 0.695378
0.691042 0.701006 0.700254
0.695410 0.705428 0.704912
0.699971 0.710044 0.709761
0.704780 0.714917 0.714873
0.709881 0.720090 0.720295
0.715376 0.725637 0.726104
0.724171 0.734488 0.735380
0.739719 0.750098 0.751677
0.757839 0.768209 0.770499
0.772553 0.782845 0.785640
0.784511 0.794702 0.797825
0.797478 0.807491 0.810955
0.811437 0.821218 0.824967
0.826269 0.835742 0.839725
0.841979 0.851041 0.855175
0.858499 0.867037 0.871215
0.875676 0.883543 0.887677
0.893928 0.900989 0.904961
0.914217 0.920251 0.923838
0.675494 0.685225 0.683600
0.676750 0.686490 0.684934
0.678139 0.687907 0.686430
0.679844 0.689641 0.688275
0.681847 0.691654 0.690406
0.683995 0.693854 0.692715
0.686409 0.696302 0.695295
0.689287 0.699216 0.698370
0.692729 0.702718 0.702038
0.696737 0.706800 0.706336
0.701387 0.711481 0.711279
0.706575 0.716723 0.716794
0.712145 0.722337 0.722687
0.717840 0.728085 0.728706
0.722702 0.733003 0.733831
0.726892 0.737219 0.738230
0.731176 0.741516 0.742717
0.735744 0.746098 0.747509
0.740629 0.751003 0.752622
0.745909 0.756292 0.758107
0.751607 0.761974 0.764010
0.759907 0.770260 0.772607
0.774885 0.785152 0.788019
0.793710 0.803790 0.807175
0.808677 0.818501 0.822189
0.820497 0.830068 0.833966
0.833084 0.842369 0.846421
0.846442 0.855355 0.859514
0.860630 0.869090 0.873266
0.875607 0.883483 0.887616
0.891194 0.898383 0.902366
0.907271 0.913659 0.917396
0.923731 0.929221 0.932552
0.711491 0.721718 0.721991
0.712511 0.722708 0.723050
0.713586 0.723801 0.724192
0.714959 0.725203 0.725643
0.716655 0.726884 0.727418
0.718488 0.728749 0.729363
0.720619 0.730902 0.731629
0.723178 0.733473 0.734317
0.726262 0.736574 0.737551
0.729889 0.740235 0.741372
0.734088 0.744444 0.745783
0.738773 0.749136 0.750677
0.743816 0.754189 0.755927
0.749198 0.759573 0.761532
0.754379 0.764759 0.766908
0.758778 0.769141 0.771441
0.762866 0.773200 0.775643
0.767235 0.777544 0.780152
0.771950 0.782233 0.784997
0.776999 0.787258 0.790155
0.782365 0.792583 0.795643
0.788063 0.798207 0.801431
0.795542 0.805574 0.808999
0.808966 0.818791 0.822498
0.827550 0.836985 0.840994
0.842067 0.851111 0.855255
0.853492 0.862181 0.866374
0.865636 0.873883 0.878074
0.878514 0.886264 0.890387
0.892111 0.899260 0.903252
0.906289 0.912752 0.916482
0.920924 0.926585 0.929995
0.935949 0.940703 0.943671
0.747812 0.758181 0.760086
0.748484 0.758852 0.760777
0.749145 0.759512 0.761457
0.750102 0.760479 0.762454
0.751366 0.761745 0.763767
0.752875 0.763246 0.765327
0.754740 0.765101 0.767276
0.757036 0.767412 0.769653
0.759847 0.770220 0.772552
0.763179 0.773543 0.775997
0.767035 0.777354 0.779958
0.771263 0.781570 0.784299
0.775802 0.786088 0.788952
0.780620 0.790843 0.793863
0.785684 0.795858 0.799031
0.790197 0.800321 0.803605
0.794037 0.804093 0.807466
0.797880 0.807876 0.811355
0.802004 0.811943 0.815517
0.806397 0.816276 0.819925
0.811027 0.820827 0.824559
0.815905 0.825584 0.829409
0.820968 0.830545 0.834443
0.827128 0.836580 0.840559
0.838283 0.847437 0.851548
0.855816 0.864448 0.868655
0.869599 0.877717 0.881898
0.880944 0.888577 0.892689
0.892780 0.899898 0.903873
0.905265 0.911773 0.915543
0.918314 0.924127 0.927588
0.931801 0.936821 0.939925
0.945678 0.949811 0.952453
0.781481 0.791663 0.794719
0.782072 0.792288 0.795353
0.782701 0.792918 0.795983
0.783537 0.793718 0.796804
0.784578 0.794756 0.797870
0.785857 0.796009 0.799171
0.787413 0.797542 0.800748
0.789295 0.799414 0.802669
0.791625 0.801712 0.805024
0.794397 0.804452 0.807834
0.797612 0.807617 0.811085
0.801178 0.811133 0.814686
0.805047 0.814953 0.818580
0.809189 0.819002 0.822715
0.813539 0.823271 0.827069
0.817927 0.827586 0.831449
0.821783 0.831354 0.835267
0.825228 0.834705 0.838676
0.828854 0.838238 0.842263
0.832747 0.842039 0.846100
0.836902 0.846074 0.850173
0.841265 0.850306 0.854435
0.845780 0.854709 0.858846
0.850416 0.859198 0.863370
0.855302 0.863945 0.868132
0.863615 0.871964 0.876154
0.880755 0.888428 0.892539
0.894214 0.901267 0.905216
0.905576 0.912082 0.915848
0.917086 0.922963 0.926469
0.929143 0.934315 0.937492
0.941616 0.946015 0.948826
0.954494 0.958015 0.960323
0.814206 0.823949 0.827749
0.814775 0.824496 0.828317
0.815266 0.824979 0.828808
0.815906 0.825577 0.829400
0.816683 0.826343 0.830192
0.817654 0.827294 0.831159
0.818831 0.828462 0.832336
0.820294 0.829893 0.833786
0.822097 0.831648 0.835586
0.824267 0.833771 0.837744
0.826777 0.836226 0.840225
0.829642 0.839007 0.843042
0.832794 0.842097 0.846162
0.836184 0.845397 0.849489
0.839743 0.848841 0.852968
0.843462 0.852458 0.856613
0.847047 0.855943 0.860121
0.850217 0.859003 0.863192
0.853307 0.861987 0.866169
0.856703 0.865276 0.869458
0.860388 0.868816 0.873018
0.864270 0.872557 0.876758
0.868260 0.876422 0.880599
0.872317 0.880311 0.884468
0.876356 0.884186 0.888317
0.880595 0.888251 0.892358
0.887740 0.895096 0.899114
0.903844 0.910434 0.914227
0.917280 0.923155 0.926660
0.928487 0.933709 0.936890
0.939546 0.944082 0.946932
0.951048 0.954821 0.957269
0.962859 0.965789 0.967735
0.842194 0.851224 0.855357
0.842664 0.851687 0.855827
0.843071 0.852072 0.856234
0.843587 0.852579 0.856721
0.844216 0.853182 0.857342
0.845026 0.853988 0.858132
0.846060 0.854992 0.859151
0.847341 0.856223 0.860381
0.848901 0.857744 0.861923
0.850804 0.859576 0.863776
0.853012 0.861709 0.865914
0.855537 0.864140 0.868340
0.858326 0.866825 0.871023
0.861289 0.869680 0.873889
0.864401 0.872690 0.876888
0.867660 0.875841 0.880023
0.871101 0.879149 0.883324
0.874301 0.882213 0.886378
0.877135 0.884936 0.889070
0.880109 0.887783 0.891881
0.883324 0.890847 0.894923
0.886696 0.894088 0.898131
0.890210 0.897447 0.901451
0.893798 0.900867 0.904817
0.897426 0.904307 0.908208
0.901048 0.907766 0.911601
0.904714 0.911240 0.915011
0.910306 0.916539 0.920205
0.925476 0.930858 0.934168
0.938649 0.943246 0.946124
0.949508 0.953379 0.955896
0.960062 0.963212 0.965283
0.970803 0.973162 0.974737
0.868276 0.876444 0.880596
0.868609 0.876753 0.880929
0.868872 0.877009 0.881187
0.869238 0.877357 0.881535
0.869728 0.877819 0.881991
0.870379 0.878456 0.882633
0.871254 0.879285 0.883458
0.872373 0.880365 0.884513
0.873766 0.881700 0.885859
0.875460 0.883330 0.887474
0.877440 0.885207 0.889334
0.879687 0.887369 0.891472
0.882161 0.889726 0.893816
0.884799 0.892246 0.896313
0.887533 0.894870 0.898901
0.890366 0.897582 0.901581
0.893344 0.900424 0.904388
0.896405 0.903337 0.907252
0.899236 0.906029 0.909895
0.901862 0.908522 0.912343
0.904660 0.911187 0.914946
0.907629 0.914012 0.917716
0.910721 0.916930 0.920590
0.913885 0.919916 0.923503
0.917107 0.922961 0.926457
0.920332 0.926014 0.929424
0.923581 0.929100 0.932422
