ml_luts/bw3__lut3d_33.cube
TITLE "BW3"
DOMAIN_MIN 0.000000 0.000000 0.000000
DOMAIN_MAX 1.000000 1.000000 1.000000
LUT_3D_SIZE 9
0.000000 0.000000 0.000000
0.055505 0.053773 0.044938
0.102006 0.100100 0.090135
0.173594 0.170863 0.155364
0.274891 0.272465 0.252964
0.395140 0.395495 0.377360
0.540513 0.546304 0.536004
0.696293 0.706347 0.705890
0.847349 0.856229 0.860441
0.082509 0.080995 0.072690
0.092889 0.090925 0.081896
0.117615 0.115531 0.104087
0.187403 0.184600 0.168302
0.285271 0.282960 0.263315
0.401474 0.402028 0.384121
0.541867 0.547681 0.537496
0.697218 0.707263 0.706852
0.846891 0.855802 0.859983
0.189227 0.186465 0.169962
0.199533 0.196659 0.179681
0.225080 0.222233 0.204118
0.258374 0.255760 0.236554
0.331071 0.329652 0.309991
0.439689 0.441619 0.425380
0.578865 0.585990 0.578275
0.723018 0.733339 0.734183
0.860212 0.868688 0.872900
0.342710 0.341588 0.322103
0.349613 0.348673 0.329345
0.373956 0.373693 0.354905
0.409647 0.410533 0.392954
0.464359 0.467231 0.452300
0.511724 0.516401 0.504253
0.628141 0.636774 0.632307
0.753891 0.764265 0.766409
0.876368 0.884218 0.888349
0.514114 0.518875 0.506882
0.519278 0.524246 0.512606
0.538583 0.544285 0.533894
0.568976 0.575772 0.567407
0.596307 0.604013 0.597436
0.651881 0.661106 0.658119
0.702991 0.713104 0.712981
0.790646 0.800767 0.804082
0.896940 0.903868 0.907790
0.675494 0.685225 0.683600
0.681847 0.691654 0.690406
0.692729 0.702718 0.702038
0.712145 0.722337 0.722687
0.731176 0.741516 0.742717
0.751607 0.761974 0.764010
0.808677 0.818501 0.822189
0.860630 0.869090 0.873266
0.923731 0.929221 0.932552
0.814206 0.823949 0.827749
0.816683 0.826343 0.830192
0.822097 0.831648 0.835586
0.832794 0.842097 0.846162
0.847047 0.855943 0.860121
0.860388 0.868816 0.873018
0.876356 0.884186 0.888317
0.917280 0.923155 0.926660
0.962859 0.965789 0.967735
0.915881 0.921832 0.925364
0.916739 0.922629 0.926132
0.919944 0.925667 0.929091
0.926316 0.931644 0.934915
0.934419 0.939278 0.942294
0.944062 0.948299 0.950999
0.953488 0.957077 0.959414
0.963643 0.966516 0.968435
0.989456 0.990353 0.990955
0.985046 0.986328 0.987182
0.985363 0.986584 0.987438
0.986824 0.987915 0.988678
0.989841 0.990700 0.991291
0.993500 0.994064 0.994430
0.997799 0.997978 0.998120
1.000000 1.000000 1.000000
1.000000 1.000000 1.000000
1.000000 1.000000 1.000000
0.032723 0.031521 0.025235
0.050086 0.048474 0.038699
0.108523 0.106385 0.095871
0.188944 0.186071 0.169722
0.286164 0.283894 0.264227
0.400018 0.400553 0.382572
0.537774 0.543438 0.532994
0.692291 0.702272 0.701593
0.841520 0.850599 0.854753
0.074033 0.072650 0.064989
0.087883 0.086289 0.077408
0.130713 0.128236 0.115816
0.201890 0.199008 0.181939
0.296672 0.294543 0.274804
0.407687 0.408524 0.390825
0.541396 0.547197 0.536997
0.693171 0.703177 0.702569
0.841700 0.850760 0.854913
0.180742 0.177860 0.161979
0.190481 0.187678 0.171161
0.217509 0.214591 0.196803
0.256551 0.253876 0.234727
0.338494 0.337249 0.317656
0.441292 0.443299 0.427111
0.571834 0.578747 0.570558
0.714912 0.725170 0.725643
0.854475 0.863158 0.867343
0.335200 0.333865 0.314297
0.342014 0.340907 0.321398
0.367550 0.367110 0.348135
0.400098 0.400649 0.382694
0.449469 0.451769 0.436030
0.501339 0.505608 0.492811
0.619013 0.627405 0.622346
0.746273 0.756658 0.758522
0.871885 0.879936 0.884117
0.508627 0.513189 0.500880
0.513305 0.518046 0.506020
0.531228 0.536644 0.525782
0.560036 0.566509 0.557532
0.585896 0.593264 0.586009
0.642395 0.651405 0.647819
0.695524 0.705534 0.705030
0.787197 0.797362 0.800578
0.894221 0.901264 0.905217
0.667734 0.677303 0.675234
0.670851 0.680472 0.678584
0.681373 0.691168 0.689875
0.700859 0.710950 0.710691
0.721721 0.731998 0.732783
0.743849 0.754211 0.755931
0.802356 0.812288 0.815845
0.856629 0.865194 0.869383
0.921521 0.927142 0.930527
0.808763 0.818583 0.822265
0.809983 0.819788 0.823516
0.816105 0.825795 0.829641
0.828486 0.837873 0.841889
0.844273 0.853254 0.857408
0.858558 0.867060 0.871247
0.874456 0.882378 0.886529
0.915947 0.921893 0.925432
0.961337 0.964370 0.966411
0.913579 0.919655 0.923245
0.914718 0.920730 0.924297
0.918185 0.924006 0.927467
0.925013 0.930419 0.933726
0.933593 0.938505 0.941545
0.943080 0.947384 0.950117
0.952166 0.955840 0.958230
0.962125 0.965108 0.967086
0.988561 0.989538 0.990190
0.983406 0.984779 0.985718
0.984235 0.985551 0.986441
0.986751 0.987868 0.988630
0.989963 0.990819 0.991400
0.993736 0.994261 0.994644
0.997957 0.998140 0.998259
1.000000 1.000000 1.000000
1.000000 1.000000 1.000000
1.000000 1.000000 1.000000
0.073297 0.071938 0.064614
0.077285 0.075878 0.068022
0.101467 0.099397 0.089463
0.180253 0.177462 0.161592
0.294953 0.292824 0.273076
0.422687 0.423988 0.406943
0.557980 0.564388 0.555286
0.703369 0.713492 0.713407
0.846479 0.855406 0.859586
0.101776 0.099848 0.089820
0.111516 0.109446 0.098627
0.128473 0.126217 0.113961
0.205100 0.202205 0.184979
0.314188 0.312412 0.292641
0.432248 0.433922 0.417294
0.562700 0.569299 0.560497
0.706426 0.716579 0.716635
0.848256 0.857122 0.861326
0.160508 0.157807 0.143258
0.173197 0.170469 0.155025
0.207313 0.204467 0.187067
0.273908 0.271444 0.251932
0.363651 0.363083 0.343964
0.463336 0.466155 0.451130
0.589175 0.596673 0.589635
0.724301 0.734633 0.735549
0.858232 0.866773 0.870991
0.322465 0.320836 0.301183
0.329864 0.328457 0.308824
0.355561 0.354785 0.335552
0.394726 0.395103 0.376944
0.441736 0.443753 0.427633
0.518566 0.523505 0.511801
0.633985 0.642792 0.638684
0.755662 0.766047 0.768256
0.875841 0.883704 0.887865
0.498428 0.502602 0.489647
0.503849 0.508202 0.495594
0.522342 0.527419 0.515980
0.555518 0.561836 0.552571
0.583889 0.591176 0.583795
0.637712 0.646591 0.642708
0.693734 0.703743 0.703121
0.793897 0.803978 0.807353
0.897356 0.904257 0.908164
0.663064 0.672551 0.670209
0.666628 0.676187 0.674055
0.677575 0.687315 0.685816
0.697435 0.707481 0.707062
0.720511 0.730801 0.731526
0.742785 0.753158 0.754853
0.800460 0.810426 0.813952
0.855526 0.864138 0.868320
0.922168 0.927751 0.931121
0.805770 0.815656 0.819285
0.807684 0.817543 0.821224
0.813878 0.823604 0.827390
0.825789 0.835244 0.839215
0.842002 0.851032 0.855178
0.857070 0.865635 0.869830
0.873708 0.881651 0.885789
0.916615 0.922503 0.926027
0.962089 0.965072 0.967054
0.912268 0.918409 0.922024
0.913039 0.919124 0.922713
0.916313 0.922226 0.925730
0.922940 0.928467 0.931830
0.931789 0.936807 0.939913
0.942346 0.946689 0.949451
0.952015 0.955715 0.958118
0.962509 0.965486 0.967436
0.989347 0.990258 0.990872
0.983887 0.985229 0.986152
0.984257 0.985572 0.986473
0.985952 0.987125 0.987942
0.989129 0.990044 0.990670
0.993153 0.993732 0.994137
0.997586 0.997786 0.997930
1.000000 1.000000 1.000000
1.000000 1.000000 1.000000
1.000000 1.000000 1.000000
0.110037 0.108110 0.097390
0.115481 0.113426 0.102128
0.130721 0.128392 0.115895
0.172205 0.169466 0.154089
0.271532 0.269064 0.249620
0.403251 0.403891 0.386026
0.551482 0.557646 0.548103
0.705823 0.715993 0.716030
0.847585 0.856477 0.860677
0.147571 0.144966 0.131299
0.150782 0.148234 0.134289
0.160766 0.158098 0.143468
0.196009 0.193121 0.176323
0.292501 0.290312 0.270615
0.418984 0.420187 0.402984
0.563445 0.570037 0.561290
0.712396 0.722636 0.722967
0.850245 0.859037 0.863247
0.195287 0.192340 0.175610
0.208283 0.205442 0.188033
0.244210 0.241430 0.222652
0.268422 0.265895 0.246474
0.359509 0.358804 0.339634
0.472140 0.475271 0.460762
0.605654 0.613655 0.607714
0.734055 0.744440 0.745788
0.860831 0.869281 0.873492
0.292145 0.289923 0.270199
0.301835 0.299791 0.280043
0.334045 0.332693 0.313080
0.381549 0.381502 0.362889
0.451534 0.453897 0.438249
0.541218 0.547012 0.536783
0.648887 0.658051 0.654880
0.763921 0.774290 0.776787
0.878674 0.886421 0.890563
0.481212 0.484691 0.470739
0.486407 0.490100 0.476450
0.504579 0.508986 0.496406
0.537697 0.543366 0.532904
0.575890 0.582919 0.575007
0.624343 0.632860 0.628143
0.699733 0.709821 0.709537
0.801771 0.811743 0.815304
0.900372 0.907139 0.910986
0.651871 0.661086 0.658070
0.655600 0.664910 0.662116
0.666469 0.676007 0.673873
0.686476 0.696374 0.695362
0.713934 0.724166 0.724578
0.737303 0.747667 0.749118
0.794150 0.804197 0.807577
0.850114 0.858907 0.863082
0.924004 0.929494 0.932827
0.799430 0.809405 0.812909
0.801619 0.811562 0.815108
0.808503 0.818333 0.822033
0.821237 0.830806 0.834722
0.838447 0.847596 0.851688
0.855719 0.864336 0.868520
0.871909 0.879926 0.884097
0.914951 0.920953 0.924504
0.960575 0.963679 0.965730
0.909762 0.916038 0.919714
0.910748 0.916967 0.920604
0.914241 0.920268 0.923844
0.920899 0.926558 0.929953
0.930108 0.935220 0.938372
0.941299 0.945711 0.948511
0.951426 0.955173 0.957604
0.962134 0.965120 0.967094
0.989919 0.990771 0.991354
0.983246 0.984642 0.985580
0.983883 0.985229 0.986149
0.985416 0.986629 0.987460
0.988605 0.989567 0.990223
0.992639 0.993258 0.993690
0.997170 0.997414 0.997570
1.000000 1.000000 1.000000
1.000000 1.000000 1.000000
1.000000 1.000000 1.000000
0.169849 0.167086 0.151919
0.174884 0.172129 0.156510
0.188300 0.185485 0.169108
0.207822 0.204913 0.187568
0.267415 0.264859 0.245457
0.381028 0.380959 0.362316
0.526764 0.532025 0.520859
0.691662 0.701659 0.700936
0.843259 0.852292 0.856459
0.203453 0.200545 0.183435
0.206721 0.203814 0.186452
0.216146 0.213271 0.195513
0.231185 0.228353 0.209954
0.286681 0.284390 0.264709
0.396134 0.396556 0.378426
0.539566 0.545279 0.534956
0.698734 0.708813 0.708482
0.846023 0.854982 0.859163
0.269779 0.267250 0.247818
0.282922 0.280570 0.260952
0.296099 0.293979 0.274204
0.308507 0.306592 0.286819
0.350193 0.349231 0.329824
0.447566 0.449786 0.433942
0.584453 0.591751 0.584418
0.725116 0.735432 0.736383
0.858698 0.867216 0.871443
0.334060 0.332710 0.313105
0.342920 0.341801 0.322281
0.373238 0.372918 0.354060
0.422080 0.423370 0.406306
0.448220 0.450459 0.434653
0.536043 0.541653 0.531093
0.651765 0.661002 0.657992
0.768386 0.778713 0.781376
0.879812 0.887512 0.891632
0.441863 0.443877 0.427733
0.448892 0.451150 0.435359
0.471862 0.475006 0.460473
0.511475 0.516138 0.503996
0.560311 0.566796 0.557839
0.628293 0.636964 0.632501
0.712476 0.722705 0.723064
0.807905 0.817765 0.821462
0.902197 0.908858 0.912688
0.632782 0.641508 0.637310
0.637749 0.646628 0.642736
0.650778 0.659973 0.656907
0.672039 0.681668 0.679859
0.700344 0.710432 0.710156
0.731773 0.742114 0.743353
0.781764 0.791966 0.795000
0.848434 0.857292 0.861473
0.926768 0.932071 0.935332
0.790635 0.800740 0.804013
0.792748 0.802836 0.806161
0.799454 0.809430 0.812943
0.812097 0.821865 0.825617
0.830012 0.839376 0.843403
0.851700 0.860438 0.864616
0.869312 0.877418 0.881582
0.912189 0.918310 0.921933
0.957584 0.960899 0.963077
0.904646 0.911202 0.914952
0.905483 0.911981 0.915731
0.909119 0.915428 0.919110
0.916223 0.922136 0.925660
0.926105 0.931458 0.934720
0.938376 0.942967 0.945864
0.950228 0.954063 0.956536
0.961045 0.964125 0.966144
0.990152 0.990982 0.991553
0.981781 0.983292 0.984329
0.982461 0.983915 0.984924
0.984253 0.985573 0.986469
0.987457 0.988508 0.989248
0.991737 0.992447 0.992920
0.996616 0.996910 0.997101
1.000000 1.000000 1.000000
1.000000 1.000000 1.000000
1.000000 1.000000 1.000000
0.249729 0.247013 0.228046
0.253686 0.250970 0.231932
0.264489 0.261925 0.242585
0.281667 0.279289 0.259683
0.308387 0.306483 0.286686
0.376658 0.376448 0.357678
0.505544 0.509970 0.497455
0.667610 0.677157 0.675094
0.831472 0.840814 0.844892
0.278056 0.275644 0.256027
0.280554 0.278172 0.258574
0.288864 0.286606 0.266896
0.303558 0.301563 0.281753
0.325979 0.324403 0.304683
0.391056 0.391307 0.372999
0.516529 0.521387 0.509577
0.673731 0.683437 0.681711
0.833845 0.843136 0.847225
0.354725 0.353911 0.334616
0.356640 0.355859 0.336611
0.362949 0.362358 0.343234
0.373526 0.373253 0.354376
0.388513 0.388687 0.370290
0.442348 0.444368 0.428241
0.560682 0.567184 0.558260
0.703596 0.713728 0.713642
0.849182 0.858020 0.862214
0.399605 0.400155 0.382146
0.409449 0.410307 0.392697
0.447392 0.449615 0.433745
0.474451 0.477670 0.463298
0.484984 0.488640 0.474875
0.525490 0.530680 0.519429
0.627607 0.636247 0.631721
0.749141 0.759532 0.761499
0.872384 0.880391 0.884569
0.491599 0.495487 0.482121
0.497364 0.501492 0.488453
0.517487 0.522378 0.510623
0.552167 0.558369 0.548876
0.597070 0.604795 0.598290
0.620391 0.628835 0.623854
0.701385 0.711485 0.711276
0.802588 0.812539 0.816114
0.899907 0.906685 0.910557
0.602491 0.610391 0.604251
0.607162 0.615202 0.609371
0.622017 0.630508 0.625643
0.647961 0.657123 0.653890
0.681774 0.691615 0.690352
0.722940 0.733242 0.734090
0.783182 0.793388 0.796500
0.855098 0.863721 0.867931
0.928756 0.933954 0.937139
0.769964 0.780246 0.782909
0.772917 0.783175 0.785934
0.782593 0.792783 0.795833
0.799482 0.809467 0.812956
0.818818 0.828446 0.832317
0.842660 0.851688 0.855808
0.866234 0.874458 0.878647
0.904774 0.911305 0.915068
0.955581 0.959033 0.961298
0.898769 0.905574 0.909458
0.899905 0.906690 0.910536
0.903720 0.910292 0.914087
0.910929 0.917122 0.920778
0.920843 0.926501 0.929908
0.933681 0.938576 0.941620
0.948429 0.952368 0.954903
0.959878 0.963047 0.965106
0.990031 0.990857 0.991451
0.980411 0.982033 0.983143
0.980849 0.982451 0.983514
0.982631 0.984062 0.985061
0.985840 0.987026 0.987839
0.990393 0.991209 0.991766
0.995836 0.996186 0.996438
1.000000 1.000000 1.000000
1.000000 1.000000 1.000000
1.000000 1.000000 1.000000
0.361288 0.360624 0.341436
0.363748 0.363153 0.344083
0.372517 0.372206 0.353319
0.385819 0.385905 0.367426
0.401457 0.402010 0.384115
0.432711 0.434392 0.417795
0.505903 0.510347 0.497873
0.656197 0.665545 0.662819
0.816693 0.826383 0.830251
0.383801 0.383835 0.365283
0.386069 0.386158 0.367680
0.393047 0.393369 0.375147
0.403975 0.404623 0.386807
0.417626 0.418737 0.401472
0.445755 0.447917 0.431951
0.516839 0.521716 0.509928
0.662953 0.672448 0.670126
0.820102 0.829732 0.833649
0.448108 0.450336 0.434514
0.449371 0.451676 0.435899
0.453552 0.455970 0.440440
0.461461 0.464206 0.449100
0.472148 0.475295 0.460761
0.492968 0.496912 0.483614
0.559108 0.565568 0.556521
0.689366 0.699312 0.698476
0.834376 0.843656 0.847744
0.513822 0.518575 0.506585
0.523563 0.528696 0.517305
0.544972 0.550902 0.540935
0.551374 0.557551 0.547996
0.559147 0.565579 0.556550
0.570415 0.577261 0.568992
0.621893 0.630394 0.625512
0.730694 0.741042 0.742252
0.857973 0.866540 0.870748
0.568990 0.575772 0.567395
0.573768 0.580729 0.572686
0.590880 0.598392 0.591484
0.629603 0.638286 0.633906
0.655198 0.664498 0.661704
0.660961 0.670405 0.667950
0.693978 0.703998 0.703413
0.784320 0.794523 0.797655
0.889162 0.896452 0.900488
0.668256 0.677843 0.675827
0.671151 0.680795 0.678946
0.681809 0.691656 0.690392
0.698675 0.708756 0.708421
0.721555 0.731846 0.732643
0.756000 0.766372 0.768600
0.775434 0.785703 0.788585
0.845672 0.854600 0.858768
0.924614 0.930057 0.933374
0.756239 0.766608 0.768856
0.758572 0.768950 0.771256
0.766650 0.776997 0.779588
0.780165 0.790399 0.793423
0.799989 0.809974 0.813505
0.826729 0.836181 0.840161
0.858644 0.867140 0.871337
0.903485 0.910078 0.913876
0.958232 0.961492 0.963636
0.883171 0.890720 0.894790
0.884884 0.892340 0.896389
0.890450 0.897678 0.901664
0.899940 0.906706 0.910556
0.912231 0.918365 0.921984
0.926376 0.931704 0.934972
0.943027 0.947316 0.950059
0.958628 0.961871 0.963998
0.988056 0.989041 0.989734
0.978058 0.979850 0.981079
0.978698 0.980455 0.981635
0.980675 0.982290 0.983358
0.983919 0.985265 0.986185
0.988598 0.989547 0.990211
0.994371 0.994854 0.995188
0.999943 0.999948 0.999948
1.000000 1.000000 1.000000
1.000000 1.000000 1.000000
0.530014 0.535362 0.524391
0.530752 0.536158 0.525241
0.535543 0.541111 0.530527
0.542830 0.548680 0.538563
0.552096 0.558272 0.548787
0.562201 0.568754 0.559931
0.602284 0.610174 0.604025
0.669180 0.678793 0.676826
0.818158 0.827829 0.831708
0.546727 0.552668 0.542820
0.547663 0.553671 0.543856
0.552173 0.558366 0.548851
0.558942 0.565367 0.556329
0.567898 0.574642 0.566196
0.577937 0.585034 0.577265
0.614725 0.622996 0.617662
0.678807 0.688597 0.687177
0.823989 0.833541 0.837512
0.595844 0.603536 0.596941
0.596945 0.604659 0.598161
0.600339 0.608162 0.601873
0.604750 0.612711 0.606710
0.611089 0.619241 0.613653
0.617796 0.626152 0.620999
0.644038 0.653097 0.649622
0.701308 0.711410 0.711205
0.836368 0.845582 0.849711
0.663780 0.673285 0.670997
0.665631 0.675165 0.672993
0.667484 0.677049 0.674985
0.669257 0.678859 0.676909
0.672178 0.681844 0.680035
0.676274 0.686008 0.684465
0.690661 0.700641 0.699876
0.739696 0.750075 0.751665
0.857479 0.866033 0.870245
0.692968 0.702970 0.702335
0.697941 0.708022 0.707644
0.714502 0.724754 0.725208
0.737157 0.747544 0.749019
0.741881 0.752266 0.753940
0.744424 0.754795 0.756572
0.749308 0.759707 0.761674
0.790438 0.800566 0.803851
0.886229 0.893641 0.897700
0.762057 0.772404 0.774838
0.762945 0.773290 0.775753
0.767859 0.778185 0.780809
0.774999 0.785275 0.788141
0.797689 0.807700 0.811189
0.817795 0.827447 0.831320
0.820523 0.830128 0.834043
0.845943 0.854868 0.859032
0.918400 0.924212 0.927689
0.836423 0.845641 0.849732
0.837388 0.846558 0.850663
0.840915 0.849997 0.854121
0.846765 0.855665 0.859832
0.855824 0.864422 0.868628
0.868125 0.876293 0.880481
0.889242 0.896526 0.900538
0.901774 0.908471 0.912293
0.954300 0.957853 0.960153
0.892963 0.900046 0.904013
0.893831 0.900907 0.904850
0.896863 0.903774 0.907683
0.902009 0.908684 0.912514
0.909864 0.916128 0.919794
0.921017 0.926659 0.930072
0.936536 0.941261 0.944206
0.957277 0.960601 0.962791
0.986792 0.987915 0.988658
0.971134 0.973480 0.975024
0.971904 0.974194 0.975712
0.974630 0.976694 0.978095
0.979178 0.980893 0.982047
0.985643 0.986829 0.987657
0.992855 0.993457 0.993873
0.998044 0.998227 0.998322
0.999960 0.999967 0.999967
1.000000 1.000000 1.000000
0.770901 0.781247 0.783993
0.771142 0.781461 0.784234
0.772404 0.782719 0.785550
0.773613 0.783928 0.786786
0.775402 0.785702 0.788602
0.777386 0.787671 0.790631
0.777005 0.787296 0.790242
0.807130 0.816999 0.820710
0.845762 0.854734 0.858915
0.778832 0.789089 0.792100
0.779182 0.789463 0.792476
0.780108 0.790362 0.793405
0.780060 0.790324 0.793362
0.781861 0.792105 0.795192
0.783830 0.794034 0.797185
0.782540 0.792790 0.795892
0.810971 0.820778 0.824548
0.848646 0.857503 0.861711
0.802762 0.812711 0.816328
0.802276 0.812231 0.815844
0.803144 0.813092 0.816714
0.804418 0.814344 0.818009
0.805330 0.815244 0.818906
0.803715 0.813657 0.817300
0.800610 0.810607 0.814170
0.823112 0.832658 0.836626
0.857939 0.866491 0.870703
0.834355 0.843621 0.847719
0.834158 0.843448 0.847548
0.834346 0.843632 0.847713
0.833829 0.843132 0.847211
0.832480 0.841798 0.845869
0.830254 0.839635 0.843690
0.826771 0.836233 0.840264
0.840827 0.849918 0.854064
0.871924 0.879957 0.884150
0.855451 0.864103 0.868315
0.857235 0.865787 0.870012
0.862585 0.870977 0.875185
0.864553 0.872858 0.877066
0.863165 0.871511 0.875738
0.861053 0.869478 0.873699
0.857939 0.866476 0.870699
0.864008 0.872348 0.876557
0.891539 0.898710 0.902709
0.873148 0.881121 0.885279
0.873138 0.881123 0.885299
0.875931 0.883803 0.887951
0.882823 0.890389 0.894498
0.894257 0.901312 0.905268
0.895643 0.902620 0.906560
0.894176 0.901238 0.905193
0.894181 0.901250 0.905202
0.917476 0.923343 0.926848
0.916388 0.922316 0.925834
0.916448 0.922354 0.925864
0.916445 0.922351 0.925866
0.916252 0.922154 0.925704
0.915839 0.921779 0.925311
0.923244 0.928762 0.932121
0.933204 0.938147 0.941190
0.933479 0.938399 0.941451
0.947623 0.951629 0.954193
0.949076 0.952980 0.955508
0.949161 0.953067 0.955572
0.949682 0.953538 0.956034
0.950691 0.954487 0.956933
0.952379 0.956064 0.958451
0.955208 0.958684 0.960979
0.960188 0.963330 0.965397
0.973354 0.975501 0.976972
0.979958 0.981605 0.982742
0.973266 0.975433 0.976898
0.973465 0.975632 0.977069
0.974212 0.976318 0.977730
0.975677 0.977653 0.978996
0.977996 0.979797 0.981033
0.981491 0.983024 0.984069
0.986625 0.987755 0.988525
0.994038 0.994534 0.994885
1.000000 1.000000 1.000000
