ml_luts/bw4__lut3d_33.cube
TITLE "BW4"
DOMAIN_MIN 0.000000 0.000000 0.000000
DOMAIN_MAX 1.000000 1.000000 1.000000
LUT_3D_SIZE 5
0.173526 0.173526 0.173526
0.181925 0.181925 0.181925
0.265446 0.265446 0.265446
0.512276 0.512276 0.512276
0.715846 0.715846 0.715846
0.195430 0.195430 0.195430
0.217365 0.217365 0.217365
0.336629 0.336629 0.336629
0.553819 0.553819 0.553819
0.730747 0.730747 0.730747
0.405142 0.405142 0.405142
0.433909 0.433909 0.433909
0.526146 0.526146 0.526146
0.646353 0.646353 0.646353
0.775494 0.775494 0.775494
0.653925 0.653925 0.653925
0.661986 0.661986 0.661986
0.688499 0.688499 0.688499
0.734260 0.734260 0.734260
0.838262 0.838262 0.838262
0.830137 0.830137 0.830137
0.834493 0.834493 0.834493
0.850690 0.850690 0.850690
0.879812 0.879812 0.879812
0.917388 0.917388 0.917388
0.175403 0.175403 0.175403
0.185321 0.185321 0.185321
0.290997 0.290997 0.290997
0.528233 0.528233 0.528233
0.717105 0.717105 0.717105
0.194655 0.194655 0.194655
0.227746 0.227746 0.227746
0.358980 0.358980 0.358980
0.562920 0.562920 0.562920
0.731251 0.731251 0.731251
0.413779 0.413779 0.413779
0.452369 0.452369 0.452369
0.534550 0.534550 0.534550
0.649289 0.649289 0.649289
0.776330 0.776330 0.776330
0.656746 0.656746 0.656746
0.665125 0.665125 0.665125
0.691088 0.691088 0.691088
0.735947 0.735947 0.735947
0.839826 0.839826 0.839826
0.830549 0.830549 0.830549
0.835120 0.835120 0.835120
0.851583 0.851583 0.851583
0.880326 0.880326 0.880326
0.917830 0.917830 0.917830
0.189608 0.189608 0.189608
0.205550 0.205550 0.205550
0.301816 0.301816 0.301816
0.547791 0.547791 0.547791
0.722759 0.722759 0.722759
0.232746 0.232746 0.232746
0.270329 0.270329 0.270329
0.377043 0.377043 0.377043
0.580890 0.580890 0.580890
0.733482 0.733482 0.733482
0.386206 0.386206 0.386206
0.440267 0.440267 0.440267
0.556600 0.556600 0.556600
0.656321 0.656321 0.656321
0.776249 0.776249 0.776249
0.656844 0.656844 0.656844
0.668685 0.668685 0.668685
0.700452 0.700452 0.700452
0.743276 0.743276 0.743276
0.843694 0.843694 0.843694
0.831205 0.831205 0.831205
0.836778 0.836778 0.836778
0.853330 0.853330 0.853330
0.882013 0.882013 0.882013
0.920226 0.920226 0.920226
0.258457 0.258457 0.258457
0.287661 0.287661 0.287661
0.391230 0.391230 0.391230
0.558303 0.558303 0.558303
0.740681 0.740681 0.740681
0.345188 0.345188 0.345188
0.372375 0.372375 0.372375
0.464503 0.464503 0.464503
0.590803 0.590803 0.590803
0.750818 0.750818 0.750818
0.468574 0.468574 0.468574
0.507596 0.507596 0.507596
0.600517 0.600517 0.600517
0.664961 0.664961 0.664961
0.783562 0.783562 0.783562
0.638716 0.638716 0.638716
0.653047 0.653047 0.653047
0.694903 0.694903 0.694903
0.757532 0.757532 0.757532
0.844097 0.844097 0.844097
0.832021 0.832021 0.832021
0.837688 0.837688 0.837688
0.855478 0.855478 0.855478
0.886738 0.886738 0.886738
0.925849 0.925849 0.925849
0.546502 0.546502 0.546502
0.567399 0.567399 0.567399
0.623498 0.623498 0.623498
0.692012 0.692012 0.692012
0.772702 0.772702 0.772702
0.589365 0.589365 0.589365
0.604347 0.604347 0.604347
0.649653 0.649653 0.649653
0.709251 0.709251 0.709251
0.784886 0.784886 0.784886
0.637705 0.637705 0.637705
0.661219 0.661219 0.661219
0.700969 0.700969 0.700969
0.746861 0.746861 0.746861
0.812253 0.812253 0.812253
0.728512 0.728512 0.728512
0.734258 0.734258 0.734258
0.751804 0.751804 0.751804
0.808519 0.808519 0.808519
0.867270 0.867270 0.867270
0.840177 0.840177 0.840177
0.844594 0.844594 0.844594
0.860837 0.860837 0.860837
0.892859 0.892859 0.892859
0.935271 0.935271 0.935271
