ml_luts/bw4__lut3d_33.cube
TITLE "BW4"
DOMAIN_MIN 0.000000 0.000000 0.000000
DOMAIN_MAX 1.000000 1.000000 1.000000
LUT_3D_SIZE 33
0.173526 0.173526 0.173526
0.173526 0.173526 0.173526
0.173611 0.173611 0.173611
0.174143 0.174143 0.174143
0.174891 0.174891 0.174891
0.175840 0.175840 0.175840
0.177337 0.177337 0.177337
0.179291 0.179291 0.179291
0.181925 0.181925 0.181925
0.185524 0.185524 0.185524
0.190362 0.190362 0.190362
0.196757 0.196757 0.196757
0.205116 0.205116 0.205116
0.215846 0.215846 0.215846
0.229351 0.229351 0.229351
0.245851 0.245851 0.245851
0.265446 0.265446 0.265446
0.288788 0.288788 0.288788
0.315278 0.315278 0.315278
0.343914 0.343914 0.343914
0.375112 0.375112 0.375112
0.408646 0.408646 0.408646
0.443963 0.443963 0.443963
0.479353 0.479353 0.479353
0.512276 0.512276 0.512276
0.542582 0.542582 0.542582
0.570833 0.570833 0.570833
0.597419 0.597419 0.597419
0.622518 0.622518 0.622518
0.646548 0.646548 0.646548
0.669938 0.669938 0.669938
0.692964 0.692964 0.692964
0.715846 0.715846 0.715846
0.173526 0.173526 0.173526
0.173611 0.173611 0.173611
0.173838 0.173838 0.173838
0.174353 0.174353 0.174353
0.175202 0.175202 0.175202
0.176240 0.176240 0.176240
0.177774 0.177774 0.177774
0.179780 0.179780 0.179780
0.182428 0.182428 0.182428
0.186090 0.186090 0.186090
0.191014 0.191014 0.191014
0.197533 0.197533 0.197533
0.205980 0.205980 0.205980
0.216785 0.216785 0.216785
0.230327 0.230327 0.230327
0.246922 0.246922 0.246922
0.266614 0.266614 0.266614
0.289833 0.289833 0.289833
0.316113 0.316113 0.316113
0.344586 0.344586 0.344586
0.375567 0.375567 0.375567
0.408900 0.408900 0.408900
0.444026 0.444026 0.444026
0.479285 0.479285 0.479285
0.512180 0.512180 0.512180
0.542463 0.542463 0.542463
0.570709 0.570709 0.570709
0.597266 0.597266 0.597266
0.622348 0.622348 0.622348
0.646430 0.646430 0.646430
0.669818 0.669818 0.669818
0.692816 0.692816 0.692816
0.715699 0.715699 0.715699
0.173954 0.173954 0.173954
0.174043 0.174043 0.174043
0.174168 0.174168 0.174168
0.174777 0.174777 0.174777
0.175615 0.175615 0.175615
0.176775 0.176775 0.176775
0.178309 0.178309 0.178309
0.180378 0.180378 0.180378
0.183110 0.183110 0.183110
0.186857 0.186857 0.186857
0.191926 0.191926 0.191926
0.198597 0.198597 0.198597
0.207203 0.207203 0.207203
0.218176 0.218176 0.218176
0.231885 0.231885 0.231885
0.248589 0.248589 0.248589
0.268468 0.268468 0.268468
0.291760 0.291760 0.291760
0.317880 0.317880 0.317880
0.346197 0.346197 0.346197
0.377048 0.377048 0.377048
0.410290 0.410290 0.410290
0.445253 0.445253 0.445253
0.480307 0.480307 0.480307
0.512992 0.512992 0.512992
0.543108 0.543108 0.543108
0.571203 0.571203 0.571203
0.597691 0.597691 0.597691
0.622758 0.622758 0.622758
0.646735 0.646735 0.646735
0.670070 0.670070 0.670070
0.693040 0.693040 0.693040
0.715923 0.715923 0.715923
0.174785 0.174785 0.174785
0.174900 0.174900 0.174900
0.175097 0.175097 0.175097
0.175617 0.175617 0.175617
0.176735 0.176735 0.176735
0.178083 0.178083 0.178083
0.179711 0.179711 0.179711
0.181864 0.181864 0.181864
0.184807 0.184807 0.184807
0.188800 0.188800 0.188800
0.194120 0.194120 0.194120
0.201097 0.201097 0.201097
0.210103 0.210103 0.210103
0.221451 0.221451 0.221451
0.235461 0.235461 0.235461
0.252469 0.252469 0.252469
0.272683 0.272683 0.272683
0.296054 0.296054 0.296054
0.321965 0.321965 0.321965
0.350047 0.350047 0.350047
0.380627 0.380627 0.380627
0.413569 0.413569 0.413569
0.448218 0.448218 0.448218
0.482905 0.482905 0.482905
0.515203 0.515203 0.515203
0.545112 0.545112 0.545112
0.573049 0.573049 0.573049
0.599326 0.599326 0.599326
0.624231 0.624231 0.624231
0.648040 0.648040 0.648040
0.671210 0.671210 0.671210
0.694017 0.694017 0.694017
0.716713 0.716713 0.716713
0.176230 0.176230 0.176230
0.176452 0.176452 0.176452
0.176760 0.176760 0.176760
0.177350 0.177350 0.177350
0.178480 0.178480 0.178480
0.180384 0.180384 0.180384
0.182253 0.182253 0.182253
0.184653 0.184653 0.184653
0.187835 0.187835 0.187835
0.192137 0.192137 0.192137
0.197865 0.197865 0.197865
0.205303 0.205303 0.205303
0.214774 0.214774 0.214774
0.226653 0.226653 0.226653
0.241251 0.241251 0.241251
0.258731 0.258731 0.258731
0.279421 0.279421 0.279421
0.303094 0.303094 0.303094
0.328951 0.328951 0.328951
0.356852 0.356852 0.356852
0.387133 0.387133 0.387133
0.419707 0.419707 0.419707
0.453863 0.453863 0.453863
0.487790 0.487790 0.487790
0.519333 0.519333 0.519333
0.548581 0.548581 0.548581
0.576066 0.576066 0.576066
0.601904 0.601904 0.601904
0.626383 0.626383 0.626383
0.649966 0.649966 0.649966
0.672890 0.672890 0.672890
0.695501 0.695501 0.695501
0.718048 0.718048 0.718048
0.178768 0.178768 0.178768
0.178980 0.178980 0.178980
0.179301 0.179301 0.179301
0.179973 0.179973 0.179973
0.181176 0.181176 0.181176
0.183058 0.183058 0.183058
0.186277 0.186277 0.186277
0.189142 0.189142 0.189142
0.192639 0.192639 0.192639
0.197344 0.197344 0.197344
0.203572 0.203572 0.203572
0.211647 0.211647 0.211647
0.221802 0.221802 0.221802
0.234374 0.234374 0.234374
0.249676 0.249676 0.249676
0.267761 0.267761 0.267761
0.288988 0.288988 0.288988
0.312923 0.312923 0.312923
0.338703 0.338703 0.338703
0.366450 0.366450 0.366450
0.396498 0.396498 0.396498
0.428756 0.428756 0.428756
0.464259 0.464259 0.464259
0.501204 0.501204 0.501204
0.530982 0.530982 0.530982
0.558729 0.558729 0.558729
0.584828 0.584828 0.584828
0.609516 0.609516 0.609516
0.633029 0.633029 0.633029
0.655801 0.655801 0.655801
0.678075 0.678075 0.678075
0.700138 0.700138 0.700138
0.722193 0.722193 0.722193
0.182425 0.182425 0.182425
0.182729 0.182729 0.182729
0.183100 0.183100 0.183100
0.183877 0.183877 0.183877
0.185212 0.185212 0.185212
0.187342 0.187342 0.187342
0.190509 0.190509 0.190509
0.195622 0.195622 0.195622
0.200043 0.200043 0.200043
0.205323 0.205323 0.205323
0.212244 0.212244 0.212244
0.221131 0.221131 0.221131
0.232193 0.232193 0.232193
0.245712 0.245712 0.245712
0.261775 0.261775 0.261775
0.280728 0.280728 0.280728
0.302631 0.302631 0.302631
0.326742 0.326742 0.326742
0.352535 0.352535 0.352535
0.380268 0.380268 0.380268
0.410313 0.410313 0.410313
0.442501 0.442501 0.442501
0.475925 0.475925 0.475925
0.508412 0.508412 0.508412
0.537549 0.537549 0.537549
0.564724 0.564724 0.564724
0.590180 0.590180 0.590180
0.614218 0.614218 0.614218
0.637161 0.637161 0.637161
0.659432 0.659432 0.659432
0.681285 0.681285 0.681285
0.703012 0.703012 0.703012
0.724787 0.724787 0.724787
0.187723 0.187723 0.187723
0.188117 0.188117 0.188117
0.188502 0.188502 0.188502
0.189409 0.189409 0.189409
0.190949 0.190949 0.190949
0.193306 0.193306 0.193306
0.196644 0.196644 0.196644
0.201431 0.201431 0.201431
0.209241 0.209241 0.209241
0.216057 0.216057 0.216057
0.223636 0.223636 0.223636
0.233326 0.233326 0.233326
0.245270 0.245270 0.245270
0.259570 0.259570 0.259570
0.276451 0.276451 0.276451
0.296126 0.296126 0.296126
0.318213 0.318213 0.318213
0.342078 0.342078 0.342078
0.367523 0.367523 0.367523
0.394807 0.394807 0.394807
0.424293 0.424293 0.424293
0.455648 0.455648 0.455648
0.487189 0.487189 0.487189
0.516988 0.516988 0.516988
0.544872 0.544872 0.544872
0.571053 0.571053 0.571053
0.595673 0.595673 0.595673
0.618960 0.618960 0.618960
0.641297 0.641297 0.641297
0.663100 0.663100 0.663100
0.684561 0.684561 0.684561
0.705959 0.705959 0.705959
0.727481 0.727481 0.727481
0.195430 0.195430 0.195430
0.195822 0.195822 0.195822
0.196335 0.196335 0.196335
0.197447 0.197447 0.197447
0.199234 0.199234 0.199234
0.201739 0.201739 0.201739
0.205438 0.205438 0.205438
0.210362 0.210362 0.210362
0.217365 0.217365 0.217365
0.228852 0.228852 0.228852
0.238906 0.238906 0.238906
0.249314 0.249314 0.249314
0.262021 0.262021 0.262021
0.277044 0.277044 0.277044
0.294721 0.294721 0.294721
0.314764 0.314764 0.314764
0.336629 0.336629 0.336629
0.360097 0.360097 0.360097
0.384990 0.384990 0.384990
0.411577 0.411577 0.411577
0.440251 0.440251 0.440251
0.470178 0.470178 0.470178
0.499589 0.499589 0.499589
0.527476 0.527476 0.527476
0.553819 0.553819 0.553819
0.578706 0.578706 0.578706
0.602234 0.602234 0.602234
0.624670 0.624670 0.624670
0.646298 0.646298 0.646298
0.667518 0.667518 0.667518
0.688537 0.688537 0.688537
0.709549 0.709549 0.709549
0.730747 0.730747 0.730747
0.206260 0.206260 0.206260
0.206666 0.206666 0.206666
0.207263 0.207263 0.207263
0.208555 0.208555 0.208555
0.210613 0.210613 0.210613
0.213439 0.213439 0.213439
0.217409 0.217409 0.217409
0.222860 0.222860 0.222860
0.229863 0.229863 0.229863
0.239886 0.239886 0.239886
0.255015 0.255015 0.255015
0.268991 0.268991 0.268991
0.282710 0.282710 0.282710
0.298510 0.298510 0.298510
0.316600 0.316600 0.316600
0.336571 0.336571 0.336571
0.358145 0.358145 0.358145
0.381128 0.381128 0.381128
0.405310 0.405310 0.405310
0.431040 0.431040 0.431040
0.458420 0.458420 0.458420
0.486228 0.486228 0.486228
0.513149 0.513149 0.513149
0.538906 0.538906 0.538906
0.563519 0.563519 0.563519
0.587009 0.587009 0.587009
0.609399 0.609399 0.609399
0.630927 0.630927 0.630927
0.651890 0.651890 0.651890
0.672557 0.672557 0.672557
0.693142 0.693142 0.693142
0.713777 0.713777 0.713777
0.734673 0.734673 0.734673
0.220800 0.220800 0.220800
0.221316 0.221316 0.221316
0.222012 0.222012 0.222012
0.223471 0.223471 0.223471
0.225858 0.225858 0.225858
0.229115 0.229115 0.229115
0.233511 0.233511 0.233511
0.239471 0.239471 0.239471
0.247119 0.247119 0.247119
0.256519 0.256519 0.256519
0.269546 0.269546 0.269546
0.288027 0.288027 0.288027
0.306693 0.306693 0.306693
0.323836 0.323836 0.323836
0.341692 0.341692 0.341692
0.361202 0.361202 0.361202
0.382159 0.382159 0.382159
0.404324 0.404324 0.404324
0.427560 0.427560 0.427560
0.452050 0.452050 0.452050
0.477509 0.477509 0.477509
0.502812 0.502812 0.502812
0.527406 0.527406 0.527406
0.551214 0.551214 0.551214
0.574161 0.574161 0.574161
0.596220 0.596220 0.596220
0.617418 0.617418 0.617418
0.637969 0.637969 0.637969
0.658168 0.658168 0.658168
0.678200 0.678200 0.678200
0.698262 0.698262 0.698262
0.718486 0.718486 0.718486
0.739035 0.739035 0.739035
0.240084 0.240084 0.240084
0.240684 0.240684 0.240684
0.241494 0.241494 0.241494
0.243139 0.243139 0.243139
0.245865 0.245865 0.245865
0.249565 0.249565 0.249565
0.254451 0.254451 0.254451
0.260618 0.260618 0.260618
0.268740 0.268740 0.268740
0.278711 0.278711 0.278711
0.290719 0.290719 0.290719
0.306926 0.306926 0.306926
0.330206 0.330206 0.330206
0.353877 0.353877 0.353877
0.373627 0.373627 0.373627
0.392485 0.392485 0.392485
0.412588 0.412588 0.412588
0.433685 0.433685 0.433685
0.455402 0.455402 0.455402
0.477613 0.477613 0.477613
0.500195 0.500195 0.500195
0.522612 0.522612 0.522612
0.544668 0.544668 0.544668
0.566264 0.566264 0.566264
0.587332 0.587332 0.587332
0.607734 0.607734 0.607734
0.627545 0.627545 0.627545
0.646945 0.646945 0.646945
0.666196 0.666196 0.666196
0.685418 0.685418 0.685418
0.704799 0.704799 0.704799
0.724460 0.724460 0.724460
0.744520 0.744520 0.744520
0.265195 0.265195 0.265195
0.265815 0.265815 0.265815
0.266629 0.266629 0.266629
0.268411 0.268411 0.268411
0.271326 0.271326 0.271326
0.275242 0.275242 0.275242
0.280417 0.280417 0.280417
0.286723 0.286723 0.286723
0.295261 0.295261 0.295261
0.306011 0.306011 0.306011
0.318749 0.318749 0.318749
0.333229 0.333229 0.333229
0.352635 0.352635 0.352635
0.376797 0.376797 0.376797
0.402107 0.402107 0.402107
0.423605 0.423605 0.423605
0.442588 0.442588 0.442588
0.462012 0.462012 0.462012
0.481410 0.481410 0.481410
0.500914 0.500914 0.500914
0.520756 0.520756 0.520756
0.540697 0.540697 0.540697
0.560572 0.560572 0.560572
0.580236 0.580236 0.580236
0.599574 0.599574 0.599574
0.618515 0.618515 0.618515
0.637117 0.637117 0.637117
0.655535 0.655535 0.655535
0.673923 0.673923 0.673923
0.692436 0.692436 0.692436
0.711226 0.711226 0.711226
0.730389 0.730389 0.730389
0.750015 0.750015 0.750015
0.294636 0.294636 0.294636
0.295275 0.295275 0.295275
0.296119 0.296119 0.296119
0.297993 0.297993 0.297993
0.300958 0.300958 0.300958
0.305199 0.305199 0.305199
0.310793 0.310793 0.310793
0.317575 0.317575 0.317575
0.326084 0.326084 0.326084
0.336749 0.336749 0.336749
0.349416 0.349416 0.349416
0.363783 0.363783 0.363783
0.379642 0.379642 0.379642
0.398785 0.398785 0.398785
0.422776 0.422776 0.422776
0.449137 0.449137 0.449137
0.470761 0.470761 0.470761
0.487696 0.487696 0.487696
0.504451 0.504451 0.504451
0.521461 0.521461 0.521461
0.539041 0.539041 0.539041
0.556986 0.556986 0.556986
0.575083 0.575083 0.575083
0.593123 0.593123 0.593123
0.611012 0.611012 0.611012
0.628704 0.628704 0.628704
0.646246 0.646246 0.646246
0.663790 0.663790 0.663790
0.681432 0.681432 0.681432
0.699341 0.699341 0.699341
0.717620 0.717620 0.717620
0.736338 0.736338 0.736338
0.755592 0.755592 0.755592
0.328404 0.328404 0.328404
0.329122 0.329122 0.329122
0.330003 0.330003 0.330003
0.331975 0.331975 0.331975
0.335026 0.335026 0.335026
0.339375 0.339375 0.339375
0.344978 0.344978 0.344978
0.351845 0.351845 0.351845
0.360014 0.360014 0.360014
0.369848 0.369848 0.369848
0.381864 0.381864 0.381864
0.395647 0.395647 0.395647
0.410723 0.410723 0.410723
0.426959 0.426959 0.426959
0.445538 0.445538 0.445538
0.468371 0.468371 0.468371
0.492941 0.492941 0.492941
0.512184 0.512184 0.512184
0.526531 0.526531 0.526531
0.541399 0.541399 0.541399
0.556989 0.556989 0.556989
0.573109 0.573109 0.573109
0.589544 0.589544 0.589544
0.606062 0.606062 0.606062
0.622614 0.622614 0.622614
0.639162 0.639162 0.639162
0.655763 0.655763 0.655763
0.672518 0.672518 0.672518
0.689526 0.689526 0.689526
0.706892 0.706892 0.706892
0.724710 0.724710 0.724710
0.743037 0.743037 0.743037
0.761919 0.761919 0.761919
0.365944 0.365944 0.365944
0.366728 0.366728 0.366728
0.367566 0.367566 0.367566
0.369540 0.369540 0.369540
0.372607 0.372607 0.372607
0.376797 0.376797 0.376797
0.382142 0.382142 0.382142
0.388702 0.388702 0.388702
0.396511 0.396511 0.396511
0.405594 0.405594 0.405594
0.416506 0.416506 0.416506
0.429251 0.429251 0.429251
0.443189 0.443189 0.443189
0.457911 0.457911 0.457911
0.473046 0.473046 0.473046
0.489040 0.489040 0.489040
0.508484 0.508484 0.508484
0.530172 0.530172 0.530172
0.547562 0.547562 0.547562
0.560649 0.560649 0.560649
0.574551 0.574551 0.574551
0.589055 0.589055 0.589055
0.603981 0.603981 0.603981
0.619144 0.619144 0.619144
0.634483 0.634483 0.634483
0.650008 0.650008 0.650008
0.665755 0.665755 0.665755
0.681756 0.681756 0.681756
0.698140 0.698140 0.698140
0.714965 0.714965 0.714965
0.732294 0.732294 0.732294
0.750167 0.750167 0.750167
0.768631 0.768631 0.768631
0.405142 0.405142 0.405142
0.405867 0.405867 0.405867
0.406662 0.406662 0.406662
0.408539 0.408539 0.408539
0.411452 0.411452 0.411452
0.415420 0.415420 0.415420
0.420447 0.420447 0.420447
0.426616 0.426616 0.426616
0.433909 0.433909 0.433909
0.442274 0.442274 0.442274
0.451803 0.451803 0.451803
0.462894 0.462894 0.462894
0.475044 0.475044 0.475044
0.487665 0.487665 0.487665
0.500427 0.500427 0.500427
0.513163 0.513163 0.513163
0.526146 0.526146 0.526146
0.542667 0.542667 0.542667
0.562528 0.562528 0.562528
0.579030 0.579030 0.579030
0.591440 0.591440 0.591440
0.604524 0.604524 0.604524
0.618099 0.618099 0.618099
0.632063 0.632063 0.632063
0.646353 0.646353 0.646353
0.660958 0.660958 0.660958
0.675882 0.675882 0.675882
0.691172 0.691172 0.691172
0.706937 0.706937 0.706937
0.723209 0.723209 0.723209
0.740040 0.740040 0.740040
0.757445 0.757445 0.757445
0.775494 0.775494 0.775494
0.444656 0.444656 0.444656
0.445320 0.445320 0.445320
0.447938 0.447938 0.447938
0.449738 0.449738 0.449738
0.452323 0.452323 0.452323
0.455829 0.455829 0.455829
0.460230 0.460230 0.460230
0.465567 0.465567 0.465567
0.471883 0.471883 0.471883
0.479058 0.479058 0.479058
0.487035 0.487035 0.487035
0.495971 0.495971 0.495971
0.505889 0.505889 0.505889
0.516384 0.516384 0.516384
0.527077 0.527077 0.527077
0.537839 0.537839 0.537839
0.548655 0.548655 0.548655
0.559495 0.559495 0.559495
0.574158 0.574158 0.574158
0.592776 0.592776 0.592776
0.608106 0.608106 0.608106
0.619922 0.619922 0.619922
0.632253 0.632253 0.632253
0.645092 0.645092 0.645092
0.658388 0.658388 0.658388
0.672047 0.672047 0.672047
0.686138 0.686138 0.686138
0.700714 0.700714 0.700714
0.715846 0.715846 0.715846
0.731556 0.731556 0.731556
0.747919 0.747919 0.747919
0.764924 0.764924 0.764924
0.782572 0.782572 0.782572
0.483066 0.483066 0.483066
0.483849 0.483849 0.483849
0.486973 0.486973 0.486973
0.488730 0.488730 0.488730
0.491033 0.491033 0.491033
0.494014 0.494014 0.494014
0.497685 0.497685 0.497685
0.502043 0.502043 0.502043
0.507217 0.507217 0.507217
0.513036 0.513036 0.513036
0.519537 0.519537 0.519537
0.526617 0.526617 0.526617
0.534573 0.534573 0.534573
0.543277 0.543277 0.543277
0.552317 0.552317 0.552317
0.561537 0.561537 0.561537
0.570901 0.570901 0.570901
0.580350 0.580350 0.580350
0.589857 0.589857 0.589857
0.602915 0.602915 0.602915
0.619977 0.619977 0.619977
0.634310 0.634310 0.634310
0.646107 0.646107 0.646107
0.657988 0.657988 0.657988
0.670380 0.670380 0.670380
0.683184 0.683184 0.683184
0.696521 0.696521 0.696521
0.710420 0.710420 0.710420
0.724939 0.724939 0.724939
0.740119 0.740119 0.740119
0.756024 0.756024 0.756024
0.772602 0.772602 0.772602
0.789847 0.789847 0.789847
0.518015 0.518015 0.518015
0.518872 0.518872 0.518872
0.519916 0.519916 0.519916
0.521520 0.521520 0.521520
0.523621 0.523621 0.523621
0.526203 0.526203 0.526203
0.529275 0.529275 0.529275
0.532953 0.532953 0.532953
0.537269 0.537269 0.537269
0.542142 0.542142 0.542142
0.547593 0.547593 0.547593
0.553571 0.553571 0.553571
0.560113 0.560113 0.560113
0.567386 0.567386 0.567386
0.575147 0.575147 0.575147
0.583154 0.583154 0.583154
0.591335 0.591335 0.591335
0.599651 0.599651 0.599651
0.608087 0.608087 0.608087
0.616635 0.616635 0.616635
0.628212 0.628212 0.628212
0.644048 0.644048 0.644048
0.658180 0.658180 0.658180
0.670129 0.670129 0.670129
0.681798 0.681798 0.681798
0.693971 0.693971 0.693971
0.706704 0.706704 0.706704
0.720066 0.720066 0.720066
0.734088 0.734088 0.734088
0.748823 0.748823 0.748823
0.764298 0.764298 0.764298
0.780444 0.780444 0.780444
0.797317 0.797317 0.797317
0.548974 0.548974 0.548974
0.549687 0.549687 0.549687
0.550582 0.550582 0.550582
0.551934 0.551934 0.551934
0.553693 0.553693 0.553693
0.555860 0.555860 0.555860
0.558450 0.558450 0.558450
0.561546 0.561546 0.561546
0.565170 0.565170 0.565170
0.569311 0.569311 0.569311
0.573950 0.573950 0.573950
0.579074 0.579074 0.579074
0.584538 0.584538 0.584538
0.590575 0.590575 0.590575
0.597228 0.597228 0.597228
0.604218 0.604218 0.604218
0.611418 0.611418 0.611418
0.618818 0.618818 0.618818
0.626390 0.626390 0.626390
0.634134 0.634134 0.634134
0.642033 0.642033 0.642033
0.652462 0.652462 0.652462
0.667323 0.667323 0.667323
0.681397 0.681397 0.681397
0.693536 0.693536 0.693536
0.705149 0.705149 0.705149
0.717352 0.717352 0.717352
0.730210 0.730210 0.730210
0.743772 0.743772 0.743772
0.758078 0.758078 0.758078
0.773124 0.773124 0.773124
0.788859 0.788859 0.788859
0.805348 0.805348 0.805348
0.577955 0.577955 0.577955
0.578505 0.578505 0.578505
0.579206 0.579206 0.579206
0.580308 0.580308 0.580308
0.581749 0.581749 0.581749
0.583558 0.583558 0.583558
0.585739 0.585739 0.585739
0.588363 0.588363 0.588363
0.591445 0.591445 0.591445
0.595005 0.595005 0.595005
0.598996 0.598996 0.598996
0.603376 0.603376 0.603376
0.608074 0.608074 0.608074
0.613117 0.613117 0.613117
0.618750 0.618750 0.618750
0.624887 0.624887 0.624887
0.631313 0.631313 0.631313
0.637978 0.637978 0.637978
0.644858 0.644858 0.644858
0.651935 0.651935 0.651935
0.659186 0.659186 0.659186
0.666578 0.666578 0.666578
0.676047 0.676047 0.676047
0.690022 0.690022 0.690022
0.704171 0.704171 0.704171
0.716544 0.716544 0.716544
0.728308 0.728308 0.728308
0.740731 0.740731 0.740731
0.753874 0.753874 0.753874
0.767760 0.767760 0.767760
0.782388 0.782388 0.782388
0.797736 0.797736 0.797736
0.813875 0.813875 0.813875
0.605211 0.605211 0.605211
0.605616 0.605616 0.605616
0.606068 0.606068 0.606068
0.606865 0.606865 0.606865
0.608024 0.608024 0.608024
0.609515 0.609515 0.609515
0.611378 0.611378 0.611378
0.613609 0.613609 0.613609
0.616280 0.616280 0.616280
0.619359 0.619359 0.619359
0.622851 0.622851 0.622851
0.626681 0.626681 0.626681
0.630792 0.630792 0.630792
0.635188 0.635188 0.635188
0.639970 0.639970 0.639970
0.645266 0.645266 0.645266
0.650980 0.650980 0.650980
0.656959 0.656959 0.656959
0.663164 0.663164 0.663164
0.669565 0.669565 0.669565
0.676160 0.676160 0.676160
0.682924 0.682924 0.682924
0.689816 0.689816 0.689816
0.698425 0.698425 0.698425
0.711482 0.711482 0.711482
0.725674 0.725674 0.725674
0.738386 0.738386 0.738386
0.750417 0.750417 0.750417
0.763169 0.763169 0.763169
0.776675 0.776675 0.776675
0.790943 0.790943 0.790943
0.805987 0.805987 0.805987
0.821887 0.821887 0.821887
0.630026 0.630026 0.630026
0.630394 0.630394 0.630394
0.630790 0.630790 0.630790
0.631468 0.631468 0.631468
0.632471 0.632471 0.632471
0.633712 0.633712 0.633712
0.635311 0.635311 0.635311
0.637204 0.637204 0.637204
0.639493 0.639493 0.639493
0.642129 0.642129 0.642129
0.645121 0.645121 0.645121
0.648469 0.648469 0.648469
0.652092 0.652092 0.652092
0.655992 0.655992 0.655992
0.660143 0.660143 0.660143
0.664729 0.664729 0.664729
0.669816 0.669816 0.669816
0.675234 0.675234 0.675234
0.680909 0.680909 0.680909
0.686821 0.686821 0.686821
0.692929 0.692929 0.692929
0.699235 0.699235 0.699235
0.705719 0.705719 0.705719
0.712347 0.712347 0.712347
0.720152 0.720152 0.720152
0.732129 0.732129 0.732129
0.746898 0.746898 0.746898
0.760001 0.760001 0.760001
0.772385 0.772385 0.772385
0.785550 0.785550 0.785550
0.799509 0.799509 0.799509
0.814276 0.814276 0.814276
0.829951 0.829951 0.829951
0.653925 0.653925 0.653925
0.654243 0.654243 0.654243
0.654590 0.654590 0.654590
0.655151 0.655151 0.655151
0.655982 0.655982 0.655982
0.657051 0.657051 0.657051
0.658413 0.658413 0.658413
0.660039 0.660039 0.660039
0.661986 0.661986 0.661986
0.664263 0.664263 0.664263
0.666843 0.666843 0.666843
0.669757 0.669757 0.669757
0.672969 0.672969 0.672969
0.676429 0.676429 0.676429
0.680113 0.680113 0.680113
0.684077 0.684077 0.684077
0.688499 0.688499 0.688499
0.693371 0.693371 0.693371
0.698563 0.698563 0.698563
0.704031 0.704031 0.704031
0.709735 0.709735 0.709735
0.715660 0.715660 0.715660
0.721752 0.721752 0.721752
0.727955 0.727955 0.727955
0.734260 0.734260 0.734260
0.741569 0.741569 0.741569
0.753093 0.753093 0.753093
0.768441 0.768441 0.768441
0.781931 0.781931 0.781931
0.794766 0.794766 0.794766
0.808380 0.808380 0.808380
0.822874 0.822874 0.822874
0.838262 0.838262 0.838262
0.676091 0.676091 0.676091
0.676381 0.676381 0.676381
0.676679 0.676679 0.676679
0.677185 0.677185 0.677185
0.677905 0.677905 0.677905
0.678880 0.678880 0.678880
0.680101 0.680101 0.680101
0.681578 0.681578 0.681578
0.683363 0.683363 0.683363
0.685432 0.685432 0.685432
0.687805 0.687805 0.687805
0.690473 0.690473 0.690473
0.693434 0.693434 0.693434
0.696624 0.696624 0.696624
0.700037 0.700037 0.700037
0.703666 0.703666 0.703666
0.707618 0.707618 0.707618
0.712033 0.712033 0.712033
0.716845 0.716845 0.716845
0.721940 0.721940 0.721940
0.727295 0.727295 0.727295
0.732871 0.732871 0.732871
0.738605 0.738605 0.738605
0.744475 0.744475 0.744475
0.750494 0.750494 0.750494
0.756607 0.756607 0.756607
0.763475 0.763475 0.763475
0.774193 0.774193 0.774193
0.790330 0.790330 0.790330
0.804210 0.804210 0.804210
0.817536 0.817536 0.817536
0.831722 0.831722 0.831722
0.846817 0.846817 0.846817
0.697919 0.697919 0.697919
0.698169 0.698169 0.698169
0.698382 0.698382 0.698382
0.698834 0.698834 0.698834
0.699461 0.699461 0.699461
0.700342 0.700342 0.700342
0.701442 0.701442 0.701442
0.702795 0.702795 0.702795
0.704468 0.704468 0.704468
0.706401 0.706401 0.706401
0.708618 0.708618 0.708618
0.711124 0.711124 0.711124
0.713874 0.713874 0.713874
0.716860 0.716860 0.716860
0.720059 0.720059 0.720059
0.723437 0.723437 0.723437
0.727027 0.727027 0.727027
0.731013 0.731013 0.731013
0.735461 0.735461 0.735461
0.740244 0.740244 0.740244
0.745286 0.745286 0.745286
0.750535 0.750535 0.750535
0.755971 0.755971 0.755971
0.761553 0.761553 0.761553
0.767284 0.767284 0.767284
0.773125 0.773125 0.773125
0.779100 0.779100 0.779100
