ml_luts/bw4__lut3d_33.cube
TITLE "BW4"
DOMAIN_MIN 0.000000 0.000000 0.000000
DOMAIN_MAX 1.000000 1.000000 1.000000
LUT_3D_SIZE 9
0.173526 0.173526 0.173526
0.174891 0.174891 0.174891
0.181925 0.181925 0.181925
0.205116 0.205116 0.205116
0.265446 0.265446 0.265446
0.375112 0.375112 0.375112
0.512276 0.512276 0.512276
0.622518 0.622518 0.622518
0.715846 0.715846 0.715846
0.176230 0.176230 0.176230
0.178480 0.178480 0.178480
0.187835 0.187835 0.187835
0.214774 0.214774 0.214774
0.279421 0.279421 0.279421
0.387133 0.387133 0.387133
0.519333 0.519333 0.519333
0.626383 0.626383 0.626383
0.718048 0.718048 0.718048
0.195430 0.195430 0.195430
0.199234 0.199234 0.199234
0.217365 0.217365 0.217365
0.262021 0.262021 0.262021
0.336629 0.336629 0.336629
0.440251 0.440251 0.440251
0.553819 0.553819 0.553819
0.646298 0.646298 0.646298
0.730747 0.730747 0.730747
0.265195 0.265195 0.265195
0.271326 0.271326 0.271326
0.295261 0.295261 0.295261
0.352635 0.352635 0.352635
0.442588 0.442588 0.442588
0.520756 0.520756 0.520756
0.599574 0.599574 0.599574
0.673923 0.673923 0.673923
0.750015 0.750015 0.750015
0.405142 0.405142 0.405142
0.411452 0.411452 0.411452
0.433909 0.433909 0.433909
0.475044 0.475044 0.475044
0.526146 0.526146 0.526146
0.591440 0.591440 0.591440
0.646353 0.646353 0.646353
0.706937 0.706937 0.706937
0.775494 0.775494 0.775494
0.548974 0.548974 0.548974
0.553693 0.553693 0.553693
0.565170 0.565170 0.565170
0.584538 0.584538 0.584538
0.611418 0.611418 0.611418
0.642033 0.642033 0.642033
0.693536 0.693536 0.693536
0.743772 0.743772 0.743772
0.805348 0.805348 0.805348
0.653925 0.653925 0.653925
0.655982 0.655982 0.655982
0.661986 0.661986 0.661986
0.672969 0.672969 0.672969
0.688499 0.688499 0.688499
0.709735 0.709735 0.709735
0.734260 0.734260 0.734260
0.781931 0.781931 0.781931
0.838262 0.838262 0.838262
0.741905 0.741905 0.741905
0.743134 0.743134 0.743134
0.747549 0.747549 0.747549
0.755872 0.755872 0.755872
0.767367 0.767367 0.767367
0.783231 0.783231 0.783231
0.803169 0.803169 0.803169
0.825372 0.825372 0.825372
0.871473 0.871473 0.871473
0.830137 0.830137 0.830137
0.831056 0.831056 0.831056
0.834493 0.834493 0.834493
0.841261 0.841261 0.841261
0.850690 0.850690 0.850690
0.863126 0.863126 0.863126
0.879812 0.879812 0.879812
0.898757 0.898757 0.898757
0.917388 0.917388 0.917388
0.173830 0.173830 0.173830
0.175010 0.175010 0.175010
0.184183 0.184183 0.184183
0.212232 0.212232 0.212232
0.276040 0.276040 0.276040
0.382159 0.382159 0.382159
0.514418 0.514418 0.514418
0.622595 0.622595 0.622595
0.714420 0.714420 0.714420
0.175913 0.175913 0.175913
0.179491 0.179491 0.179491
0.191044 0.191044 0.191044
0.221841 0.221841 0.221841
0.289473 0.289473 0.289473
0.394923 0.394923 0.394923
0.522030 0.522030 0.522030
0.626379 0.626379 0.626379
0.716807 0.716807 0.716807
0.196905 0.196905 0.196905
0.202666 0.202666 0.202666
0.219797 0.219797 0.219797
0.266248 0.266248 0.266248
0.342479 0.342479 0.342479
0.444019 0.444019 0.444019
0.553088 0.553088 0.553088
0.644724 0.644724 0.644724
0.729136 0.729136 0.729136
0.269528 0.269528 0.269528
0.276648 0.276648 0.276648
0.299955 0.299955 0.299955
0.353223 0.353223 0.353223
0.439218 0.439218 0.439218
0.518375 0.518375 0.518375
0.597404 0.597404 0.597404
0.672189 0.672189 0.672189
0.748666 0.748666 0.748666
0.410101 0.410101 0.410101
0.416012 0.416012 0.416012
0.437275 0.437275 0.437275
0.475593 0.475593 0.475593
0.525236 0.525236 0.525236
0.589923 0.589923 0.589923
0.645498 0.645498 0.645498
0.706188 0.706188 0.706188
0.774607 0.774607 0.774607
0.549426 0.549426 0.549426
0.552681 0.552681 0.552681
0.563772 0.563772 0.563772
0.582811 0.582811 0.582811
0.609715 0.609707 0.609707
0.640650 0.640650 0.640650
0.692277 0.692277 0.692277
0.743050 0.743050 0.743050
0.804942 0.804942 0.804942
0.653438 0.653438 0.653438
0.655026 0.655026 0.655026
0.661184 0.661184 0.661184
0.672621 0.672621 0.672621
0.688402 0.688402 0.688402
0.709773 0.709773 0.709773
0.734083 0.734083 0.734083
0.781731 0.781731 0.781731
0.837804 0.837804 0.837804
0.741497 0.741497 0.741497
0.742848 0.742848 0.742848
0.747377 0.747377 0.747377
0.755867 0.755867 0.755867
0.767549 0.767549 0.767549
0.783122 0.783122 0.783122
0.802716 0.802716 0.802716
0.824727 0.824727 0.824727
0.871066 0.871066 0.871066
0.829049 0.829049 0.829049
0.830374 0.830374 0.830374
0.834774 0.834774 0.834774
0.841702 0.841702 0.841702
0.851238 0.851238 0.851238
0.863621 0.863621 0.863621
0.880034 0.880034 0.880034
0.898886 0.898886 0.898886
0.917517 0.917517 0.917517
0.175403 0.175403 0.175403
0.176711 0.176711 0.176711
0.185321 0.185321 0.185321
0.218318 0.218318 0.218318
0.290997 0.290997 0.290997
0.403262 0.403262 0.403262
0.528233 0.528233 0.528233
0.628744 0.628744 0.628744
0.717105 0.717105 0.717105
0.179582 0.179582 0.179582
0.183152 0.183152 0.183152
0.193756 0.193756 0.193756
0.230519 0.230519 0.230519
0.306496 0.306496 0.306496
0.416098 0.416098 0.416098
0.535536 0.535536 0.535536
0.632989 0.632989 0.632989
0.720006 0.720006 0.720006
0.194655 0.194655 0.194655
0.201941 0.201941 0.201941
0.227746 0.227746 0.227746
0.277375 0.277375 0.277375
0.358980 0.358980 0.358980
0.461226 0.461226 0.461226
0.562920 0.562920 0.562920
0.649463 0.649463 0.649463
0.731251 0.731251 0.731251
0.271269 0.271269 0.271269
0.282288 0.282288 0.282288
0.315324 0.315324 0.315324
0.365329 0.365329 0.365329
0.448896 0.448896 0.448896
0.527812 0.527812 0.527812
0.604074 0.604074 0.604074
0.676158 0.676158 0.676158
0.750719 0.750719 0.750719
0.413779 0.413779 0.413779
0.424693 0.424693 0.424693
0.452369 0.452369 0.452369
0.487433 0.487433 0.487433
0.534550 0.534550 0.534550
0.594348 0.594348 0.594348
0.649289 0.649289 0.649289
0.708843 0.708843 0.708843
0.776330 0.776330 0.776330
0.554240 0.554240 0.554240
0.559788 0.559788 0.559788
0.572141 0.572141 0.572141
0.589981 0.589981 0.589981
0.614795 0.614795 0.614795
0.644448 0.644448 0.644448
0.694586 0.694586 0.694586
0.745218 0.745218 0.745218
0.806367 0.806367 0.806367
0.656746 0.656746 0.656746
0.659058 0.659058 0.659058
0.665125 0.665125 0.665125
0.675946 0.675946 0.675946
0.691088 0.691088 0.691088
0.711766 0.711766 0.711766
0.735947 0.735947 0.735947
0.783673 0.783673 0.783673
0.839826 0.839826 0.839826
0.743423 0.743423 0.743423
0.744515 0.744515 0.744515
0.748826 0.748826 0.748826
0.757048 0.757048 0.757048
0.768672 0.768672 0.768672
0.784151 0.784151 0.784151
0.803988 0.803988 0.803988
0.826238 0.826238 0.826238
0.873038 0.873038 0.873038
0.830549 0.830549 0.830549
0.831474 0.831474 0.831474
0.835120 0.835120 0.835120
0.841918 0.841918 0.841918
0.851583 0.851583 0.851583
0.864035 0.864035 0.864035
0.880326 0.880326 0.880326
0.899257 0.899257 0.899257
0.917830 0.917830 0.917830
0.179450 0.179450 0.179450
0.181671 0.181671 0.181671
0.191205 0.191205 0.191205
0.220117 0.220117 0.220117
0.301616 0.301616 0.301616
0.413773 0.413773 0.413773
0.536913 0.536913 0.536913
0.632960 0.632960 0.632960
0.717132 0.717132 0.717132
0.188126 0.188126 0.188126
0.190783 0.190783 0.190783
0.201620 0.201620 0.201620
0.233486 0.233486 0.233486
0.318045 0.318045 0.318045
0.428518 0.428518 0.428518
0.545215 0.545215 0.545215
0.637355 0.637355 0.637355
0.720324 0.720324 0.720324
0.203356 0.203356 0.203356
0.211864 0.211864 0.211864
0.243462 0.243462 0.243462
0.285807 0.285807 0.285807
0.372840 0.372840 0.372840
0.476396 0.476396 0.476396
0.572605 0.572605 0.572605
0.653293 0.653293 0.653293
0.731871 0.731871 0.731871
0.258766 0.258766 0.258766
0.270807 0.270807 0.270807
0.315148 0.315148 0.315148
0.382681 0.382677 0.382677
0.461080 0.461080 0.461080
0.538071 0.538071 0.538071
0.610212 0.610212 0.610212
0.679128 0.679128 0.679128
0.751580 0.751580 0.751580
0.415131 0.415131 0.415131
0.425481 0.425481 0.425481
0.459223 0.459223 0.459223
0.502829 0.502829 0.502829
0.544896 0.544896 0.544896
0.599777 0.599777 0.599777
0.653633 0.653633 0.653633
0.711536 0.711536 0.711536
0.777491 0.777491 0.777491
0.554452 0.554452 0.554452
0.560070 0.560070 0.560070
0.577253 0.577253 0.577253
0.598823 0.598823 0.598823
0.621178 0.621178 0.621178
0.650123 0.650123 0.650123
0.697633 0.697633 0.697633
0.747671 0.747671 0.747671
0.807844 0.807844 0.807844
0.656741 0.656741 0.656741
0.659626 0.659626 0.659626
0.669045 0.669045 0.669045
0.681067 0.681067 0.681067
0.695746 0.695746 0.695746
0.715372 0.715372 0.715372
0.738854 0.738854 0.738854
0.785970 0.785970 0.785970
0.841611 0.841611 0.841611
0.743899 0.743899 0.743899
0.745648 0.745648 0.745648
0.751547 0.751547 0.751547
0.759589 0.759589 0.759589
0.771127 0.771127 0.771127
0.786123 0.786123 0.786123
0.805802 0.805802 0.805802
0.828116 0.828116 0.828116
0.875774 0.875774 0.875774
0.831529 0.831529 0.831529
0.832863 0.832863 0.832863
0.836639 0.836639 0.836639
0.842939 0.842939 0.842939
0.852524 0.852524 0.852524
0.864915 0.864915 0.864915
0.881096 0.881096 0.881096
0.900272 0.900272 0.900272
0.918887 0.918887 0.918887
0.189608 0.189608 0.189608
0.192935 0.192935 0.192935
0.205550 0.205550 0.205550
0.234134 0.234134 0.234134
0.301816 0.301816 0.301816
0.427581 0.427581 0.427581
0.547791 0.547791 0.547791
0.640400 0.640400 0.640400
0.722759 0.722759 0.722759
0.201650 0.201650 0.201650
0.205180 0.205180 0.205180
0.218753 0.218753 0.218753
0.249311 0.249311 0.249311
0.318407 0.318407 0.318407
0.442492 0.442492 0.442492
0.555584 0.555584 0.555584
0.644440 0.644440 0.644440
0.724926 0.724926 0.724926
0.232746 0.232746 0.232746
0.245935 0.245935 0.245935
0.270329 0.270329 0.270329
0.306762 0.306762 0.306762
0.377043 0.377043 0.377043
0.488863 0.488863 0.488863
0.580890 0.580890 0.580890
0.658579 0.658579 0.658579
0.733482 0.733482 0.733482
0.278218 0.278218 0.278218
0.290553 0.290553 0.290553
0.334887 0.334887 0.334887
0.410311 0.410311 0.410311
0.472280 0.472280 0.472280
0.548995 0.548995 0.548995
0.616786 0.616786 0.616786
0.680869 0.680869 0.680869
0.749430 0.749430 0.749430
0.386206 0.386206 0.386206
0.398755 0.398755 0.398755
0.440267 0.440267 0.440267
0.503538 0.503538 0.503538
0.556600 0.556600 0.556600
0.605258 0.605258 0.605258
0.656321 0.656321 0.656321
0.711879 0.711879 0.711879
0.776249 0.776249 0.776249
0.555014 0.555014 0.555014
0.560662 0.560662 0.560662
0.577386 0.577386 0.577386
0.603258 0.603258 0.603258
0.629444 0.629444 0.629444
0.657141 0.657141 0.657141
0.700987 0.700987 0.700987
0.749423 0.749423 0.749423
0.808131 0.808131 0.808131
0.656844 0.656844 0.656844
0.659625 0.659625 0.659625
0.668685 0.668685 0.668685
0.683843 0.683843 0.683843
0.700452 0.700452 0.700452
0.719125 0.719125 0.719125
0.743276 0.743276 0.743276
0.789178 0.789178 0.789178
0.843694 0.843694 0.843694
0.743065 0.743065 0.743065
0.744712 0.744712 0.744712
0.750662 0.750662 0.750662
0.761209 0.761209 0.761209
0.773239 0.773239 0.773239
0.788346 0.788346 0.788346
0.807865 0.807865 0.807865
0.830413 0.830413 0.830413
0.879118 0.879118 0.879118
0.831205 0.831205 0.831205
0.832546 0.832546 0.832546
0.836778 0.836778 0.836778
0.844217 0.844217 0.844217
0.853330 0.853330 0.853330
0.866001 0.866001 0.866001
0.882013 0.882013 0.882013
0.901705 0.901705 0.901705
0.920226 0.920226 0.920226
0.211010 0.211010 0.211010
0.215497 0.215497 0.215497
0.232260 0.232260 0.232260
0.267989 0.267989 0.267989
0.328672 0.328672 0.328672
0.425976 0.425976 0.425976
0.556105 0.556105 0.556105
0.649362 0.649362 0.649362
0.730392 0.730392 0.730392
0.226892 0.226892 0.226892
0.231493 0.231493 0.231493
0.249136 0.249136 0.249136
0.285482 0.285482 0.285482
0.345309 0.345309 0.345309
0.440904 0.440904 0.440904
0.563612 0.563612 0.563612
0.652776 0.652776 0.652776
0.732254 0.732254 0.732254
0.284662 0.284662 0.284662
0.290193 0.290193 0.290193
0.310302 0.310302 0.310302
0.347731 0.347731 0.347731
0.404304 0.404304 0.404304
0.489580 0.489580 0.489580
0.589261 0.589261 0.589261
0.666580 0.666580 0.666580
0.741084 0.741084 0.741084
0.318429 0.318429 0.318429
0.333332 0.333332 0.333332
0.392328 0.392328 0.392328
0.449326 0.449326 0.449326
0.493824 0.493824 0.493824
0.552242 0.552242 0.552242
0.624528 0.624528 0.624528
0.687769 0.687769 0.687769
0.755432 0.755432 0.755432
0.416485 0.416485 0.416485
0.427907 0.427907 0.427907
0.465510 0.465510 0.465510
0.518866 0.518866 0.518866
0.573023 0.573023 0.573023
0.610638 0.610638 0.610638
0.661276 0.661284 0.661276
0.713932 0.713932 0.713932
0.774651 0.774651 0.774651
0.530526 0.530526 0.530526
0.537639 0.537639 0.537639
0.559784 0.559784 0.559784
0.593356 0.593356 0.593356
0.631201 0.631201 0.631201
0.666057 0.666057 0.666052
0.704184 0.704184 0.704184
0.749490 0.749490 0.749490
0.806174 0.806174 0.806174
0.655201 0.655201 0.655201
0.658131 0.658131 0.658131
0.667741 0.667741 0.667741
0.683280 0.683280 0.683280
0.703037 0.703037 0.703037
0.724901 0.724901 0.724901
0.749392 0.749392 0.749392
0.792408 0.792408 0.792408
0.845122 0.845122 0.845122
0.742606 0.742606 0.742606
0.744355 0.744355 0.744355
0.750215 0.750215 0.750215
0.760556 0.760556 0.760556
0.775079 0.775079 0.775079
0.791632 0.791632 0.791632
0.810738 0.810738 0.810738
0.834216 0.834216 0.834216
0.883485 0.883485 0.883485
0.831384 0.831384 0.831384
0.832641 0.832641 0.832641
0.836742 0.836742 0.836742
0.843990 0.843990 0.843990
0.854812 0.854812 0.854812
0.867549 0.867549 0.867549
0.883736 0.883736 0.883736
0.903655 0.903655 0.903655
0.922511 0.922511 0.922511
0.258457 0.258457 0.258457
0.264742 0.264742 0.264742
0.287661 0.287661 0.287661
0.329787 0.329787 0.329787
0.391230 0.391230 0.391230
0.473320 0.473320 0.473320
0.558303 0.558303 0.558303
0.654887 0.654887 0.654887
0.740681 0.740681 0.740681
0.279378 0.279378 0.279378
0.285573 0.285573 0.285573
0.307840 0.307840 0.307840
0.348912 0.348912 0.348912
0.408665 0.408665 0.408665
0.486456 0.486456 0.486456
0.565944 0.565944 0.565944
0.659024 0.659024 0.659024
0.743184 0.743184 0.743184
0.345188 0.345188 0.345188
0.351174 0.351174 0.351174
0.372375 0.372375 0.372375
0.410856 0.410856 0.410856
0.464503 0.464503 0.464503
0.525623 0.525623 0.525623
0.590803 0.590803 0.590803
0.672574 0.672574 0.672574
0.750818 0.750818 0.750818
0.408888 0.408888 0.408888
0.425724 0.425724 0.425724
0.469772 0.469772 0.469772
0.499952 0.499952 0.499952
0.535991 0.535991 0.535991
0.576272 0.576272 0.576272
0.625467 0.625467 0.625467
0.694091 0.694091 0.694091
0.764185 0.764185 0.764185
0.468574 0.468574 0.468574
0.478054 0.478054 0.478054
0.507596 0.507596 0.507596
0.559662 0.559662 0.559662
0.600517 0.600517 0.600517
0.627351 0.627351 0.627351
0.664961 0.664961 0.664961
0.722041 0.722041 0.722041
0.783562 0.783562 0.783562
0.564434 0.564434 0.564434
0.569468 0.569468 0.569468
0.586709 0.586709 0.586709
0.611963 0.611963 0.611963
0.642384 0.642384 0.642384
0.679517 0.679517 0.679517
0.709189 0.709189 0.709189
0.754947 0.754947 0.754947
0.809096 0.809096 0.809096
0.638716 0.638716 0.638716
0.642020 0.642020 0.642020
0.653047 0.653047 0.653047
0.670580 0.670580 0.670580
0.694903 0.694903 0.694903
0.726201 0.726201 0.726201
0.757532 0.757532 0.757532
0.795004 0.795004 0.795004
0.844097 0.844097 0.844097
0.739634 0.739634 0.739634
0.741859 0.741859 0.741859
0.748586 0.748586 0.748586
0.759130 0.759130 0.759130
0.774217 0.774217 0.774217
0.793854 0.793854 0.793854
0.816004 0.816004 0.816004
0.840699 0.840699 0.840699
0.888676 0.888676 0.888676
0.832021 0.832021 0.832021
0.833420 0.833420 0.833420
0.837688 0.837688 0.837688
0.844771 0.844771 0.844771
0.855478 0.855478 0.855478
0.870077 0.870077 0.870077
0.886738 0.886738 0.886738
0.907340 0.907340 0.907340
0.925849 0.925849 0.925849
0.365465 0.365465 0.365465
0.372158 0.372158 0.372158
0.397931 0.397931 0.397931
0.442068 0.442068 0.442068
0.498241 0.498241 0.498241
0.553134 0.553134 0.553134
0.609492 0.609492 0.609492
0.664029 0.664029 0.664029
0.748390 0.748390 0.748390
0.386424 0.386424 0.386424
0.393195 0.393195 0.393195
0.418185 0.418185 0.418185
0.460563 0.460563 0.460563
0.512774 0.512774 0.512774
0.564510 0.564510 0.564510
0.617428 0.617428 0.617428
0.669705 0.669705 0.669705
0.752377 0.752377 0.752377
0.448559 0.448559 0.448559
0.455022 0.455022 0.455022
0.476336 0.476336 0.476336
0.508815 0.508815 0.508815
0.548608 0.548608 0.548608
0.589863 0.589863 0.589863
0.633637 0.633637 0.633637
0.681139 0.681139 0.681139
0.760058 0.760058 0.760058
0.523714 0.523714 0.523714
0.532177 0.532177 0.532177
0.546188 0.546188 0.546188
0.566918 0.566918 0.566918
0.594110 0.594110 0.594110
0.625093 0.625093 0.625093
0.659960 0.659960 0.659960
0.701523 0.701523 0.701523
0.774212 0.774212 0.774212
0.541331 0.541331 0.541331
0.550117 0.550117 0.550117
0.579285 0.579285 0.579285
0.617615 0.617615 0.617615
0.640698 0.640699 0.640698
0.664450 0.664450 0.664450
0.692230 0.692230 0.692230
0.729315 0.729315 0.729315
0.795632 0.795632 0.795632
0.611642 0.611642 0.611642
0.614439 0.614439 0.614439
0.625588 0.625588 0.625588
0.642273 0.642273 0.642273
0.672918 0.672918 0.672918
0.706659 0.706659 0.706659
0.729676 0.729676 0.729676
0.762958 0.762958 0.762958
0.822037 0.822037 0.822037
0.677338 0.677338 0.677338
0.679459 0.679459 0.679459
0.686928 0.686928 0.686928
0.699254 0.699254 0.699254
0.717433 0.717433 0.717433
0.741353 0.741353 0.741353
0.774724 0.774724 0.774724
0.803930 0.803930 0.803930
0.853487 0.853487 0.853487
0.734482 0.734482 0.734482
0.736289 0.736289 0.736289
0.742496 0.742496 0.742496
0.753110 0.753110 0.753110
0.768889 0.768889 0.768889
0.790451 0.790451 0.790451
0.820387 0.820387 0.820387
0.853135 0.853135 0.853135
0.894531 0.894531 0.894531
0.828821 0.828821 0.828821
0.830366 0.830366 0.830366
0.835875 0.835875 0.835875
0.845279 0.845279 0.845279
0.857942 0.857942 0.857942
0.873071 0.873071 0.873071
0.891464 0.891464 0.891464
0.912407 0.912407 0.912407
0.930849 0.930849 0.930849
0.546502 0.546502 0.546502
0.551198 0.551198 0.551198
0.567399 0.567399 0.567399
0.592454 0.592454 0.592454
0.623498 0.623498 0.623498
0.657336 0.657336 0.657336
0.692012 0.692012 0.692012
0.731761 0.731761 0.731761
0.772702 0.772702 0.772702
0.557878 0.557878 0.557878
0.562427 0.562427 0.562427
0.577196 0.577196 0.577196
0.599576 0.599576 0.599576
0.629219 0.629219 0.629219
0.661992 0.661992 0.661992
0.696089 0.696089 0.696089
0.735427 0.735427 0.735427
0.775761 0.775761 0.775761
0.589365 0.589365 0.589365
0.592159 0.592159 0.592159
0.604347 0.604347 0.604347
0.624320 0.624320 0.624320
0.649653 0.649653 0.649653
0.678512 0.678512 0.678512
0.709251 0.709251 0.709251
0.745821 0.745821 0.745821
0.784886 0.784886 0.784886
0.625997 0.625997 0.625997
0.628374 0.628374 0.628374
0.637524 0.637524 0.637524
0.652984 0.652984 0.652984
0.673873 0.673873 0.673873
0.698683 0.698683 0.698683
0.725802 0.725802 0.725802
0.758858 0.758858 0.758858
0.795823 0.795823 0.795823
0.637705 0.637705 0.637705
0.643544 0.643544 0.643544
0.661219 0.661219 0.661219
0.683053 0.683053 0.683053
0.700969 0.700969 0.700969
0.722620 0.722620 0.722620
0.746861 0.746861 0.746861
0.776778 0.776778 0.776778
0.812253 0.812253 0.812253
0.668235 0.668235 0.668235
0.669874 0.669874 0.669874
0.676338 0.676338 0.676338
0.693958 0.693958 0.693958
0.725656 0.725656 0.725656
0.751000 0.751000 0.751000
0.774812 0.774812 0.774812
0.802898 0.802898 0.802898
0.837221 0.837221 0.837221
0.728512 0.728512 0.728512
0.729846 0.729846 0.729846
0.734258 0.734258 0.734258
0.741375 0.741375 0.741375
0.751804 0.751804 0.751804
0.773975 0.773975 0.773975
0.808519 0.808519 0.808519
0.834496 0.834496 0.834496
0.867270 0.867270 0.867270
0.783116 0.783116 0.783116
0.783200 0.783200 0.783200
0.786753 0.786753 0.786753
0.793675 0.793675 0.793675
0.804168 0.804168 0.804168
0.819021 0.819021 0.819021
0.838720 0.838720 0.838720
0.872042 0.872042 0.872042
0.904326 0.904326 0.904326
0.840177 0.840177 0.840177
0.841066 0.841066 0.841066
0.844594 0.844594 0.844594
0.851087 0.851087 0.851087
0.860837 0.860837 0.860837
0.874529 0.874529 0.874529
0.892859 0.892859 0.892859
0.916006 0.916006 0.916006
0.935271 0.935271 0.935271
