ml_luts/bw5__lut3d_33.cube
TITLE "BW5"
DOMAIN_MIN 0.000000 0.000000 0.000000
DOMAIN_MAX 1.000000 1.000000 1.000000
LUT_3D_SIZE 33
0.000000 0.000000 0.000000
0.002779 0.001656 0.003991
0.006330 0.005371 0.008783
0.014250 0.011396 0.020185
0.026207 0.019951 0.034604
0.039209 0.029559 0.049581
0.051934 0.041865 0.060384
0.062060 0.054190 0.068684
0.070413 0.063745 0.076623
0.079675 0.072174 0.085695
0.091407 0.082475 0.096666
0.105915 0.095214 0.109877
0.123560 0.110994 0.125235
0.144977 0.130361 0.143323
0.170651 0.153057 0.164563
0.200229 0.178925 0.188720
0.233265 0.207996 0.215625
0.269462 0.240256 0.245249
0.308725 0.275935 0.277680
0.350922 0.315188 0.313025
0.395518 0.357881 0.351327
0.441826 0.403654 0.392683
0.488578 0.451639 0.436929
0.534408 0.500689 0.483665
0.578019 0.549134 0.531441
0.618594 0.595782 0.578761
0.656388 0.640520 0.625344
0.691726 0.683279 0.670886
0.724563 0.723423 0.714717
0.754505 0.759775 0.755544
0.782048 0.792462 0.793085
0.807650 0.821440 0.826982
0.831449 0.847013 0.856901
0.003725 0.002602 0.004938
0.007449 0.005203 0.009817
0.009258 0.007175 0.012891
0.016362 0.012224 0.022381
0.027109 0.020872 0.036614
0.040123 0.030506 0.050518
0.053360 0.042643 0.061171
0.062697 0.054906 0.069113
0.070731 0.064188 0.076926
0.080141 0.072720 0.086139
0.091878 0.082812 0.097270
0.106281 0.095731 0.110334
0.123978 0.111564 0.125663
0.145573 0.130881 0.143813
0.171248 0.153606 0.165015
0.200761 0.179502 0.189165
0.233708 0.208498 0.216054
0.269830 0.240629 0.245606
0.308941 0.276117 0.277863
0.350790 0.315080 0.312916
0.395070 0.357482 0.350950
0.441165 0.403012 0.392101
0.487852 0.450894 0.436234
0.533614 0.499827 0.482824
0.577310 0.548321 0.530621
0.617917 0.594957 0.577894
0.655832 0.639822 0.624562
0.691198 0.682638 0.670190
0.724076 0.722849 0.714111
0.754127 0.759337 0.755050
0.781724 0.792079 0.792674
0.807354 0.821086 0.826598
0.831154 0.846687 0.856546
0.009110 0.007063 0.012707
0.012144 0.008780 0.015758
0.016394 0.012195 0.022338
0.022058 0.016666 0.029311
0.029248 0.023047 0.039980
0.041783 0.032367 0.052777
0.054061 0.044592 0.062197
0.063348 0.056248 0.069758
0.071621 0.064918 0.077730
0.081018 0.073269 0.086909
0.092605 0.083474 0.097926
0.107026 0.096369 0.111025
0.124835 0.112440 0.126500
0.146564 0.131775 0.144715
0.172249 0.154461 0.165885
0.201738 0.180363 0.189979
0.234724 0.209373 0.216826
0.270819 0.241516 0.246347
0.309776 0.276878 0.278559
0.351408 0.315654 0.313478
0.395521 0.357916 0.351346
0.441534 0.403391 0.392435
0.488107 0.451168 0.436499
0.533732 0.499943 0.482961
0.577294 0.548309 0.530609
0.617899 0.594969 0.577904
0.655733 0.639771 0.624502
0.691129 0.682584 0.670111
0.724027 0.722774 0.714034
0.754062 0.759266 0.754974
0.781710 0.792011 0.792577
0.807288 0.821047 0.826531
0.831115 0.846677 0.856535
0.020828 0.015569 0.027928
0.022635 0.017439 0.030882
0.026365 0.020131 0.035937
0.037456 0.029148 0.048042
0.046391 0.036437 0.056421
0.048033 0.037396 0.058226
0.057120 0.047393 0.064263
0.065270 0.057924 0.071315
0.073228 0.066189 0.079124
0.082517 0.074812 0.088478
0.094234 0.085131 0.099554
0.108915 0.098214 0.112682
0.126914 0.114354 0.128221
0.148769 0.133773 0.146593
0.174577 0.156504 0.167788
0.204139 0.182368 0.191859
0.237114 0.211393 0.218729
0.273140 0.243565 0.248262
0.311886 0.278799 0.280328
0.353201 0.317305 0.314958
0.396969 0.359266 0.352577
0.442561 0.404401 0.393378
0.488901 0.451999 0.437276
0.534422 0.500744 0.483676
0.577889 0.549015 0.531301
0.618553 0.595731 0.578705
0.656437 0.640571 0.625385
0.691789 0.683383 0.670987
0.724675 0.723555 0.714874
0.754597 0.759911 0.755701
0.782092 0.792494 0.793139
0.807586 0.821346 0.826910
0.831334 0.846871 0.856783
0.036210 0.027794 0.047207
0.039033 0.029479 0.049492
0.041978 0.032255 0.051990
0.049888 0.039434 0.059163
0.060583 0.052294 0.067641
0.066133 0.059017 0.072789
0.065969 0.059293 0.072412
0.068464 0.061975 0.074635
0.075451 0.068479 0.081493
0.085163 0.076916 0.090794
0.097160 0.087598 0.102019
0.112050 0.100954 0.115313
0.130357 0.117320 0.131071
0.152402 0.136985 0.149559
0.178226 0.159777 0.170846
0.207900 0.185741 0.195000
0.240919 0.214815 0.221872
0.276997 0.247048 0.251430
0.315747 0.282363 0.283501
0.356707 0.320675 0.317963
0.400077 0.362337 0.355318
0.445314 0.407171 0.395892
0.491269 0.454476 0.439584
0.536454 0.502917 0.485801
0.579653 0.550985 0.533275
0.620005 0.597413 0.580424
0.657655 0.642034 0.626920
0.692831 0.684649 0.672372
0.725477 0.724547 0.716003
0.755283 0.760710 0.756617
0.782659 0.793126 0.793884
0.808043 0.821881 0.827506
0.831731 0.847292 0.857237
0.052967 0.043659 0.061384
0.055330 0.045090 0.062698
0.056995 0.047328 0.063912
0.060370 0.051736 0.066880
0.067390 0.060509 0.073614
0.076702 0.069582 0.082888
0.085166 0.076961 0.090988
0.084175 0.076116 0.090102
0.082704 0.074974 0.088635
0.089267 0.080648 0.094646
0.101113 0.091172 0.105692
0.116456 0.104876 0.119225
0.135103 0.121633 0.135132
0.157471 0.141488 0.153755
0.183553 0.164440 0.175133
0.213294 0.190493 0.199405
0.246475 0.219729 0.226478
0.282634 0.252115 0.256083
0.321140 0.287324 0.287973
0.361790 0.325489 0.322264
0.404877 0.367073 0.359554
0.449844 0.411791 0.400083
0.497516 0.461123 0.445886
0.546667 0.514113 0.496742
0.588792 0.561356 0.543718
0.627974 0.606764 0.590091
0.664576 0.650360 0.635697
0.698834 0.691938 0.680255
0.730464 0.730616 0.722737
0.759407 0.765695 0.762284
0.786149 0.797172 0.798584
0.810972 0.825073 0.831267
0.834153 0.849795 0.860156
0.065217 0.058049 0.071821
0.066528 0.059247 0.072517
0.067617 0.060188 0.073750
0.069827 0.062942 0.076031
0.074347 0.067508 0.080518
0.084121 0.076009 0.089872
0.097427 0.087745 0.102308
0.111600 0.100459 0.114856
0.110420 0.099620 0.113839
0.108025 0.097363 0.111763
0.110173 0.099212 0.113817
0.122729 0.110539 0.124628
0.141928 0.127717 0.140877
0.164783 0.147899 0.159794
0.191268 0.171168 0.181452
0.221179 0.197430 0.205803
0.254551 0.226926 0.233005
0.290838 0.259547 0.262827
0.329276 0.294893 0.294809
0.369943 0.333260 0.329265
0.413040 0.375060 0.366788
0.458035 0.420093 0.407693
0.504029 0.467959 0.452297
0.549529 0.517274 0.499839
0.591668 0.564645 0.547027
0.630831 0.610125 0.593556
0.667238 0.653553 0.639095
0.701178 0.694809 0.683360
0.732438 0.733046 0.725432
0.761053 0.767664 0.764506
0.787493 0.798713 0.800413
0.812094 0.826292 0.832712
0.835063 0.850793 0.861281
0.076188 0.069249 0.082530
0.077144 0.069917 0.083259
0.078259 0.070725 0.084340
0.080572 0.073082 0.086553
0.084661 0.076579 0.090342
0.092976 0.083760 0.098081
0.106577 0.095958 0.110521
0.125153 0.112636 0.126700
0.147244 0.132307 0.145107
0.147993 0.133075 0.145748
0.143504 0.129121 0.142068
0.143272 0.128949 0.141934
0.152493 0.137067 0.149583
0.172883 0.155001 0.166373
0.199645 0.178479 0.188241
0.229884 0.205048 0.212858
0.263328 0.234751 0.240174
0.299273 0.267215 0.269790
0.337280 0.302328 0.301504
0.377533 0.340506 0.335738
0.420164 0.382068 0.373123
0.464589 0.426797 0.413876
0.509505 0.473776 0.457804
0.553338 0.521505 0.504005
0.594871 0.568323 0.550748
0.633521 0.613312 0.596855
0.669523 0.656361 0.642064
0.703089 0.697157 0.685930
0.734017 0.734982 0.727596
0.762389 0.769247 0.766326
0.788626 0.800006 0.801889
0.813060 0.827339 0.833930
0.835863 0.851610 0.862252
0.089974 0.081330 0.095545
0.090869 0.082217 0.096380
0.092271 0.083097 0.097429
0.094596 0.085443 0.099814
0.098753 0.089098 0.103512
0.105191 0.094665 0.109207
0.118181 0.106491 0.120733
0.137069 0.123302 0.136695
0.162783 0.146103 0.158032
0.194366 0.173887 0.183886
0.198489 0.177466 0.187271
0.192227 0.171935 0.182178
0.190187 0.170120 0.180496
0.192750 0.172387 0.182628
0.210353 0.187847 0.196956
0.240141 0.214097 0.221218
0.273369 0.243763 0.248436
0.308911 0.276069 0.277792
0.346452 0.310940 0.309205
0.386170 0.348818 0.343155
0.428212 0.390049 0.380309
0.471838 0.434242 0.420735
0.515831 0.480554 0.464253
0.558707 0.527456 0.509885
0.599317 0.573404 0.555909
0.637239 0.617702 0.601420
0.672612 0.660124 0.646052
0.705722 0.700395 0.689434
0.736178 0.737585 0.730505
0.764165 0.771370 0.768759
0.790076 0.801696 0.803866
0.814296 0.828706 0.835518
0.836950 0.852720 0.863516
0.107856 0.097025 0.111609
0.108785 0.097881 0.112487
0.110150 0.098972 0.113525
0.112651 0.101538 0.116010
0.117160 0.105371 0.119705
0.123243 0.110960 0.124969
0.134017 0.120677 0.134217
0.152663 0.137275 0.149766
0.177560 0.159109 0.170175
0.211112 0.188511 0.197590
0.250974 0.223874 0.230195
0.259364 0.231341 0.237037
0.252955 0.225572 0.231759
0.248163 0.221266 0.227840
0.249509 0.222433 0.228899
0.260006 0.231744 0.237453
0.284847 0.254081 0.257861
0.320110 0.286351 0.287121
0.357273 0.321164 0.318415
0.396456 0.358782 0.352123
0.437750 0.399578 0.388952
0.480373 0.443110 0.428927
0.523166 0.488479 0.471826
0.564843 0.534305 0.516631
0.604305 0.579194 0.561755
0.641354 0.622596 0.606514
0.676088 0.664300 0.650518
0.708627 0.703940 0.693316
0.738608 0.740538 0.733826
0.766258 0.773855 0.771612
0.791904 0.803762 0.806297
0.815876 0.830431 0.837543
0.838366 0.854166 0.865197
0.130160 0.117111 0.130827
0.131187 0.118011 0.131693
0.132507 0.119243 0.132900
0.135443 0.121991 0.135469
0.140210 0.126129 0.139337
0.146784 0.132004 0.144898
0.156067 0.140183 0.152543
0.172939 0.155152 0.166482
0.197475 0.176580 0.186492
0.227771 0.203124 0.211140
0.268544 0.239402 0.244517
0.311586 0.278727 0.280164
0.326979 0.293015 0.293038
0.323275 0.289563 0.289923
0.317711 0.284407 0.285271
0.315348 0.282171 0.283268
0.319613 0.285951 0.286723
0.337139 0.302186 0.301390
0.369045 0.332366 0.328457
0.407616 0.369681 0.361927
0.448108 0.409982 0.398453
0.489719 0.452841 0.438033
0.531327 0.497321 0.480400
0.571857 0.542173 0.524484
0.610194 0.585996 0.568712
0.646289 0.628473 0.612656
0.680250 0.669337 0.655921
0.712114 0.708183 0.697961
0.741519 0.744070 0.737790
0.768683 0.776720 0.774939
0.793965 0.806112 0.809029
0.817680 0.832380 0.839834
0.839937 0.855787 0.867042
0.157877 0.141790 0.154014
0.158941 0.142774 0.154929
0.160488 0.144149 0.156200
0.163622 0.146967 0.158853
0.168746 0.151368 0.162962
0.175765 0.157515 0.168728
0.184902 0.165519 0.176212
0.198073 0.177168 0.187031
0.221504 0.197710 0.206127
0.251655 0.224296 0.230670
0.286714 0.255789 0.259443
0.331679 0.297166 0.296835
0.380146 0.343271 0.338253
0.403620 0.366142 0.358827
0.402875 0.365527 0.358278
0.396693 0.359494 0.352820
0.391732 0.354647 0.348446
0.392016 0.354752 0.348542
0.400277 0.362530 0.355491
0.423534 0.385389 0.376086
0.463048 0.425180 0.412384
0.503341 0.467217 0.451582
0.543432 0.510584 0.493294
0.582295 0.553995 0.536303
0.619119 0.596395 0.579386
0.653897 0.637535 0.622187
0.686739 0.677215 0.664364
0.717559 0.714857 0.705297
0.746045 0.749578 0.744002
0.772460 0.781186 0.780098
0.797164 0.809743 0.813258
0.820411 0.835313 0.843258
0.842254 0.858164 0.869766
0.191878 0.171656 0.181846
0.192980 0.172643 0.182865
0.194574 0.174077 0.184164
0.197859 0.176926 0.186796
0.203155 0.181536 0.191119
0.210366 0.187851 0.196984
0.219821 0.196197 0.204707
0.231590 0.206564 0.214275
0.251372 0.224087 0.230443
0.280127 0.249819 0.254036
0.314619 0.281311 0.282564
0.353307 0.317466 0.315052
0.402045 0.364336 0.357115
0.450046 0.412098 0.400461
0.476407 0.439291 0.425612
0.478782 0.441964 0.428202
0.472666 0.435584 0.422253
0.467449 0.430144 0.417199
0.463571 0.426123 0.413464
0.467730 0.430205 0.417115
0.485817 0.448695 0.434116
0.515638 0.480347 0.464047
0.554254 0.522534 0.505004
0.591593 0.564577 0.546930
0.627068 0.605693 0.588941
0.660666 0.645652 0.630707
0.692520 0.684270 0.671926
0.722420 0.720832 0.711875
0.750104 0.754499 0.749559
0.775911 0.785233 0.784766
0.800110 0.813063 0.817147
0.822935 0.838011 0.846419
0.844457 0.860407 0.872328
0.230936 0.206009 0.213759
0.232182 0.207055 0.214788
0.233739 0.208525 0.216109
0.237153 0.211501 0.218826
0.242414 0.216189 0.223159
0.249704 0.222625 0.229119
0.259172 0.231080 0.236846
0.270852 0.241514 0.246396
0.286291 0.255411 0.259097
0.311731 0.278623 0.280169
0.344685 0.309304 0.307765
0.381968 0.344803 0.339561
0.422136 0.384032 0.374857
0.468288 0.430645 0.417446
0.513290 0.477891 0.461807
0.541283 0.508418 0.491366
0.546149 0.513951 0.496938
0.540425 0.507630 0.490773
0.535723 0.502478 0.485759
0.532827 0.499315 0.482679
0.534557 0.501147 0.484362
0.545050 0.512445 0.495184
0.567114 0.536820 0.519143
0.599920 0.574100 0.556591
0.634221 0.614119 0.597678
0.666790 0.653051 0.638532
0.697785 0.690710 0.678888
0.726852 0.726239 0.717879
0.753865 0.759010 0.754688
0.779125 0.788999 0.789116
0.802884 0.816151 0.820786
0.825366 0.840589 0.849440
0.846607 0.862604 0.874811
0.274199 0.244574 0.249231
0.275496 0.245651 0.250203
0.276974 0.247032 0.251442
0.280323 0.250097 0.254217
0.285561 0.254814 0.258532
0.292705 0.261285 0.264425
0.301917 0.269679 0.272024
0.313205 0.280036 0.281403
0.326633 0.292460 0.292619
0.346439 0.310962 0.309245
0.376287 0.339354 0.334686
0.411573 0.373618 0.365470
0.449191 0.411108 0.399468
0.487873 0.450921 0.436266
0.529535 0.495425 0.478637
0.570367 0.540541 0.522883
0.597929 0.571941 0.554516
0.604288 0.579436 0.562285
0.599539 0.573978 0.556730
0.596401 0.570366 0.553047
0.595368 0.569175 0.551820
0.596370 0.570312 0.552972
0.602623 0.577405 0.560142
0.618738 0.595925 0.578919
0.641875 0.623180 0.607119
0.673443 0.661078 0.647073
0.703560 0.697750 0.686541
0.731778 0.732220 0.724553
0.758137 0.764135 0.760539
0.782858 0.793344 0.794148
0.806212 0.819827 0.825113
0.828335 0.843719 0.853089
0.849262 0.865284 0.877837
0.320711 0.287009 0.287724
0.321967 0.288136 0.288718
0.323411 0.289477 0.289924
0.326656 0.292506 0.292641
0.331768 0.297244 0.296931
0.338719 0.303765 0.302759
0.347618 0.312093 0.310250
0.358452 0.322332 0.319452
0.371341 0.334627 0.330449
0.386866 0.349550 0.343834
0.411211 0.373269 0.365149
0.443001 0.404873 0.393780
0.477637 0.440249 0.426303
0.512926 0.477455 0.461329
0.547804 0.515390 0.498020
0.583517 0.555389 0.537722
0.619272 0.596576 0.579592
0.645805 0.627937 0.612173
0.653774 0.637575 0.622389
0.650770 0.633970 0.618603
0.649588 0.632557 0.617117
0.650179 0.633273 0.617869
0.652423 0.635943 0.620674
0.656740 0.641087 0.626063
0.666241 0.652477 0.638035
0.685403 0.675603 0.662599
0.709939 0.705535 0.695038
0.737262 0.738901 0.731999
0.762890 0.769828 0.767032
0.787042 0.798167 0.799752
0.809902 0.823887 0.829872
0.831608 0.847147 0.857057
0.852157 0.868162 0.881083
0.369055 0.332479 0.328542
0.370208 0.333529 0.329503
0.371589 0.334878 0.330721
0.374722 0.337870 0.333386
0.379590 0.342523 0.337566
0.386265 0.349003 0.343352
0.394708 0.357142 0.350655
0.404910 0.367079 0.359604
0.417021 0.378985 0.370306
0.430858 0.392684 0.382705
0.448715 0.410601 0.398992
0.475260 0.437785 0.423996
0.506410 0.470500 0.454675
0.538249 0.504885 0.487742
0.569613 0.539666 0.521986
0.599727 0.573907 0.556397
0.629618 0.608713 0.592103
0.661153 0.646287 0.631422
0.687205 0.677817 0.665044
0.696844 0.689581 0.677849
0.695703 0.688189 0.676348
0.696086 0.688678 0.676879
0.697909 0.690907 0.679279
0.701072 0.694742 0.683437
0.705516 0.700160 0.689330
0.712370 0.708531 0.698476
0.725440 0.724482 0.715972
0.743680 0.746712 0.740769
0.767834 0.775721 0.773768
0.791367 0.803128 0.805545
0.813717 0.828043 0.834743
0.834953 0.850634 0.861101
0.855131 0.871122 0.884398
0.418114 0.380094 0.371320
0.419164 0.381080 0.372248
0.422522 0.384478 0.375356
0.425587 0.387542 0.378081
0.430063 0.391958 0.382099
0.436166 0.398086 0.387667
0.443868 0.405797 0.394658
0.453106 0.415132 0.403175
0.464050 0.426286 0.413432
0.476502 0.439107 0.425272
0.490330 0.453539 0.438727
0.510166 0.474532 0.458534
0.536589 0.503095 0.486007
0.565054 0.534584 0.516941
0.593012 0.566233 0.548633
0.619953 0.597400 0.580415
0.645750 0.627838 0.612004
0.671077 0.658242 0.644072
0.699124 0.692359 0.680759
0.724537 0.723371 0.714750
0.735050 0.736153 0.729064
0.735274 0.736439 0.729389
0.736726 0.738212 0.731356
0.739362 0.741390 0.734922
0.743129 0.745944 0.740056
0.747830 0.751645 0.746476
0.753557 0.758550 0.754283
0.761554 0.768126 0.765200
0.777395 0.786966 0.786761
0.795780 0.808150 0.811426
0.817647 0.832300 0.839728
0.838428 0.854237 0.865260
0.858263 0.874225 0.887827
0.467559 0.429875 0.416747
0.468775 0.431146 0.417929
0.472714 0.435145 0.421601
0.475751 0.438320 0.424510
0.479925 0.442643 0.428562
0.485462 0.448439 0.433968
0.492340 0.455623 0.440694
0.500515 0.464259 0.448794
0.510226 0.474564 0.458581
0.521153 0.486311 0.469791
0.533257 0.499445 0.482456
0.547348 0.514875 0.497498
0.567704 0.537521 0.519836
0.592130 0.565198 0.547577
0.616941 0.593873 0.576783
0.641067 0.622274 0.606170
0.664379 0.650165 0.635487
0.686803 0.677319 0.664463
0.708275 0.703520 0.692866
0.732965 0.733661 0.726223
0.757308 0.763113 0.759391
0.767873 0.775655 0.773784
0.769445 0.777509 0.775913
0.771723 0.780195 0.779013
0.774953 0.783987 0.783403
0.779033 0.788755 0.788908
0.784031 0.794559 0.795636
0.789927 0.801324 0.803510
0.797036 0.809414 0.812932
0.807486 0.821113 0.826624
0.823349 0.838416 0.846884
0.842100 0.858009 0.869568
0.861549 0.877439 0.891337
0.515927 0.480714 0.464466
0.517327 0.482227 0.465926
0.518956 0.483953 0.467559
0.521739 0.486982 0.470466
0.525671 0.491234 0.474563
0.530716 0.496718 0.479848
0.536821 0.503348 0.486282
0.543996 0.511234 0.493951
0.552469 0.520576 0.503104
0.561969 0.531135 0.513535
0.572500 0.542942 0.525267
0.583887 0.555793 0.538128
0.598245 0.572194 0.554649
0.617875 0.594962 0.577898
0.639881 0.620863 0.604711
0.661574 0.646779 0.631913
0.682698 0.672324 0.659099
0.703087 0.697173 0.685945
0.722489 0.720895 0.711975
0.740796 0.743227 0.736863
0.762392 0.769167 0.766345
0.785200 0.796020 0.797264
0.795629 0.807884 0.811115
0.798928 0.811568 0.815455
0.801847 0.814850 0.819278
0.805582 0.818986 0.824125
0.810126 0.823978 0.829984
0.815471 0.829807 0.836810
0.821655 0.836501 0.844609
0.828689 0.843942 0.853280
0.836734 0.852362 0.862999
0.849768 0.865723 0.878281
0.864936 0.880726 0.894919
0.561326 0.530434 0.512854
0.562557 0.531824 0.514243
0.564016 0.533464 0.515848
0.566402 0.536121 0.518497
0.569798 0.539926 0.522262
0.574160 0.544794 0.527137
0.579387 0.550713 0.533039
0.585559 0.557725 0.540077
0.592755 0.565935 0.548341
0.600868 0.575240 0.557799
0.609920 0.585695 0.568441
0.619691 0.597065 0.580085
0.630058 0.609234 0.592651
0.644702 0.626601 0.610715
0.663339 0.648919 0.634183
0.682828 0.672483 0.659279
0.701896 0.695710 0.684348
0.720290 0.718192 0.708985
0.737847 0.739606 0.732819
0.754546 0.759832 0.755642
0.770406 0.778770 0.777297
0.789009 0.800319 0.802303
0.809989 0.823943 0.829928
0.821087 0.835930 0.843981
0.825600 0.840708 0.849514
0.829061 0.844364 0.853763
0.833243 0.848723 0.858826
0.838144 0.853800 0.864673
0.843807 0.859623 0.871323
0.850248 0.866116 0.878668
0.857382 0.873234 0.886580
0.865171 0.880858 0.894935
0.873914 0.889277 0.903948
0.604490 0.579417 0.562064
0.605452 0.580536 0.563194
0.606566 0.581863 0.564532
0.608578 0.584176 0.566900
0.611425 0.587462 0.570255
0.615067 0.591677 0.574574
0.619450 0.596826 0.579857
0.624710 0.602972 0.586182
0.630860 0.610189 0.593641
0.637786 0.618374 0.602158
0.645531 0.627585 0.611760
0.653952 0.637639 0.622294
0.662921 0.648394 0.633652
0.673293 0.660919 0.646949
0.687633 0.678350 0.665599
0.704647 0.699091 0.688040
0.721653 0.719870 0.710840
0.738104 0.739926 0.733179
0.753968 0.759111 0.754827
0.769163 0.777274 0.775570
0.783716 0.794329 0.795297
0.797692 0.810261 0.813896
0.813783 0.827999 0.834686
0.832938 0.848513 0.858614
0.844489 0.860388 0.872247
0.849877 0.865793 0.878315
0.853788 0.869680 0.882683
0.858351 0.874200 0.887687
0.863582 0.879324 0.893313
0.869500 0.885067 0.899497
0.876096 0.891340 0.906134
0.883255 0.898108 0.913148
0.891016 0.905336 0.920440
0.644907 0.626835 0.610989
0.645620 0.627657 0.611850
0.646396 0.628608 0.612840
0.647983 0.630502 0.614808
0.650285 0.633254 0.617700
0.653296 0.636856 0.621467
0.657030 0.641334 0.626193
0.661516 0.646725 0.631873
0.666790 0.653081 0.638598
0.672774 0.660285 0.646269
0.679463 0.668411 0.654926
0.686760 0.677265 0.664423
0.694493 0.686669 0.674590
0.702642 0.696616 0.685375
0.712928 0.709209 0.699097
0.726524 0.725824 0.717430
0.741496 0.744054 0.737795
0.756098 0.761689 0.757758
0.770293 0.778595 0.777117
0.784018 0.794655 0.795680
0.797268 0.809793 0.813350
0.810070 0.824012 0.830021
0.822335 0.837285 0.845567
0.836217 0.851853 0.862446
0.853542 0.869498 0.882530
0.865300 0.881060 0.895249
0.871280 0.886776 0.901334
0.875549 0.890854 0.905615
0.880446 0.895470 0.910435
0.885956 0.900636 0.915734
0.892081 0.906313 0.921429
0.898754 0.912443 0.927469
0.906144 0.919163 0.933881
0.681577 0.670978 0.657696
0.682151 0.671657 0.658443
0.682886 0.672559 0.659404
0.684191 0.674129 0.661096
0.686146 0.676503 0.663630
0.688660 0.679596 0.666939
0.691836 0.683449 0.671102
0.695612 0.688059 0.676081
0.700039 0.693467 0.681941
0.705117 0.699657 0.688672
0.710775 0.706581 0.696227
0.716936 0.714115 0.704501
0.723508 0.722124 0.713363
0.730432 0.730572 0.722736
0.737665 0.739413 0.732589
0.747755 0.751647 0.746358
0.760505 0.766971 0.763765
0.773510 0.782396 0.781484
0.786266 0.797233 0.798698
0.798739 0.811434 0.815275
0.810877 0.824909 0.831070
0.822653 0.837624 0.845968
0.834003 0.849580 0.859859
0.844901 0.860805 0.872733
0.856841 0.872750 0.886099
0.872214 0.887698 0.902344
0.884400 0.899206 0.914329
0.890725 0.905072 0.920193
0.895323 0.909298 0.924386
0.900500 0.914036 0.928996
0.906245 0.919254 0.933972
0.912555 0.924924 0.939292
0.919580 0.931223 0.945009
0.715885 0.712802 0.703060
0.716395 0.713453 0.703784
0.716976 0.714168 0.704572
0.718044 0.715438 0.705978
0.719653 0.717420 0.708155
0.721747 0.719957 0.710956
0.724333 0.723131 0.714465
0.727436 0.726919 0.718678
0.731073 0.731361 0.723598
0.735235 0.736430 0.729275
0.739904 0.742109 0.735636
0.745034 0.748340 0.742637
0.750563 0.755025 0.750194
0.756432 0.762075 0.758208
0.762572 0.769439 0.766604
0.769693 0.777915 0.776319
0.779301 0.789189 0.789349
0.790690 0.802330 0.804647
0.802160 0.815268 0.819779
0.813465 0.827738 0.834377
0.824544 0.839667 0.848322
0.835357 0.851001 0.861479
0.845807 0.861723 0.873751
0.855862 0.871803 0.885081
0.865522 0.881267 0.895445
0.875916 0.891217 0.906009
0.889817 0.904238 0.919372
0.902230 0.915622 0.930560
0.908756 0.921519 0.936128
0.913632 0.925905 0.940200
0.919008 0.930698 0.944562
0.924981 0.935988 0.949270
0.931678 0.941894 0.954429
0.746114 0.749643 0.744130
0.746544 0.750172 0.744702
0.747052 0.750776 0.745402
0.747940 0.751845 0.746600
0.749257 0.753451 0.748379
0.751019 0.755563 0.750772
0.753195 0.758192 0.753785
0.755822 0.761355 0.757383
0.758932 0.765081 0.761621
0.762497 0.769360 0.766515
0.766517 0.774120 0.771977
0.770947 0.779345 0.777989
0.775715 0.784961 0.784462
0.780794 0.790906 0.791338
0.786161 0.797120 0.798545
0.791750 0.803529 0.806008
0.798833 0.811546 0.815406
0.808187 0.821944 0.827612
0.818510 0.833186 0.840770
0.828719 0.844072 0.853455
0.838772 0.854552 0.865564
0.848618 0.864571 0.876964
0.858202 0.874109 0.887622
0.867474 0.883139 0.897463
0.876412 0.891687 0.906527
0.885000 0.899774 0.914890
0.894017 0.908133 0.923224
0.906227 0.919252 0.933990
0.918900 0.930616 0.944519
0.925444 0.936412 0.949665
0.930533 0.940875 0.953559
0.936204 0.945849 0.957799
0.942601 0.951389 0.962468
0.773962 0.782936 0.782105
0.774330 0.783333 0.782585
0.774662 0.783759 0.783053
0.775404 0.784618 0.784065
0.776495 0.785898 0.785520
0.777981 0.787621 0.787524
0.779827 0.789781 0.790029
0.782095 0.792424 0.793099
0.784776 0.795533 0.796715
0.787855 0.799083 0.800857
0.791347 0.803069 0.805492
0.795209 0.807454 0.810605
0.799393 0.812159 0.816115
0.803862 0.817152 0.821973
0.808570 0.822358 0.828079
0.813493 0.827758 0.834389
0.818674 0.833383 0.840961
0.825720 0.840896 0.849737
0.834774 0.850383 0.860758
0.843999 0.859861 0.871636
0.853106 0.869049 0.881995
0.862067 0.877889 0.891761
0.870828 0.886357 0.900889
0.879324 0.894436 0.909380
0.887561 0.902139 0.917271
0.895504 0.909460 0.924583
0.903130 0.916459 0.931338
