ml_luts/bw5__lut3d_33.cube
TITLE "BW5"
DOMAIN_MIN 0.000000 0.000000 0.000000
DOMAIN_MAX 1.000000 1.000000 1.000000
LUT_3D_SIZE 9
0.000000 0.000000 0.000000
0.026207 0.019951 0.034604
0.070413 0.063745 0.076623
0.123560 0.110994 0.125235
0.233265 0.207996 0.215625
0.395518 0.357881 0.351327
0.578019 0.549134 0.531441
0.724563 0.723423 0.714717
0.831449 0.847013 0.856901
0.036210 0.027794 0.047207
0.060583 0.052294 0.067641
0.075451 0.068479 0.081493
0.130357 0.117320 0.131071
0.240919 0.214815 0.221872
0.400077 0.362337 0.355318
0.579653 0.550985 0.533275
0.725477 0.724547 0.716003
0.831731 0.847292 0.857237
0.089974 0.081330 0.095545
0.098753 0.089098 0.103512
0.162783 0.146103 0.158032
0.190187 0.170120 0.180496
0.273369 0.243763 0.248436
0.428212 0.390049 0.380309
0.599317 0.573404 0.555909
0.736178 0.737585 0.730505
0.836950 0.852720 0.863516
0.191878 0.171656 0.181846
0.203155 0.181536 0.191119
0.251372 0.224087 0.230443
0.402045 0.364336 0.357115
0.472666 0.435584 0.422253
0.485817 0.448695 0.434116
0.627068 0.605693 0.588941
0.750104 0.754499 0.749559
0.844457 0.860407 0.872328
0.369055 0.332479 0.328542
0.379590 0.342523 0.337566
0.417021 0.378985 0.370306
0.506410 0.470500 0.454675
0.629618 0.608713 0.592103
0.695703 0.688189 0.676348
0.705516 0.700160 0.689330
0.767834 0.775721 0.773768
0.855131 0.871122 0.884398
0.561326 0.530434 0.512854
0.569798 0.539926 0.522262
0.592755 0.565935 0.548341
0.630058 0.609234 0.592651
0.701896 0.695710 0.684348
0.770406 0.778770 0.777297
0.825600 0.840708 0.849514
0.843807 0.859623 0.871323
0.873914 0.889277 0.903948
0.715885 0.712802 0.703060
0.719653 0.717420 0.708155
0.731073 0.731361 0.723598
0.750563 0.755025 0.750194
0.779301 0.789189 0.789349
0.824544 0.839667 0.848322
0.865522 0.881267 0.895445
0.908756 0.921519 0.936128
0.931678 0.941894 0.954429
0.824353 0.839464 0.848112
0.826141 0.841377 0.850328
0.832464 0.848002 0.858024
0.843647 0.859543 0.871290
0.858436 0.874357 0.887903
0.882147 0.897084 0.912132
0.910489 0.923100 0.937622
0.935971 0.945633 0.957637
0.968177 0.973224 0.979896
0.905425 0.918517 0.933349
0.906401 0.919410 0.934184
0.910010 0.922682 0.937255
0.916663 0.928633 0.942741
0.925673 0.936599 0.949859
0.936904 0.946437 0.958331
0.955810 0.962738 0.971687
0.974865 0.978923 0.984241
0.990143 0.991730 0.993866
0.019761 0.015866 0.026990
0.029835 0.022263 0.039570
0.081746 0.074128 0.087714
0.150143 0.135006 0.147751
0.264168 0.235496 0.240965
0.419284 0.381218 0.372304
0.590023 0.562768 0.545133
0.729506 0.729459 0.721467
0.832689 0.848310 0.858427
0.035562 0.026905 0.046502
0.064511 0.057083 0.070792
0.093099 0.084075 0.098459
0.156873 0.141009 0.153229
0.271360 0.241939 0.246800
0.424603 0.386469 0.377068
0.592355 0.565414 0.547809
0.730298 0.730447 0.722526
0.833119 0.848743 0.858925
0.093872 0.084697 0.098938
0.110450 0.099386 0.113877
0.165463 0.148516 0.160357
0.197351 0.176494 0.186441
0.299328 0.267255 0.269856
0.448394 0.410270 0.398694
0.608019 0.583472 0.566122
0.739145 0.741220 0.734584
0.837951 0.853749 0.864721
0.204677 0.182848 0.192332
0.217926 0.194508 0.203138
0.261491 0.233053 0.238693
0.402516 0.364762 0.357526
0.464873 0.427485 0.414704
0.491910 0.455063 0.440072
0.633069 0.612770 0.596280
0.752604 0.757497 0.752963
0.845525 0.861486 0.873558
0.381838 0.344686 0.339481
0.391847 0.354370 0.348177
0.427285 0.389160 0.379493
0.508823 0.473067 0.457111
0.628740 0.607696 0.591049
0.691769 0.683413 0.671175
0.703251 0.697391 0.686311
0.770822 0.779253 0.777850
0.856377 0.872328 0.885742
0.566599 0.536325 0.518699
0.573121 0.543627 0.525975
0.595015 0.568544 0.550987
0.631175 0.610560 0.594036
0.700510 0.694043 0.682561
0.769078 0.777155 0.775457
0.823523 0.838476 0.846914
0.842449 0.858232 0.869719
0.874432 0.889781 0.904522
0.717337 0.714587 0.705046
0.720502 0.718463 0.709306
0.731942 0.732446 0.724814
0.751660 0.756355 0.751696
0.779681 0.789608 0.789832
0.824664 0.839783 0.848475
0.865380 0.881114 0.895290
0.908218 0.921040 0.935673
0.931116 0.941373 0.953987
0.824754 0.839904 0.848622
0.826677 0.841910 0.850953
0.833021 0.848580 0.858696
0.844271 0.860174 0.872009
0.859114 0.875003 0.888621
0.882095 0.897045 0.912090
0.910245 0.922879 0.937403
0.935651 0.945341 0.957395
0.967887 0.972990 0.979705
0.904975 0.918128 0.932990
0.906235 0.919254 0.934055
0.910434 0.923049 0.937585
0.917158 0.929077 0.943130
0.926188 0.937060 0.950265
0.937314 0.946803 0.958642
0.955897 0.962791 0.971733
0.974975 0.978981 0.984284
0.990231 0.991794 0.993904
0.060837 0.052811 0.067628
0.066144 0.058998 0.072354
0.081536 0.073846 0.087425
0.153864 0.138323 0.150752
0.311982 0.278924 0.280400
0.486651 0.449604 0.435020
0.631735 0.611179 0.594659
0.750351 0.754776 0.749883
0.842573 0.858511 0.870153
0.077364 0.070011 0.083439
0.086781 0.078428 0.092530
0.102137 0.092069 0.106562
0.185380 0.165995 0.176654
0.339355 0.304329 0.303312
0.491831 0.455015 0.440083
0.633895 0.613757 0.597307
0.751552 0.756252 0.751553
0.843357 0.859274 0.871047
0.093055 0.083892 0.098318
0.112365 0.101007 0.115576
0.178099 0.159571 0.170643
0.251618 0.224282 0.230637
0.372666 0.335820 0.331559
0.510803 0.475174 0.459089
0.645628 0.627656 0.611804
0.758117 0.764156 0.760534
0.847055 0.863056 0.875339
0.195164 0.174574 0.184569
0.223901 0.199758 0.208037
0.296093 0.264280 0.267177
0.411578 0.373604 0.365470
0.460961 0.423356 0.410809
0.543671 0.510790 0.493484
0.666135 0.652271 0.637715
0.769846 0.778113 0.776529
0.854077 0.870080 0.883234
0.382773 0.345621 0.340307
0.409445 0.371534 0.363620
0.461534 0.423645 0.410950
0.526042 0.491576 0.474822
0.638096 0.618757 0.602552
0.688211 0.679095 0.666512
0.706244 0.701047 0.690255
0.785301 0.796182 0.797455
0.863916 0.879751 0.893866
0.578432 0.549660 0.531983
0.592676 0.565855 0.548277
0.616197 0.592998 0.575891
0.648677 0.631311 0.615641
0.707247 0.702264 0.691491
0.772766 0.781527 0.780490
0.821921 0.836780 0.844926
0.841271 0.857045 0.868360
0.877830 0.893037 0.907987
0.726965 0.726328 0.718008
0.730674 0.730860 0.723053
0.741557 0.744114 0.737882
0.759577 0.765878 0.762518
0.784175 0.794841 0.795909
0.826573 0.841797 0.850814
0.866659 0.882351 0.896620
0.907902 0.920733 0.935396
0.930913 0.941188 0.953830
0.828895 0.844279 0.853691
0.830447 0.845910 0.855579
0.836440 0.852140 0.862813
0.847197 0.863132 0.875363
0.861621 0.877465 0.891329
0.882819 0.897719 0.912784
0.911018 0.923546 0.938026
0.936475 0.946075 0.958003
0.968362 0.973403 0.980028
0.906737 0.919730 0.934500
0.907732 0.920611 0.935318
0.911418 0.923936 0.938411
0.917992 0.929819 0.943804
0.927032 0.937816 0.950912
0.938105 0.947482 0.959221
0.955930 0.962837 0.971767
0.975153 0.979124 0.984412
0.990418 0.991966 0.994033
0.098238 0.088564 0.103109
0.105244 0.094772 0.109350
0.128181 0.115473 0.129330
0.159285 0.143099 0.155226
0.275937 0.246137 0.250630
0.476113 0.438756 0.424977
0.653849 0.637522 0.622177
0.774627 0.783731 0.783008
0.855509 0.871492 0.884810
0.127688 0.114943 0.128821
0.133549 0.120257 0.133875
0.154164 0.138532 0.150975
0.185273 0.165907 0.176507
0.308396 0.275652 0.277403
0.500844 0.464625 0.449183
0.666144 0.652285 0.637758
0.777616 0.787253 0.787077
0.856346 0.872330 0.885716
0.155759 0.139988 0.152337
0.177909 0.159541 0.170598
0.235639 0.210129 0.217568
0.274442 0.244706 0.249326
0.414472 0.376513 0.368100
0.572107 0.542468 0.524787
0.692371 0.684112 0.671777
0.783000 0.793505 0.794335
0.859763 0.875686 0.889414
0.194149 0.173646 0.183801
0.217568 0.194181 0.202840
0.300864 0.268658 0.271114
0.426627 0.388544 0.378978
0.508908 0.473110 0.457111
0.610950 0.586854 0.569586
0.707650 0.702752 0.692018
0.792424 0.804336 0.806972
0.866013 0.881763 0.896052
0.358240 0.322170 0.319312
0.384376 0.347188 0.341714
0.468252 0.430612 0.417428
0.555277 0.523629 0.506104
0.645431 0.627443 0.611582
0.679348 0.668334 0.654948
0.728353 0.728076 0.719908
0.805536 0.819054 0.824206
0.874846 0.890238 0.905064
0.561943 0.531145 0.513590
0.578653 0.549916 0.532272
0.627721 0.606499 0.589845
0.671503 0.658749 0.644614
0.715351 0.712164 0.702350
0.778012 0.787657 0.787583
0.817955 0.832510 0.839967
0.837011 0.852638 0.863320
0.886119 0.900817 0.915996
0.719321 0.717000 0.707696
0.727143 0.726578 0.718289
0.750882 0.755392 0.750604
0.771129 0.779583 0.778246
0.792798 0.804731 0.807446
0.829643 0.845036 0.854596
0.868743 0.884368 0.898790
0.906493 0.919470 0.934190
0.929104 0.939618 0.952460
0.827445 0.842736 0.851911
0.831053 0.846562 0.856333
0.842068 0.857929 0.869454
0.852026 0.867984 0.880842
0.865954 0.881669 0.895898
0.883894 0.898746 0.913820
0.911964 0.924401 0.938816
0.937537 0.946991 0.958778
0.968826 0.973794 0.980325
0.907439 0.920348 0.935088
0.909280 0.922037 0.936634
0.913838 0.926102 0.940433
0.919596 0.931235 0.945083
0.928477 0.939080 0.952033
0.939414 0.948633 0.960189
0.955925 0.962833 0.971755
0.975585 0.979496 0.984693
0.991001 0.992447 0.994404
0.175280 0.157137 0.168398
0.184022 0.164811 0.175578
0.211795 0.189109 0.198119
0.252394 0.224981 0.231268
0.298581 0.266567 0.269246
0.437760 0.399611 0.389017
0.629435 0.608530 0.591932
0.765662 0.773131 0.770815
0.859128 0.875090 0.888777
0.211051 0.188428 0.197494
0.218149 0.194725 0.203311
0.241959 0.215724 0.222767
0.279718 0.249402 0.253644
0.324167 0.290073 0.290502
0.462766 0.424929 0.412172
0.643241 0.624848 0.608910
0.771826 0.780433 0.779209
0.861944 0.877830 0.891779
0.277077 0.247093 0.251514
0.299675 0.267564 0.270170
0.331657 0.297051 0.296762
0.366542 0.329965 0.326303
0.409934 0.371935 0.363931
0.540465 0.507372 0.490235
0.686162 0.676545 0.663653
0.792140 0.803993 0.806556
0.872072 0.887602 0.902289
0.305217 0.272619 0.274737
0.327575 0.293304 0.293400
0.402390 0.364544 0.357278
0.493548 0.456819 0.441726
0.537571 0.504142 0.487028
0.644270 0.626103 0.610230
0.742070 0.744740 0.738577
0.817551 0.832197 0.839614
0.880020 0.895134 0.910153
0.361044 0.324735 0.321599
0.383230 0.345958 0.340622
0.455298 0.417243 0.405036
0.561077 0.530106 0.512500
0.651648 0.634886 0.619390
0.699940 0.693334 0.681727
0.765205 0.772606 0.770197
0.827815 0.843154 0.852412
0.887496 0.902106 0.917296
0.536459 0.503019 0.486009
0.554370 0.522732 0.505278
0.606867 0.582188 0.564888
0.677276 0.665771 0.652121
0.728423 0.728159 0.720001
0.782944 0.793413 0.794251
0.809808 0.823633 0.829566
0.842263 0.858138 0.869707
0.897601 0.911418 0.926526
0.705455 0.700065 0.689116
0.713711 0.710170 0.700175
0.739217 0.741289 0.734705
0.775871 0.785149 0.784685
0.803067 0.816298 0.820971
0.832079 0.847592 0.857552
0.872156 0.887634 0.902264
0.903814 0.917032 0.931875
0.924785 0.935798 0.949096
0.819271 0.834031 0.841749
0.822989 0.837999 0.846386
0.835440 0.851107 0.861600
0.855151 0.871088 0.884305
0.870290 0.885860 0.900398
0.886699 0.901350 0.916497
0.912686 0.925048 0.939416
0.938864 0.948140 0.959755
0.968925 0.973884 0.980390
0.903288 0.916610 0.931533
0.905221 0.918353 0.933188
0.911410 0.923941 0.938422
0.921578 0.933001 0.946654
0.929908 0.940330 0.953109
0.940965 0.949966 0.961290
0.955448 0.962417 0.971443
0.976017 0.979862 0.984974
0.991745 0.993073 0.994858
0.305215 0.272678 0.274754
0.313782 0.280557 0.281871
0.340615 0.305448 0.304284
0.384252 0.346965 0.341519
0.425332 0.387179 0.377718
0.477146 0.439638 0.425691
0.609225 0.584835 0.567500
0.747162 0.750947 0.745547
0.850015 0.866018 0.878660
0.339764 0.304650 0.303600
0.346587 0.311100 0.309362
0.369819 0.333109 0.329109
0.408756 0.370818 0.362928
0.447272 0.409129 0.397670
0.496737 0.460135 0.444836
0.621364 0.598970 0.582024
0.753745 0.758857 0.754528
0.852877 0.868885 0.881896
0.431358 0.393174 0.383165
0.436544 0.398339 0.387855
0.454256 0.416205 0.404115
0.484849 0.447714 0.433206
0.517952 0.482840 0.466431
0.558877 0.527602 0.509985
0.661648 0.646860 0.631997
0.776793 0.786254 0.785944
0.864139 0.879948 0.894085
0.459212 0.421271 0.408782
0.478127 0.440723 0.426722
0.539390 0.506133 0.488940
0.583995 0.555897 0.538206
0.609631 0.585338 0.568047
0.640069 0.621042 0.604883
0.721784 0.720026 0.711040
0.809590 0.823505 0.829426
0.881641 0.896641 0.911728
0.497172 0.460645 0.445338
0.513249 0.477741 0.461524
0.563635 0.532933 0.515258
0.633123 0.612815 0.596335
0.690655 0.682008 0.669494
0.717112 0.714333 0.704720
0.782626 0.793016 0.793795
0.846241 0.862161 0.874260
0.901841 0.915280 0.930262
0.548743 0.516390 0.498965
0.562894 0.532118 0.514461
0.606658 0.581875 0.564484
0.667494 0.653886 0.639417
0.732139 0.732678 0.725061
0.786759 0.797812 0.799356
0.819103 0.833858 0.841557
0.864602 0.880381 0.894523
0.911263 0.923794 0.938267
0.684305 0.674282 0.661250
0.692918 0.684768 0.672542
0.720724 0.718735 0.709614
0.761093 0.767659 0.764574
0.804659 0.818031 0.823012
0.838368 0.854129 0.865106
0.876005 0.891300 0.906129
0.897686 0.911466 0.926486
0.923866 0.935001 0.948443
0.807885 0.821618 0.827210
0.811933 0.826055 0.832403
0.825136 0.840281 0.849050
0.845907 0.861834 0.873884
0.871639 0.887143 0.901741
0.892232 0.906470 0.921627
0.913440 0.925734 0.940049
0.941160 0.950121 0.961409
0.968643 0.973642 0.980206
0.897638 0.911452 0.926550
0.899320 0.912996 0.928048
0.905755 0.918833 0.933649
0.916587 0.928566 0.942650
0.931031 0.941329 0.953962
0.943167 0.951862 0.962872
0.956341 0.963187 0.972044
0.976687 0.980446 0.985385
0.992950 0.994098 0.995601
0.493824 0.457160 0.442085
0.500140 0.463806 0.448356
0.519581 0.484598 0.468105
0.550417 0.518263 0.500808
0.588296 0.560796 0.543122
0.609970 0.585713 0.568422
0.647623 0.629991 0.614223
0.744751 0.748017 0.742254
0.837163 0.852956 0.863790
0.517433 0.482255 0.465836
0.522661 0.487878 0.471261
0.539291 0.506004 0.488806
0.566576 0.536204 0.518509
0.600812 0.575108 0.557596
0.621046 0.598635 0.581646
0.656323 0.640421 0.625152
0.749111 0.753292 0.748170
0.839911 0.855789 0.867040
0.581028 0.552510 0.534806
0.584490 0.556440 0.538750
0.595926 0.569502 0.551930
0.615814 0.592503 0.575370
0.641933 0.623252 0.607184
0.659486 0.644257 0.629223
0.689191 0.680203 0.667537
0.768258 0.776250 0.774362
0.852354 0.868356 0.881302
0.624174 0.602287 0.585455
0.635308 0.615414 0.599040
0.663688 0.649316 0.634579
0.678652 0.667415 0.653823
0.696933 0.689656 0.677762
0.712237 0.708384 0.698176
0.734400 0.735438 0.728113
0.796047 0.808447 0.811756
0.871330 0.886868 0.901504
0.639174 0.619974 0.603761
0.648272 0.630807 0.615091
0.676951 0.665347 0.651595
0.721098 0.719209 0.710090
0.749594 0.753893 0.748875
0.763079 0.770074 0.767308
0.779844 0.789848 0.790101
0.831785 0.847297 0.857211
0.895082 0.909121 0.924262
0.665343 0.651305 0.636661
0.673675 0.661372 0.647374
0.698418 0.691463 0.679714
0.734836 0.735964 0.728712
0.774854 0.784001 0.783328
0.811577 0.825682 0.831975
0.828659 0.844006 0.853375
0.874499 0.889869 0.904598
0.921897 0.933271 0.946896
0.699653 0.692945 0.681372
0.706057 0.700808 0.689895
0.726677 0.726013 0.717649
0.758529 0.764627 0.761082
0.796105 0.808492 0.811834
0.838702 0.854462 0.865482
0.878365 0.893552 0.908482
0.903226 0.916532 0.931420
0.937787 0.947212 0.958993
0.791688 0.803470 0.805952
0.795759 0.808101 0.811355
0.809638 0.823570 0.829498
0.831784 0.847265 0.857184
0.860227 0.876083 0.889809
0.891808 0.906071 0.921217
0.917174 0.929071 0.943103
0.944155 0.952726 0.963577
0.966379 0.971711 0.978724
0.888136 0.902701 0.917899
0.889973 0.904423 0.919620
0.896779 0.910675 0.925786
0.908624 0.921430 0.936081
0.924433 0.935515 0.948886
0.943057 0.951770 0.962787
0.959119 0.965555 0.973913
0.976746 0.980493 0.985422
0.994347 0.995262 0.996490
0.673110 0.660682 0.646681
0.677180 0.665616 0.651910
0.686474 0.676909 0.664036
0.702086 0.695936 0.684593
0.721842 0.720114 0.711063
0.744033 0.747156 0.741240
0.750553 0.755042 0.750165
0.771511 0.780103 0.778820
0.844594 0.860559 0.872500
0.685314 0.675491 0.662478
0.688050 0.678817 0.666050
0.695517 0.687920 0.675876
0.709027 0.704412 0.693818
0.726355 0.725604 0.717167
0.746281 0.749861 0.744307
0.752605 0.757506 0.752969
0.773468 0.782407 0.781460
0.846089 0.862055 0.874201
0.717752 0.715092 0.705536
0.719040 0.716653 0.707256
0.724014 0.722752 0.713998
0.734721 0.735818 0.728545
0.748599 0.752682 0.747500
0.766040 0.773598 0.771339
0.773130 0.781989 0.780999
0.790968 0.802683 0.805030
0.855811 0.871782 0.885121
0.751340 0.755986 0.751242
0.754853 0.760221 0.756071
0.759725 0.766055 0.762712
0.768515 0.776523 0.774707
0.779916 0.789923 0.790181
0.793042 0.805041 0.807787
0.799514 0.812350 0.816347
0.813848 0.828185 0.834921
0.870122 0.885726 0.900293
0.753685 0.758810 0.754444
0.758324 0.764375 0.760796
0.774484 0.783578 0.782835
0.798852 0.811612 0.815478
0.810331 0.824353 0.830419
0.820480 0.835358 0.843312
0.828531 0.843910 0.853299
0.841149 0.856995 0.868394
0.888434 0.902964 0.918160
0.767865 0.775786 0.773832
0.772626 0.781406 0.780311
0.785151 0.796045 0.797274
0.805134 0.818618 0.823705
0.832096 0.847644 0.857628
0.852619 0.868597 0.881534
0.863084 0.878906 0.892901
0.874724 0.890097 0.904875
0.912843 0.925190 0.939567
0.786385 0.797424 0.798910
0.789956 0.801525 0.803674
0.801152 0.814204 0.818511
0.819323 0.834121 0.841868
0.842917 0.858815 0.870475
0.871313 0.886852 0.901440
0.898391 0.912126 0.927189
0.910273 0.922865 0.937399
0.943951 0.952539 0.963403
0.810296 0.824267 0.830341
0.813052 0.827313 0.833884
0.822269 0.837266 0.845538
0.838106 0.853885 0.864824
0.860136 0.876006 0.889735
0.887125 0.901740 0.916905
0.917386 0.929243 0.943257
0.947006 0.955185 0.965598
0.968905 0.973861 0.980376
0.877973 0.893202 0.908183
0.879846 0.894956 0.909998
0.886198 0.900908 0.916096
0.897825 0.911630 0.926720
0.915022 0.927150 0.941373
0.935598 0.945302 0.957368
0.958568 0.965076 0.973552
0.979158 0.982524 0.986977
0.996411 0.997009 0.997784
0.810056 0.824094 0.830137
0.811272 0.825402 0.831674
0.814831 0.829320 0.836255
0.821809 0.836809 0.845040
0.830930 0.846479 0.856290
0.841959 0.857881 0.869448
0.853918 0.869932 0.883077
0.858385 0.874342 0.887969
0.869566 0.885191 0.899748
0.813627 0.827993 0.834688
0.814543 0.828970 0.835863
0.818013 0.832747 0.840279
0.825649 0.840890 0.849808
0.834047 0.849729 0.860059
0.844447 0.860404 0.872318
0.855992 0.871976 0.885346
0.860249 0.876176 0.889958
0.871076 0.886645 0.901289
0.824643 0.839826 0.848554
0.826197 0.841487 0.850482
0.828795 0.844219 0.853679
0.833581 0.849223 0.859487
0.840951 0.856843 0.868269
0.850685 0.866699 0.879452
0.862892 0.878758 0.892784
0.868049 0.883727 0.898179
0.876883 0.892157 0.907095
0.842916 0.858831 0.870547
0.843896 0.859853 0.871686
0.846248 0.862225 0.874389
0.850623 0.866634 0.879370
0.856876 0.872836 0.886297
0.865382 0.881164 0.895390
0.876904 0.892193 0.907118
0.881447 0.896476 0.911549
0.889326 0.903792 0.919009
0.851911 0.867933 0.880811
0.853275 0.869255 0.882334
0.860033 0.875944 0.889734
0.869553 0.885174 0.899702
0.874662 0.890066 0.904883
0.882546 0.897498 0.912606
0.893980 0.908099 0.923255
0.898863 0.912577 0.927638
0.905990 0.919051 0.933837
0.853689 0.869700 0.882796
0.855382 0.871374 0.884669
0.861069 0.876982 0.890844
0.874327 0.889737 0.904499
0.892244 0.906494 0.921660
0.902959 0.916280 0.931184
0.912646 0.925026 0.939407
0.918618 0.930364 0.944275
0.924925 0.935954 0.949264
0.872786 0.888289 0.903006
0.874217 0.889632 0.904430
0.879181 0.894327 0.909350
0.888357 0.902918 0.918108
0.901365 0.914851 0.929847
0.918423 0.930182 0.944137
0.933753 0.943702 0.956008
0.942292 0.951099 0.962254
0.948989 0.956901 0.966979
0.890543 0.904910 0.920135
0.892427 0.906676 0.921867
0.897111 0.910976 0.926085
0.905182 0.918316 0.933152
0.916636 0.928603 0.942695
0.931215 0.941462 0.954089
0.949337 0.957186 0.967225
0.967534 0.972716 0.979508
0.978893 0.982292 0.986774
0.908598 0.921416 0.936065
0.909835 0.922507 0.937102
0.913947 0.926200 0.940505
0.921321 0.932765 0.946456
0.931991 0.942168 0.954696
0.945743 0.954101 0.964706
0.963791 0.969505 0.977020
0.985214 0.987617 0.990780
1.000000 1.000000 1.000000
