ml_luts/bw5__lut3d_33.cube
TITLE "BW5"
DOMAIN_MIN 0.000000 0.000000 0.000000
DOMAIN_MAX 1.000000 1.000000 1.000000
LUT_3D_SIZE 5
0.000000 0.000000 0.000000
0.070413 0.063745 0.076623
0.233265 0.207996 0.215625
0.578019 0.549134 0.531441
0.831449 0.847013 0.856901
0.089974 0.081330 0.095545
0.162783 0.146103 0.158032
0.273369 0.243763 0.248436
0.599317 0.573404 0.555909
0.836950 0.852720 0.863516
0.369055 0.332479 0.328542
0.417021 0.378985 0.370306
0.629618 0.608713 0.592103
0.705516 0.700160 0.689330
0.855131 0.871122 0.884398
0.715885 0.712802 0.703060
0.731073 0.731361 0.723598
0.779301 0.789189 0.789349
0.865522 0.881267 0.895445
0.931678 0.941894 0.954429
0.905425 0.918517 0.933349
0.910010 0.922682 0.937255
0.925673 0.936599 0.949859
0.955810 0.962738 0.971687
0.990143 0.991730 0.993866
0.060837 0.052811 0.067628
0.081536 0.073846 0.087425
0.311982 0.278924 0.280400
0.631735 0.611179 0.594659
0.842573 0.858511 0.870153
0.093055 0.083892 0.098318
0.178099 0.159571 0.170643
0.372666 0.335820 0.331559
0.645628 0.627656 0.611804
0.847055 0.863056 0.875339
0.382773 0.345621 0.340307
0.461534 0.423645 0.410950
0.638096 0.618757 0.602552
0.706244 0.701047 0.690255
0.863916 0.879751 0.893866
0.726965 0.726328 0.718008
0.741557 0.744114 0.737882
0.784175 0.794841 0.795909
0.866659 0.882351 0.896620
0.930913 0.941188 0.953830
0.906737 0.919730 0.934500
0.911418 0.923936 0.938411
0.927032 0.937816 0.950912
0.955930 0.962837 0.971767
0.990418 0.991966 0.994033
0.175280 0.157137 0.168398
0.211795 0.189109 0.198119
0.298581 0.266567 0.269246
0.629435 0.608530 0.591932
0.859128 0.875090 0.888777
0.277077 0.247093 0.251514
0.331657 0.297051 0.296762
0.409934 0.371935 0.363931
0.686162 0.676545 0.663653
0.872072 0.887602 0.902289
0.361044 0.324735 0.321599
0.455298 0.417243 0.405036
0.651648 0.634886 0.619390
0.765205 0.772606 0.770197
0.887496 0.902106 0.917296
0.705455 0.700065 0.689116
0.739217 0.741289 0.734705
0.803067 0.816298 0.820971
0.872156 0.887634 0.902264
0.924785 0.935798 0.949096
0.903288 0.916610 0.931533
0.911410 0.923941 0.938422
0.929908 0.940330 0.953109
0.955448 0.962417 0.971443
0.991745 0.993073 0.994858
0.493824 0.457160 0.442085
0.519581 0.484598 0.468105
0.588296 0.560796 0.543122
0.647623 0.629991 0.614223
0.837163 0.852956 0.863790
0.581028 0.552510 0.534806
0.595926 0.569502 0.551930
0.641933 0.623252 0.607184
0.689191 0.680203 0.667537
0.852354 0.868356 0.881302
0.639174 0.619974 0.603761
0.676951 0.665347 0.651595
0.749594 0.753893 0.748875
0.779844 0.789848 0.790101
0.895082 0.909121 0.924262
0.699653 0.692945 0.681372
0.726677 0.726013 0.717649
0.796105 0.808492 0.811834
0.878365 0.893552 0.908482
0.937787 0.947212 0.958993
0.888136 0.902701 0.917899
0.896779 0.910675 0.925786
0.924433 0.935515 0.948886
0.959119 0.965555 0.973913
0.994347 0.995262 0.996490
0.810056 0.824094 0.830137
0.814831 0.829320 0.836255
0.830930 0.846479 0.856290
0.853918 0.869932 0.883077
0.869566 0.885191 0.899748
0.824643 0.839826 0.848554
0.828795 0.844219 0.853679
0.840951 0.856843 0.868269
0.862892 0.878758 0.892784
0.876883 0.892157 0.907095
0.851911 0.867933 0.880811
0.860033 0.875944 0.889734
0.874662 0.890066 0.904883
0.893980 0.908099 0.923255
0.905990 0.919051 0.933837
0.872786 0.888289 0.903006
0.879181 0.894327 0.909350
0.901365 0.914851 0.929847
0.933753 0.943702 0.956008
0.948989 0.956901 0.966979
0.908598 0.921416 0.936065
0.913947 0.926200 0.940505
0.931991 0.942168 0.954696
0.963791 0.969505 0.977020
1.000000 1.000000 1.000000
