ml_luts/bw6__lut3d_33.cube
TITLE "BW6"
DOMAIN_MIN 0.000000 0.000000 0.000000
DOMAIN_MAX 1.000000 1.000000 1.000000
LUT_3D_SIZE 9
0.108125 0.108125 0.108125
0.109083 0.109083 0.109083
0.112138 0.112138 0.112138
0.120516 0.120516 0.120516
0.135622 0.135622 0.135622
0.155829 0.155829 0.155829
0.204181 0.204181 0.204181
0.310670 0.310670 0.310670
0.521386 0.521386 0.521386
0.110544 0.110544 0.110544
0.113159 0.113159 0.113159
0.119910 0.119910 0.119910
0.129070 0.129070 0.129070
0.142853 0.142853 0.142853
0.165700 0.165700 0.165700
0.220663 0.220663 0.220663
0.332247 0.332247 0.332247
0.545864 0.545864 0.545864
0.123010 0.123010 0.123010
0.125497 0.125497 0.125497
0.138969 0.138969 0.138969
0.158083 0.158083 0.158083
0.180220 0.180220 0.180220
0.216588 0.216588 0.216588
0.286219 0.286219 0.286219
0.413454 0.413454 0.413454
0.619852 0.619852 0.619852
0.147948 0.147948 0.147948
0.150098 0.150098 0.150098
0.159194 0.159194 0.159194
0.200752 0.200752 0.200752
0.272951 0.272951 0.272951
0.337072 0.337072 0.337072
0.421358 0.421358 0.421358
0.558108 0.558108 0.558108
0.709113 0.709113 0.709113
0.204242 0.204242 0.204242
0.208324 0.208324 0.208324
0.223316 0.223316 0.223316
0.261820 0.261820 0.261820
0.347639 0.347639 0.347639
0.478657 0.478657 0.478657
0.586496 0.586496 0.586496
0.693225 0.693225 0.693225
0.791516 0.791516 0.791516
0.317670 0.317670 0.317670
0.322593 0.322593 0.322593
0.340301 0.340301 0.340301
0.373774 0.373774 0.373774
0.453519 0.453519 0.453519
0.567366 0.567366 0.567366
0.692683 0.692683 0.692683
0.770708 0.770708 0.770708
0.854738 0.854738 0.854738
0.507466 0.507466 0.507466
0.512742 0.512742 0.512742
0.531264 0.531264 0.531264
0.563370 0.563370 0.563370
0.607908 0.607908 0.607908
0.680094 0.680094 0.680094
0.745109 0.745109 0.745109
0.828651 0.828651 0.828651
0.890196 0.890196 0.890196
0.703735 0.703735 0.703735
0.706473 0.706473 0.706473
0.715888 0.715888 0.715888
0.732187 0.732187 0.732187
0.754536 0.754536 0.754536
0.786924 0.786924 0.786924
0.830493 0.830493 0.830493
0.868095 0.868095 0.868095
0.917701 0.917701 0.917701
0.846860 0.846860 0.846860
0.848356 0.848356 0.848356
0.853468 0.853468 0.853468
0.862303 0.862303 0.862303
0.874388 0.874388 0.874388
0.888857 0.888857 0.888857
0.909323 0.909323 0.909323
0.931113 0.931113 0.931113
0.950958 0.950958 0.950958
0.108683 0.108683 0.108683
0.110030 0.110030 0.110030
0.115185 0.115185 0.115185
0.124325 0.124325 0.124325
0.139014 0.139014 0.139014
0.159605 0.159605 0.159605
0.209096 0.209096 0.209096
0.313657 0.313657 0.313657
0.519936 0.519936 0.519936
0.110240 0.110240 0.110240
0.114731 0.114731 0.114731
0.121268 0.121268 0.121268
0.131885 0.131885 0.131885
0.145746 0.145746 0.145746
0.169798 0.169798 0.169798
0.225343 0.225343 0.225343
0.335016 0.335016 0.335016
0.544403 0.544403 0.544403
0.124259 0.124259 0.124259
0.130012 0.130012 0.130012
0.140969 0.140969 0.140969
0.160294 0.160294 0.160294
0.182482 0.182482 0.182482
0.220179 0.220179 0.220179
0.289782 0.289782 0.289782
0.415193 0.415193 0.415193
0.618398 0.618398 0.618398
0.150574 0.150574 0.150574
0.154894 0.154894 0.154894
0.164314 0.164314 0.164314
0.205590 0.205590 0.205590
0.275933 0.275933 0.275933
0.339323 0.339323 0.339323
0.422681 0.422681 0.422681
0.558353 0.558353 0.558353
0.708032 0.708032 0.708032
0.212225 0.212225 0.212225
0.216500 0.216500 0.216500
0.231664 0.231664 0.231664
0.267855 0.267855 0.267855
0.352710 0.352710 0.352710
0.481058 0.481058 0.481058
0.589186 0.589186 0.589186
0.692812 0.692812 0.692812
0.790842 0.790842 0.790842
0.326591 0.326591 0.326591
0.331486 0.331486 0.331486
0.349189 0.349189 0.349189
0.382545 0.382545 0.382545
0.459341 0.459341 0.459340
0.571165 0.571165 0.571165
0.693684 0.693684 0.693684
0.771576 0.771576 0.771576
0.855219 0.855219 0.855219
0.515403 0.515403 0.515403
0.520664 0.520664 0.520664
0.538733 0.538733 0.538733
0.569970 0.569970 0.569970
0.612614 0.612614 0.612614
0.682374 0.682374 0.682374
0.746532 0.746532 0.746532
0.829393 0.829393 0.829393
0.890563 0.890563 0.890563
0.706689 0.706689 0.706689
0.709344 0.709344 0.709344
0.718593 0.718593 0.718593
0.734634 0.734634 0.734634
0.756661 0.756661 0.756661
0.787981 0.787981 0.787981
0.831245 0.831245 0.831245
0.868622 0.868622 0.868622
0.918060 0.918060 0.918060
0.847723 0.847723 0.847723
0.849187 0.849187 0.849187
0.854250 0.854250 0.854250
0.863022 0.863022 0.863022
0.874993 0.874993 0.874993
0.889381 0.889381 0.889381
0.909526 0.909526 0.909526
0.931285 0.931285 0.931285
0.951129 0.951129 0.951129
0.110010 0.110010 0.110010
0.111235 0.111235 0.111235
0.120220 0.120220 0.120220
0.141090 0.141090 0.141090
0.149668 0.149668 0.149668
0.165893 0.165893 0.165893
0.214090 0.214090 0.214090
0.312730 0.312730 0.312730
0.504662 0.504662 0.504662
0.114509 0.114509 0.114509
0.118363 0.118363 0.118363
0.127592 0.127592 0.127592
0.143934 0.143934 0.143934
0.152905 0.152905 0.152905
0.174308 0.174308 0.174308
0.229932 0.229932 0.229932
0.333597 0.333597 0.333597
0.529920 0.529920 0.529920
0.123571 0.123571 0.123571
0.129677 0.129677 0.129677
0.145722 0.145722 0.145722
0.159317 0.159317 0.159317
0.182530 0.182530 0.182530
0.223208 0.223208 0.223208
0.292471 0.292471 0.292471
0.412204 0.412204 0.412204
0.607464 0.607464 0.607464
0.148968 0.148968 0.148968
0.155243 0.155243 0.155243
0.179750 0.179750 0.179750
0.219243 0.219243 0.219243
0.282822 0.282822 0.282822
0.337958 0.337958 0.337958
0.421573 0.421573 0.421573
0.554211 0.554211 0.554211
0.701682 0.701682 0.701682
0.209651 0.209651 0.209651
0.221276 0.221276 0.221276
0.256095 0.256095 0.256095
0.287450 0.287450 0.287450
0.368748 0.368748 0.368748
0.488562 0.488562 0.488562
0.595546 0.595546 0.595546
0.690012 0.690012 0.690012
0.787346 0.787346 0.787346
0.329825 0.329825 0.329825
0.343359 0.343359 0.343359
0.377323 0.377323 0.377323
0.410638 0.410638 0.410638
0.477425 0.477425 0.477425
0.583325 0.583325 0.583325
0.697062 0.697062 0.697062
0.774259 0.774259 0.774259
0.854964 0.854964 0.854964
0.525067 0.525067 0.525067
0.537558 0.537558 0.537558
0.561655 0.561655 0.561655
0.590299 0.590299 0.590299
0.627952 0.627952 0.627952
0.689529 0.689529 0.689529
0.751245 0.751245 0.751245
0.831916 0.831916 0.831916
0.891732 0.891732 0.891732
0.713210 0.713210 0.713210
0.717893 0.717893 0.717893
0.727108 0.727108 0.727108
0.742387 0.742387 0.742387
0.763483 0.763483 0.763483
0.791381 0.791381 0.791381
0.833632 0.833632 0.833632
0.870336 0.870336 0.870336
0.919310 0.919310 0.919310
0.850401 0.850401 0.850401
0.851828 0.851828 0.851828
0.856741 0.856741 0.856741
0.865294 0.865294 0.865294
0.876970 0.876970 0.876970
0.891049 0.891049 0.891049
0.910101 0.910101 0.910101
0.931861 0.931861 0.931861
0.951674 0.951674 0.951674
0.113432 0.113432 0.113432
0.115595 0.115595 0.115595
0.123762 0.123762 0.123762
0.141224 0.141224 0.141224
0.193366 0.193366 0.193366
0.226607 0.226607 0.226607
0.267203 0.267203 0.267203
0.326276 0.326276 0.326276
0.450919 0.450919 0.450919
0.122187 0.122187 0.122187
0.124353 0.124353 0.124353
0.131625 0.131625 0.131625
0.147227 0.147227 0.147227
0.202649 0.202649 0.202649
0.232612 0.232612 0.232612
0.272945 0.272945 0.272945
0.333125 0.333125 0.333125
0.478718 0.478718 0.478718
0.131308 0.131308 0.131308
0.136771 0.136771 0.136771
0.152856 0.152856 0.152856
0.172912 0.172912 0.172912
0.227381 0.227381 0.227381
0.253031 0.253031 0.253031
0.296474 0.296474 0.296474
0.388884 0.388884 0.388884
0.568530 0.568530 0.568530
0.147060 0.147060 0.147060
0.152691 0.152691 0.152691
0.177883 0.177883 0.177883
0.236830 0.236830 0.236830
0.279300 0.279300 0.279300
0.329318 0.329318 0.329318
0.409692 0.409692 0.409692
0.534226 0.534226 0.534226
0.680830 0.680830 0.680830
0.203145 0.203145 0.203145
0.214130 0.214130 0.214130
0.254735 0.254735 0.254735
0.324317 0.324317 0.324317
0.396990 0.396990 0.396990
0.499925 0.499925 0.499925
0.590832 0.590832 0.590832
0.680316 0.680316 0.680316
0.776801 0.776801 0.776801
0.321915 0.321915 0.321915
0.335123 0.335123 0.335123
0.381601 0.381601 0.381601
0.454214 0.454214 0.454214
0.507034 0.507034 0.507034
0.602138 0.602138 0.602138
0.702377 0.702377 0.702377
0.777723 0.777723 0.777723
0.851671 0.851671 0.851671
0.516380 0.516380 0.516380
0.528961 0.528961 0.528961
0.569716 0.569716 0.569716
0.619313 0.619313 0.619313
0.651858 0.651858 0.651858
0.700196 0.700196 0.700196
0.758947 0.758947 0.758947
0.835272 0.835272 0.835272
0.893444 0.893444 0.893444
0.708565 0.708565 0.708565
0.714068 0.714068 0.714068
0.732119 0.732119 0.732119
0.753944 0.753944 0.753944
0.773859 0.773859 0.773859
0.798346 0.798346 0.798346
0.837315 0.837315 0.837315
0.873219 0.873219 0.873219
0.921510 0.921510 0.921510
0.848390 0.848390 0.848390
0.850814 0.850814 0.850814
0.858863 0.858863 0.858863
0.868639 0.868639 0.868639
0.879957 0.879957 0.879957
0.893641 0.893641 0.893641
0.910823 0.910823 0.910823
0.932765 0.932765 0.932765
0.952663 0.952663 0.952663
0.121690 0.121690 0.121690
0.124105 0.124105 0.124105
0.132155 0.132155 0.132155
0.144419 0.144419 0.144419
0.177935 0.177935 0.177935
0.293318 0.293318 0.293318
0.402666 0.402666 0.402666
0.485378 0.485378 0.485378
0.592432 0.592432 0.592432
0.130865 0.130865 0.130865
0.132818 0.132818 0.132818
0.139236 0.139236 0.139236
0.151053 0.151053 0.151053
0.188426 0.188426 0.188426
0.307519 0.307519 0.307519
0.408929 0.408929 0.408929
0.489716 0.489716 0.489716
0.592941 0.592941 0.592941
0.146418 0.146418 0.146418
0.152457 0.152457 0.152457
0.163708 0.163708 0.163708
0.181895 0.181895 0.181895
0.229778 0.229778 0.229778
0.352817 0.352817 0.352817
0.429534 0.429534 0.429534
0.503079 0.503079 0.503079
0.592542 0.592542 0.592542
0.158032 0.158032 0.158032
0.164867 0.164867 0.164867
0.195652 0.195652 0.195652
0.259659 0.259659 0.259659
0.310620 0.310620 0.310620
0.412352 0.412352 0.412352
0.460556 0.460556 0.460556
0.520360 0.520360 0.520360
0.622948 0.622948 0.622948
0.197490 0.197490 0.197490
0.207858 0.207858 0.207858
0.246918 0.246918 0.246918
0.321087 0.321087 0.321087
0.425719 0.425719 0.425719
0.491733 0.491733 0.491733
0.562953 0.562953 0.562953
0.651658 0.651658 0.651652
0.747913 0.747913 0.747913
0.309497 0.309497 0.309497
0.322324 0.322324 0.322324
0.367869 0.367869 0.367869
0.450092 0.450092 0.450092
0.551046 0.551046 0.551046
0.627591 0.627591 0.627591
0.707962 0.707962 0.707962
0.772339 0.772339 0.772339
0.840898 0.840898 0.840898
0.502613 0.502613 0.502613
0.515284 0.515284 0.515284
0.556750 0.556750 0.556750
0.618142 0.618142 0.618142
0.677249 0.677249 0.677249
0.713205 0.713205 0.713205
0.769105 0.769105 0.769105
0.838949 0.838949 0.838949
0.895037 0.895037 0.895037
0.700936 0.700936 0.700936
0.706558 0.706558 0.706558
0.724991 0.724991 0.724991
0.754050 0.754050 0.754050
0.785856 0.785856 0.785856
0.808830 0.808830 0.808830
0.841589 0.841589 0.841589
0.877143 0.877143 0.877143
0.924426 0.924426 0.924426
0.844388 0.844388 0.844388
0.846860 0.846860 0.846860
0.855081 0.855081 0.855081
0.868469 0.868469 0.868469
0.883367 0.883367 0.883367
0.896769 0.896769 0.896769
0.912032 0.912032 0.912032
0.933879 0.933879 0.933879
0.954071 0.954071 0.954071
0.133897 0.133897 0.133897
0.136010 0.136010 0.136010
0.142846 0.142846 0.142846
0.156299 0.156299 0.156299
0.185788 0.185788 0.185788
0.262753 0.262753 0.262753
0.451328 0.451328 0.451328
0.652684 0.652684 0.652684
0.732479 0.732479 0.732479
0.141529 0.141529 0.141529
0.143329 0.143329 0.143329
0.150123 0.150123 0.150123
0.165178 0.165178 0.165178
0.197482 0.197482 0.197482
0.276459 0.276459 0.276459
0.466334 0.466334 0.466334
0.656728 0.656728 0.656728
0.733123 0.733123 0.733123
0.169009 0.169009 0.169009
0.171712 0.171712 0.171712
0.182231 0.182231 0.182231
0.204461 0.204461 0.204461
0.242948 0.242948 0.242948
0.324825 0.324825 0.324825
0.516133 0.516133 0.516133
0.664777 0.664777 0.664777
0.734529 0.734529 0.734529
0.182146 0.182146 0.182146
0.193142 0.193142 0.193142
0.240873 0.240873 0.240873
0.289688 0.289688 0.289688
0.330762 0.330762 0.330762
0.412474 0.412474 0.412474
0.589697 0.589697 0.589697
0.675345 0.675345 0.675345
0.733929 0.733929 0.733929
0.227285 0.227285 0.227285
0.238401 0.238401 0.238401
0.278804 0.278804 0.278804
0.353652 0.353652 0.353652
0.461157 0.461157 0.461157
0.533017 0.533017 0.533017
0.644983 0.644983 0.644983
0.685185 0.685185 0.685185
0.728174 0.728174 0.728174
0.304658 0.304658 0.304658
0.316673 0.316673 0.316673
0.359502 0.359502 0.359502
0.438357 0.438357 0.438357
0.545373 0.545373 0.545373
0.650781 0.650781 0.650781
0.698297 0.698297 0.698297
0.746016 0.746016 0.746016
0.812451 0.812451 0.812451
0.479842 0.479842 0.479842
0.492926 0.492926 0.492926
0.536371 0.536371 0.536371
0.601176 0.601176 0.601176
0.670943 0.670943 0.670943
0.735872 0.735872 0.735872
0.783811 0.783811 0.783811
0.842348 0.842348 0.842348
0.892008 0.892008 0.892008
0.689367 0.689367 0.689367
0.695191 0.695191 0.695191
0.714236 0.714236 0.714236
0.744067 0.744067 0.744067
0.782119 0.782119 0.782119
0.821687 0.821687 0.821687
0.847259 0.847259 0.847259
0.882513 0.882513 0.882513
0.927518 0.927518 0.927518
0.838194 0.838194 0.838194
0.840753 0.840753 0.840753
0.849295 0.849295 0.849295
0.863256 0.863256 0.863256
0.881481 0.881481 0.881481
0.900612 0.900612 0.900612
0.915470 0.915470 0.915470
0.935206 0.935206 0.935206
0.956028 0.956028 0.956028
0.150767 0.150767 0.150767
0.153141 0.153141 0.153141
0.162476 0.162476 0.162476
0.183314 0.183314 0.183314
0.221736 0.221736 0.221736
0.289724 0.289724 0.289724
0.412993 0.412993 0.412993
0.649391 0.649391 0.649391
0.817784 0.817784 0.817784
0.160072 0.160072 0.160072
0.162765 0.162765 0.162765
0.173188 0.173188 0.173188
0.196064 0.196064 0.196064
0.236089 0.236089 0.236089
0.303889 0.303889 0.303889
0.427864 0.427864 0.427864
0.657269 0.657269 0.657269
0.820901 0.820901 0.820901
0.199824 0.199824 0.199824
0.203536 0.203536 0.203536
0.217442 0.217442 0.217442
0.244527 0.244527 0.244527
0.287430 0.287430 0.287430
0.354040 0.354040 0.354040
0.478842 0.478842 0.478842
0.682332 0.682332 0.682332
0.826362 0.826362 0.826362
0.249442 0.249442 0.249442
0.264633 0.264633 0.264633
0.304985 0.304985 0.304985
0.335303 0.335303 0.335303
0.380226 0.380226 0.380226
0.445065 0.445065 0.445065
0.558176 0.558176 0.558176
0.719263 0.719263 0.719263
0.832298 0.832298 0.832298
0.274144 0.274144 0.274144
0.285500 0.285500 0.285500
0.328266 0.328266 0.328266
0.423904 0.423904 0.423904
0.510886 0.510886 0.510886
0.564549 0.564549 0.564549
0.643466 0.643466 0.643466
0.763659 0.763659 0.763659
0.834710 0.834710 0.834710
0.360765 0.360765 0.360765
0.372890 0.372890 0.372890
0.415886 0.415886 0.415886
0.490454 0.490454 0.490454
0.583839 0.583839 0.583839
0.677238 0.677238 0.677238
0.724064 0.724064 0.724064
0.799554 0.799554 0.799554
0.834335 0.834335 0.834335
0.480852 0.480852 0.480852
0.492701 0.492701 0.492701
0.532015 0.532015 0.532015
0.592282 0.592282 0.592282
0.661252 0.661252 0.661252
0.731499 0.731499 0.731499
0.799779 0.799779 0.799779
0.833391 0.833391 0.833391
0.871445 0.871445 0.871445
0.668044 0.668044 0.668044
0.674563 0.674563 0.674563
0.695643 0.695643 0.695643
0.728371 0.728371 0.728371
0.769617 0.769617 0.769617
0.815994 0.815994 0.815994
0.860214 0.860214 0.860214
0.890352 0.890352 0.890352
0.930251 0.930251 0.930251
0.828824 0.828824 0.828824
0.831506 0.831506 0.831506
0.840509 0.840509 0.840509
0.855455 0.855455 0.855455
0.874975 0.874975 0.874975
0.897409 0.897409 0.897409
0.920029 0.920029 0.920029
0.936685 0.936685 0.936685
0.958602 0.958602 0.958602
0.195563 0.195563 0.195563
0.200083 0.200083 0.200083
0.216811 0.216811 0.216811
0.248969 0.248969 0.248969
0.299287 0.299287 0.299287
0.370016 0.370016 0.370016
0.489420 0.489420 0.489420
0.628755 0.628755 0.628755
0.803636 0.803636 0.803636
0.211031 0.211031 0.211031
0.215619 0.215619 0.215619
0.232562 0.232562 0.232562
0.264942 0.264942 0.264942
0.315313 0.315313 0.315313
0.386230 0.386230 0.386230
0.503268 0.503268 0.503268
0.637125 0.637125 0.637125
0.807007 0.807007 0.807007
0.264347 0.264347 0.264347
0.269232 0.269232 0.269232
0.286775 0.286775 0.286773
0.319776 0.319776 0.319776
0.370830 0.370830 0.370830
0.442458 0.442458 0.442458
0.547897 0.547897 0.547897
0.663439 0.663439 0.663439
0.818278 0.818278 0.818278
0.355525 0.355525 0.355525
0.363247 0.363247 0.363247
0.381520 0.381520 0.381520
0.415804 0.415804 0.415804
0.467476 0.467476 0.467476
0.532790 0.532790 0.532790
0.611624 0.611624 0.611624
0.701452 0.701452 0.701452
0.836363 0.836363 0.836363
0.363317 0.363317 0.363317
0.379951 0.379951 0.379951
0.439886 0.439886 0.439886
0.532224 0.532224 0.532224
0.581245 0.581245 0.581245
0.628354 0.628354 0.628354
0.677806 0.677806 0.677806
0.746587 0.746587 0.746587
0.859600 0.859600 0.859600
0.444545 0.444545 0.444545
0.455939 0.455939 0.455939
0.494084 0.494084 0.494084
0.554558 0.554558 0.554558
0.647734 0.647734 0.647734
0.714119 0.714119 0.714119
0.748067 0.748067 0.748067
0.798081 0.798081 0.798081
0.885835 0.885835 0.885835
0.572739 0.572739 0.572739
0.581397 0.581397 0.581397
0.609267 0.609267 0.609267
0.650940 0.650940 0.650940
0.701302 0.701302 0.701302
0.757085 0.757085 0.757085
0.818767 0.818767 0.818767
0.851333 0.851333 0.851333
0.906280 0.906280 0.906280
0.679070 0.679070 0.679070
0.684185 0.684185 0.684185
0.700990 0.700990 0.700990
0.728691 0.728691 0.728691
0.765617 0.765617 0.765617
0.809512 0.809512 0.809512
0.856296 0.856296 0.856296
0.900370 0.900370 0.900370
0.922898 0.922898 0.922898
0.810346 0.810346 0.810346
0.813405 0.813405 0.813405
0.823872 0.823872 0.823872
0.841423 0.841423 0.841423
0.864136 0.864136 0.864136
0.889486 0.889486 0.889486
0.915752 0.915752 0.915752
0.941934 0.941934 0.941934
0.962085 0.962085 0.962085
0.343816 0.343816 0.343816
0.350702 0.350702 0.350702
0.375700 0.375700 0.375700
0.422198 0.422198 0.422198
0.490783 0.490783 0.490783
0.571343 0.571343 0.571343
0.647555 0.647555 0.647555
0.734348 0.734348 0.734348
0.808072 0.808072 0.808072
0.362402 0.362402 0.362402
0.369262 0.369262 0.369262
0.393996 0.393996 0.393996
0.440306 0.440306 0.440306
0.506819 0.506819 0.506819
0.583767 0.583767 0.583767
0.655780 0.655780 0.655780
0.738811 0.738811 0.738811
0.811032 0.811032 0.811032
0.423652 0.423652 0.423652
0.430466 0.430466 0.430466
0.454866 0.454866 0.454866
0.498060 0.498060 0.498060
0.556729 0.556729 0.556729
0.621310 0.621310 0.621310
0.681369 0.681369 0.681369
0.753491 0.753491 0.753491
0.820837 0.820837 0.820837
0.518353 0.518353 0.518353
0.524275 0.524275 0.524275
0.544664 0.544664 0.544664
0.579290 0.579290 0.579290
0.623585 0.623585 0.623585
0.671019 0.671019 0.671019
0.717627 0.717627 0.717627
0.776163 0.776163 0.776163
0.836744 0.836744 0.836744
0.563180 0.563180 0.563180
0.577140 0.577140 0.577140
0.619787 0.619787 0.619787
0.655499 0.655499 0.655499
0.686145 0.686145 0.686145
0.721231 0.721231 0.721231
0.758927 0.758927 0.758927
0.804847 0.804847 0.804847
0.857542 0.857542 0.857542
0.566552 0.566552 0.566552
0.574281 0.574281 0.574281
0.610055 0.610055 0.610055
0.670148 0.670148 0.670148
0.738433 0.738433 0.738433
0.774061 0.774061 0.774061
0.805333 0.805333 0.805333
0.837985 0.837985 0.837985
0.881567 0.881567 0.881567
0.685214 0.685214 0.685214
0.689088 0.689088 0.689088
0.702083 0.702083 0.702083
0.723950 0.723950 0.723950
0.753536 0.753536 0.753536
0.805391 0.805391 0.805391
0.852743 0.852743 0.852743
0.876535 0.876535 0.876535
0.907858 0.907858 0.907858
0.774170 0.774170 0.774170
0.776785 0.776785 0.776785
0.785887 0.785887 0.785887
0.801705 0.801705 0.801705
0.823388 0.823388 0.823388
0.849533 0.849533 0.849533
0.878677 0.878677 0.878677
0.914706 0.914706 0.914706
0.936103 0.936103 0.936103
0.845151 0.845151 0.845151
0.846849 0.846849 0.846849
0.852880 0.852880 0.852880
0.863298 0.863298 0.863298
0.877668 0.877668 0.877668
0.895400 0.895400 0.895400
0.916136 0.916136 0.916136
0.939723 0.939723 0.939723
0.967590 0.967590 0.967590
