ml_luts/bw6__lut3d_33.cube
TITLE "BW6"
DOMAIN_MIN 0.000000 0.000000 0.000000
DOMAIN_MAX 1.000000 1.000000 1.000000
LUT_3D_SIZE 33
0.108125 0.108125 0.108125
0.108125 0.108125 0.108125
0.108297 0.108297 0.108297
0.108696 0.108696 0.108696
0.109083 0.109083 0.109083
0.109622 0.109622 0.109622
0.110208 0.110208 0.110208
0.111062 0.111062 0.111062
0.112138 0.112138 0.112138
0.113503 0.113503 0.113503
0.115351 0.115351 0.115351
0.117661 0.117661 0.117661
0.120516 0.120516 0.120516
0.123917 0.123917 0.123917
0.127661 0.127661 0.127661
0.131569 0.131569 0.131569
0.135622 0.135622 0.135622
0.139818 0.139818 0.139818
0.144316 0.144316 0.144316
0.149515 0.149515 0.149515
0.155829 0.155829 0.155829
0.163852 0.163852 0.163852
0.174269 0.174269 0.174269
0.187531 0.187531 0.187531
0.204181 0.204181 0.204181
0.224333 0.224333 0.224333
0.248530 0.248530 0.248530
0.277056 0.277056 0.277056
0.310670 0.310670 0.310670
0.350464 0.350464 0.350464
0.398373 0.398373 0.398373
0.456181 0.456181 0.456181
0.521386 0.521386 0.521386
0.108303 0.108303 0.108303
0.108503 0.108503 0.108503
0.108709 0.108709 0.108709
0.109083 0.109083 0.109083
0.109622 0.109622 0.109622
0.110209 0.110209 0.110209
0.110752 0.110752 0.110752
0.111617 0.111617 0.111617
0.112700 0.112700 0.112700
0.114193 0.114193 0.114193
0.116049 0.116049 0.116049
0.118458 0.118458 0.118458
0.121354 0.121354 0.121354
0.124744 0.124744 0.124744
0.128455 0.128455 0.128455
0.132337 0.132337 0.132337
0.136361 0.136361 0.136361
0.140528 0.140528 0.140528
0.145012 0.145012 0.145012
0.150279 0.150279 0.150279
0.156794 0.156794 0.156794
0.164946 0.164946 0.164946
0.175474 0.175474 0.175474
0.189012 0.189012 0.189012
0.205792 0.205792 0.205792
0.226109 0.226109 0.226109
0.250438 0.250438 0.250438
0.279065 0.279065 0.279065
0.312865 0.312865 0.312865
0.352934 0.352934 0.352934
0.401006 0.401006 0.401006
0.458841 0.458841 0.458841
0.523987 0.523987 0.523987
0.108509 0.108509 0.108509
0.108716 0.108716 0.108716
0.109084 0.109084 0.109084
0.109623 0.109623 0.109623
0.110209 0.110209 0.110209
0.110751 0.110751 0.110751
0.111470 0.111470 0.111470
0.112357 0.112357 0.112357
0.113541 0.113541 0.113541
0.115073 0.115073 0.115073
0.117048 0.117048 0.117048
0.119589 0.119589 0.119589
0.122508 0.122508 0.122508
0.125870 0.125870 0.125870
0.129633 0.129633 0.129633
0.133458 0.133458 0.133458
0.137372 0.137372 0.137372
0.141497 0.141497 0.141497
0.146051 0.146051 0.146051
0.151425 0.151425 0.151425
0.158019 0.158019 0.158019
0.166443 0.166443 0.166443
0.177216 0.177216 0.177216
0.190993 0.190993 0.190993
0.208026 0.208026 0.208026
0.228572 0.228572 0.228572
0.253061 0.253061 0.253061
0.281894 0.281894 0.281894
0.315822 0.315822 0.315822
0.356107 0.356107 0.356107
0.404503 0.404503 0.404503
0.462441 0.462441 0.462441
0.527476 0.527476 0.527476
0.109435 0.109435 0.109435
0.109454 0.109454 0.109454
0.109645 0.109645 0.109645
0.110509 0.110509 0.110509
0.111712 0.111712 0.111712
0.112801 0.112801 0.112801
0.113574 0.113574 0.113574
0.114451 0.114451 0.114451
0.115767 0.115767 0.115767
0.117422 0.117422 0.117422
0.119493 0.119493 0.119493
0.122032 0.122032 0.122032
0.124986 0.124986 0.124986
0.128327 0.128327 0.128327
0.131920 0.131920 0.131920
0.135677 0.135677 0.135677
0.139526 0.139526 0.139526
0.143642 0.143642 0.143642
0.148304 0.148304 0.148304
0.153886 0.153886 0.153886
0.160885 0.160885 0.160885
0.169699 0.169699 0.169699
0.181042 0.181042 0.181042
0.195339 0.195339 0.195339
0.212825 0.212825 0.212825
0.233817 0.233817 0.233817
0.258659 0.258659 0.258659
0.287853 0.287853 0.287853
0.322261 0.322261 0.322261
0.362965 0.362965 0.362965
0.411812 0.411812 0.411812
0.470182 0.470182 0.470182
0.534700 0.534700 0.534700
0.110544 0.110544 0.110544
0.110699 0.110699 0.110699
0.110901 0.110901 0.110901
0.111630 0.111630 0.111630
0.113159 0.113159 0.113159
0.115562 0.115562 0.115562
0.117063 0.117063 0.117063
0.118513 0.118513 0.118513
0.119910 0.119910 0.119910
0.121616 0.121616 0.121616
0.123682 0.123682 0.123682
0.126133 0.126133 0.126133
0.129070 0.129070 0.129070
0.132261 0.132261 0.132261
0.135592 0.135592 0.135592
0.139109 0.139109 0.139109
0.142853 0.142853 0.142853
0.147082 0.147082 0.147082
0.152066 0.152066 0.152066
0.158110 0.158110 0.158110
0.165700 0.165700 0.165700
0.175286 0.175286 0.175286
0.187444 0.187444 0.187444
0.202532 0.202532 0.202532
0.220663 0.220663 0.220663
0.242189 0.242189 0.242189
0.267625 0.267625 0.267625
0.297352 0.297352 0.297352
0.332247 0.332247 0.332247
0.373786 0.373786 0.373786
0.423585 0.423585 0.423585
0.482150 0.482150 0.482150
0.545864 0.545864 0.545864
0.112312 0.112312 0.112312
0.112489 0.112489 0.112489
0.112694 0.112694 0.112694
0.113236 0.113236 0.113236
0.114763 0.114763 0.114763
0.117560 0.117560 0.117560
0.121338 0.121338 0.121338
0.123544 0.123544 0.123544
0.125678 0.125678 0.125678
0.127651 0.127651 0.127651
0.129552 0.129552 0.129552
0.131741 0.131741 0.131741
0.134346 0.134346 0.134346
0.137218 0.137218 0.137218
0.140279 0.140279 0.140279
0.143716 0.143716 0.143716
0.147714 0.147714 0.147714
0.152359 0.152359 0.152359
0.157863 0.157863 0.157863
0.164589 0.164589 0.164589
0.173003 0.173003 0.173003
0.183592 0.183592 0.183592
0.196700 0.196700 0.196700
0.212624 0.212624 0.212624
0.231595 0.231595 0.231595
0.253914 0.253914 0.253914
0.279998 0.279998 0.279998
0.310461 0.310461 0.310461
0.346185 0.346185 0.346185
0.388750 0.388750 0.388750
0.439654 0.439654 0.439654
0.498132 0.498132 0.498132
0.560617 0.560617 0.560617
0.114744 0.114744 0.114744
0.114921 0.114921 0.114921
0.115243 0.115243 0.115243
0.115920 0.115920 0.115920
0.117023 0.117023 0.117023
0.119860 0.119860 0.119860
0.123770 0.123770 0.123770
0.128670 0.128670 0.128670
0.131415 0.131415 0.131415
0.133743 0.133743 0.133743
0.136364 0.136364 0.136364
0.138550 0.138550 0.138550
0.140804 0.140804 0.140804
0.143519 0.143519 0.143519
0.146634 0.146634 0.146634
0.150336 0.150336 0.150336
0.154755 0.154755 0.154755
0.160033 0.160033 0.160033
0.166337 0.166337 0.166337
0.173982 0.173982 0.173982
0.183500 0.183500 0.183500
0.195175 0.195175 0.195175
0.209320 0.209320 0.209320
0.226174 0.226174 0.226174
0.245928 0.245928 0.245928
0.269056 0.269056 0.269056
0.295888 0.295888 0.295888
0.327314 0.327314 0.327314
0.364160 0.364160 0.364160
0.407982 0.407982 0.407982
0.459910 0.459910 0.459910
0.517810 0.517810 0.517810
0.578273 0.578273 0.578273
0.118359 0.118359 0.118359
0.118537 0.118537 0.118537
0.118864 0.118864 0.118864
0.119663 0.119663 0.119663
0.120783 0.120783 0.120783
0.122890 0.122890 0.122890
0.126407 0.126407 0.126407
0.131017 0.131017 0.131017
0.136606 0.136606 0.136606
0.139838 0.139838 0.139838
0.142491 0.142491 0.142491
0.145589 0.145589 0.145589
0.148923 0.148923 0.148923
0.152135 0.152135 0.152135
0.155641 0.155641 0.155641
0.159904 0.159904 0.159904
0.165049 0.165049 0.165049
0.171184 0.171184 0.171184
0.178481 0.178481 0.178481
0.187227 0.187227 0.187227
0.197821 0.197821 0.197821
0.210567 0.210567 0.210567
0.225647 0.225647 0.225647
0.243414 0.243414 0.243414
0.264031 0.264031 0.264031
0.287970 0.287970 0.287970
0.315843 0.315843 0.315843
0.348273 0.348273 0.348273
0.386446 0.386446 0.386446
0.431781 0.431781 0.431781
0.484115 0.484115 0.484115
0.540774 0.540774 0.540774
0.598256 0.598256 0.598256
0.123010 0.123010 0.123010
0.123299 0.123299 0.123299
0.123623 0.123623 0.123623
0.124301 0.124301 0.124301
0.125497 0.125497 0.125497
0.127042 0.127042 0.127042
0.129933 0.129933 0.129933
0.133992 0.133992 0.133992
0.138969 0.138969 0.138969
0.144924 0.144924 0.144924
0.149563 0.149563 0.149563
0.153509 0.153509 0.153509
0.158083 0.158083 0.158083
0.163506 0.163506 0.163506
0.168890 0.168890 0.168890
0.174185 0.174185 0.174185
0.180220 0.180220 0.180220
0.187314 0.187314 0.187314
0.195495 0.195495 0.195495
0.205098 0.205098 0.205098
0.216588 0.216588 0.216588
0.230217 0.230217 0.230217
0.246123 0.246123 0.246123
0.264703 0.264703 0.264703
0.286219 0.286219 0.286219
0.311059 0.311059 0.311059
0.339932 0.339932 0.339932
0.373726 0.373726 0.373726
0.413454 0.413454 0.413454
0.459972 0.459972 0.459972
0.511758 0.511758 0.511758
0.566193 0.566193 0.566193
0.619852 0.619852 0.619852
0.128525 0.128525 0.128525
0.128829 0.128829 0.128829
0.129153 0.129153 0.129153
0.129763 0.129763 0.129763
0.130838 0.130838 0.130838
0.132170 0.132170 0.132170
0.134175 0.134175 0.134175
0.137629 0.137629 0.137629
0.141986 0.141986 0.141986
0.147786 0.147786 0.147786
0.155484 0.155484 0.155484
0.163144 0.163144 0.163144
0.169591 0.169591 0.169591
0.176467 0.176467 0.176467
0.184399 0.184399 0.184399
0.193129 0.193129 0.193129
0.201253 0.201253 0.201253
0.208949 0.208949 0.208949
0.217718 0.217718 0.217718
0.227903 0.227903 0.227903
0.240019 0.240019 0.240019
0.254347 0.254347 0.254347
0.271006 0.271006 0.271006
0.290326 0.290326 0.290326
0.312671 0.312671 0.312671
0.338539 0.338539 0.338539
0.368695 0.368695 0.368695
0.403987 0.403987 0.403987
0.445246 0.445246 0.445246
0.491814 0.491814 0.491814
0.541981 0.541981 0.541981
0.593214 0.593214 0.593214
0.642184 0.642184 0.642184
0.134470 0.134470 0.134470
0.134766 0.134766 0.134766
0.135070 0.135070 0.135070
0.135633 0.135633 0.135633
0.136522 0.136522 0.136522
0.137782 0.137782 0.137782
0.139437 0.139437 0.139437
0.142073 0.142073 0.142073
0.146307 0.146307 0.146307
0.151909 0.151909 0.151909
0.159791 0.159791 0.159791
0.170483 0.170483 0.170483
0.182891 0.182891 0.182891
0.192951 0.192951 0.192951
0.202157 0.202157 0.202157
0.212824 0.212824 0.212824
0.224130 0.224130 0.224130
0.235139 0.235139 0.235139
0.245374 0.245374 0.245374
0.255812 0.255812 0.255812
0.268305 0.268305 0.268305
0.283112 0.283112 0.283112
0.300355 0.300355 0.300355
0.320486 0.320486 0.320486
0.343763 0.343763 0.343763
0.370857 0.370857 0.370857
0.402445 0.402445 0.402445
0.439175 0.439175 0.439175
0.480904 0.480904 0.480904
0.526301 0.526301 0.526301
0.573653 0.573653 0.573653
0.620511 0.620511 0.620511
0.664757 0.664757 0.664757
0.140742 0.140742 0.140742
0.140940 0.140940 0.140940
0.141214 0.141214 0.141214
0.141848 0.141848 0.141848
0.142739 0.142739 0.142739
0.144024 0.144024 0.144024
0.145686 0.145686 0.145686
0.147889 0.147889 0.147889
0.151872 0.151872 0.151872
0.157903 0.157903 0.157903
0.165974 0.165974 0.165974
0.177075 0.177075 0.177075
0.191821 0.191821 0.191821
0.209659 0.209659 0.209659
0.223595 0.223595 0.223595
0.234751 0.234751 0.234751
0.247332 0.247332 0.247332
0.260843 0.260843 0.260843
0.274750 0.274750 0.274750
0.288252 0.288252 0.288252
0.301543 0.301543 0.301543
0.316729 0.316729 0.316729
0.334592 0.334592 0.334592
0.355504 0.355504 0.355504
0.379918 0.379918 0.379918
0.408344 0.408344 0.408344
0.441219 0.441219 0.441219
0.478350 0.478350 0.478350
0.519045 0.519045 0.519045
0.562049 0.562049 0.562049
0.605445 0.605445 0.605445
0.647334 0.647334 0.647334
0.687174 0.687174 0.687174
0.147948 0.147948 0.147948
0.148169 0.148169 0.148169
0.148416 0.148416 0.148416
0.149061 0.149061 0.149061
0.150098 0.150098 0.150098
0.151518 0.151518 0.151518
0.153404 0.153404 0.153404
0.155751 0.155751 0.155751
0.159194 0.159194 0.159194
0.165577 0.165577 0.165577
0.174578 0.174578 0.174578
0.186125 0.186125 0.186125
0.200752 0.200752 0.200752
0.219559 0.219559 0.219559
0.242550 0.242550 0.242550
0.260243 0.260243 0.260243
0.272951 0.272951 0.272951
0.286981 0.286981 0.286981
0.302489 0.302489 0.302489
0.319259 0.319259 0.319259
0.337072 0.337072 0.337072
0.355445 0.355445 0.355445
0.373979 0.373979 0.373979
0.395839 0.395839 0.395839
0.421358 0.421358 0.421358
0.450713 0.450713 0.450713
0.483673 0.483673 0.483673
0.519782 0.519782 0.519782
0.558108 0.558108 0.558108
0.597385 0.597385 0.597385
0.636048 0.636048 0.636048
0.673181 0.673181 0.673181
0.709113 0.709113 0.709113
0.157037 0.157037 0.157037
0.157285 0.157285 0.157285
0.157658 0.157658 0.157658
0.158389 0.158389 0.158389
0.159583 0.159583 0.159583
0.161250 0.161250 0.161250
0.163496 0.163496 0.163496
0.166349 0.166349 0.166349
0.169903 0.169903 0.169903
0.175879 0.175879 0.175879
0.185387 0.185387 0.185387
0.197814 0.197814 0.197814
0.212748 0.212748 0.212748
0.230292 0.230292 0.230292
0.253263 0.253263 0.253263
0.280977 0.280977 0.280977
0.301915 0.301915 0.301915
0.315896 0.315896 0.315896
0.331439 0.331439 0.331439
0.349359 0.349359 0.349359
0.370200 0.370200 0.370200
0.393112 0.393112 0.393112
0.416861 0.416861 0.416861
0.441429 0.441429 0.441429
0.467217 0.467217 0.467217
0.496160 0.496160 0.496160
0.527714 0.527714 0.527714
0.561389 0.561389 0.561389
0.596151 0.596151 0.596151
0.630868 0.630868 0.630868
0.664819 0.664819 0.664819
0.697877 0.697877 0.697877
0.730553 0.730553 0.730553
0.169020 0.169020 0.169020
0.169307 0.169307 0.169307
0.169757 0.169757 0.169757
0.170702 0.170702 0.170702
0.172122 0.172122 0.172122
0.174150 0.174150 0.174150
0.176821 0.176821 0.176821
0.180210 0.180210 0.180210
0.184359 0.184359 0.184359
0.189798 0.189798 0.189798
0.198908 0.198908 0.198908
0.211692 0.211692 0.211692
0.227111 0.227111 0.227111
0.244966 0.244966 0.244966
0.265236 0.265236 0.265236
0.291914 0.291914 0.291914
0.324035 0.324035 0.324035
0.348202 0.348202 0.348202
0.363813 0.363813 0.363813
0.381983 0.381983 0.381983
0.403485 0.403485 0.403485
0.428488 0.428488 0.428488
0.456402 0.456402 0.456402
0.485405 0.485405 0.485405
0.514330 0.514330 0.514330
0.542105 0.542105 0.542105
0.571077 0.571077 0.571077
0.601185 0.601185 0.601185
0.631628 0.631628 0.631628
0.661864 0.661864 0.661864
0.691721 0.691721 0.691721
0.721455 0.721455 0.721455
0.751518 0.751518 0.751518
0.184728 0.184728 0.184728
0.185085 0.185085 0.185085
0.185556 0.185556 0.185556
0.186684 0.186684 0.186684
0.188381 0.188381 0.188381
0.190712 0.190712 0.190712
0.193790 0.193790 0.193790
0.197628 0.197628 0.197628
0.202246 0.202246 0.202246
0.207773 0.207773 0.207773
0.215403 0.215403 0.215403
0.227757 0.227757 0.227757
0.243498 0.243498 0.243498
0.261562 0.261562 0.261562
0.281867 0.281867 0.281867
0.304445 0.304445 0.304445
0.334745 0.334745 0.334745
0.370508 0.370508 0.370508
0.398404 0.398404 0.398404
0.418188 0.418188 0.418188
0.439926 0.439926 0.439926
0.464851 0.464851 0.464851
0.492722 0.492722 0.492722
0.522996 0.522996 0.522996
0.554136 0.554136 0.554136
0.583400 0.583400 0.583400
0.611569 0.611569 0.611569
0.637605 0.637605 0.637605
0.663927 0.663927 0.663927
0.690362 0.690362 0.690362
0.716952 0.716952 0.716952
0.744029 0.744029 0.744029
0.771932 0.771932 0.771932
0.204242 0.204242 0.204242
0.204656 0.204656 0.204656
0.205199 0.205199 0.205199
0.206437 0.206437 0.206437
0.208324 0.208324 0.208324
0.210880 0.210880 0.210880
0.214258 0.214258 0.214258
0.218372 0.218372 0.218372
0.223316 0.223316 0.223316
0.229195 0.229195 0.229195
0.235990 0.235990 0.235990
0.246621 0.246621 0.246621
0.261820 0.261820 0.261820
0.279939 0.279939 0.279939
0.300243 0.300243 0.300243
0.322787 0.322787 0.322787
0.347639 0.347639 0.347639
0.380801 0.380801 0.380801
0.420549 0.420549 0.420549
0.453806 0.453806 0.453806
0.478657 0.478657 0.478657
0.502633 0.502633 0.502633
0.528967 0.528967 0.528967
0.557157 0.557157 0.557157
0.586496 0.586496 0.586496
0.615896 0.615896 0.615896
0.643911 0.643911 0.643911
0.669148 0.669148 0.669148
0.693225 0.693225 0.693225
0.716648 0.716648 0.716648
0.740755 0.740755 0.740755
0.765706 0.765706 0.765706
0.791516 0.791516 0.791516
0.227160 0.227160 0.227160
0.227604 0.227604 0.227604
0.228230 0.228230 0.228230
0.229503 0.229503 0.229503
0.231521 0.231521 0.231521
0.234260 0.234260 0.234260
0.237802 0.237802 0.237802
0.242095 0.242095 0.242095
0.247304 0.247304 0.247304
0.253418 0.253418 0.253418
0.260440 0.260440 0.260440
0.269172 0.269172 0.269172
0.282599 0.282599 0.282599
0.300349 0.300349 0.300349
0.320803 0.320803 0.320803
0.343452 0.343452 0.343452
0.368457 0.368457 0.368457
0.395993 0.395993 0.395993
0.431761 0.431761 0.431761
0.475079 0.475079 0.475079
0.512568 0.512568 0.512568
0.540368 0.540368 0.540368
0.564564 0.564564 0.564564
0.590096 0.590096 0.590096
0.616266 0.616266 0.616266
0.642436 0.642436 0.642436
0.668389 0.668389 0.668389
0.693798 0.693798 0.693798
0.717795 0.717795 0.717795
0.740935 0.740935 0.740935
0.763299 0.763299 0.763299
0.786338 0.786338 0.786338
0.809999 0.809999 0.809999
0.253430 0.253430 0.253430
0.253912 0.253912 0.253912
0.254535 0.254535 0.254535
0.255841 0.255841 0.255841
0.257960 0.257960 0.257960
0.260846 0.260846 0.260846
0.264507 0.264507 0.264507
0.268998 0.268998 0.268998
0.274414 0.274414 0.274414
0.280708 0.280708 0.280708
0.287920 0.287920 0.287920
0.296141 0.296141 0.296141
0.307105 0.307105 0.307105
0.323651 0.323651 0.323651
0.344347 0.344347 0.344347
0.367347 0.367347 0.367347
0.392783 0.392783 0.392783
0.420717 0.420717 0.420717
0.450753 0.450753 0.450753
0.487355 0.487355 0.487355
0.531250 0.531250 0.531250
0.570160 0.570160 0.570160
0.598334 0.598334 0.598334
0.620866 0.620866 0.620866
0.643833 0.643833 0.643833
0.666972 0.666972 0.666972
0.690215 0.690215 0.690215
0.713513 0.713513 0.713513
0.737091 0.737091 0.737091
0.760939 0.760939 0.760939
0.783383 0.783383 0.783383
0.805686 0.805686 0.805686
0.827214 0.827214 0.827214
0.283441 0.283441 0.283441
0.283937 0.283937 0.283937
0.284567 0.284567 0.284567
0.285947 0.285947 0.285947
0.288131 0.288131 0.288131
0.291148 0.291148 0.291148
0.294941 0.294941 0.294941
0.299616 0.299616 0.299616
0.305190 0.305190 0.305190
0.311694 0.311694 0.311694
0.319170 0.319170 0.319170
0.327703 0.327703 0.327703
0.337281 0.337281 0.337281
0.351573 0.351573 0.351573
0.371634 0.371634 0.371634
0.395170 0.395170 0.395170
0.421120 0.421120 0.421120
0.449260 0.449260 0.449260
0.478911 0.478911 0.478911
0.509367 0.509367 0.509367
0.544031 0.544031 0.544031
0.585181 0.585181 0.585181
0.622645 0.622645 0.622645
0.649058 0.649058 0.649058
0.669236 0.669236 0.669236
0.689818 0.689818 0.689818
0.710788 0.710788 0.710788
0.732167 0.732167 0.732167
0.754141 0.754141 0.754141
0.776700 0.776700 0.776700
0.799541 0.799541 0.799541
0.821871 0.821871 0.821871
0.842524 0.842524 0.842524
0.317670 0.317670 0.317670
0.318136 0.318136 0.318136
0.318877 0.318877 0.318877
0.320301 0.320301 0.320301
0.322593 0.322593 0.322593
0.325703 0.325703 0.325703
0.329644 0.329644 0.329644
0.334535 0.334535 0.334535
0.340301 0.340301 0.340301
0.347077 0.347077 0.347077
0.354909 0.354909 0.354909
0.363804 0.363804 0.363804
0.373774 0.373774 0.373774
0.385866 0.385866 0.385866
0.403863 0.403863 0.403863
0.427334 0.427334 0.427334
0.453519 0.453519 0.453519
0.481293 0.481293 0.481293
0.509927 0.509927 0.509927
0.538825 0.538825 0.538825
0.567366 0.567366 0.567366
0.597809 0.597809 0.597809
0.633636 0.633636 0.633636
0.668234 0.668234 0.668234
0.692683 0.692683 0.692683
0.711187 0.711187 0.711187
0.730316 0.730316 0.730316
0.750124 0.750124 0.750124
0.770708 0.770708 0.770708
0.791770 0.791770 0.791770
0.813067 0.813067 0.813067
0.834172 0.834172 0.834172
0.854738 0.854738 0.854738
0.356737 0.356737 0.356737
0.357270 0.357270 0.357270
0.358011 0.358011 0.358011
0.359527 0.359527 0.359527
0.361923 0.361923 0.361923
0.365207 0.365207 0.365207
0.369361 0.369361 0.369361
0.374471 0.374471 0.374471
0.380540 0.380540 0.380540
0.387635 0.387635 0.387635
0.395872 0.395872 0.395872
0.405195 0.405195 0.405195
0.415592 0.415592 0.415592
0.427129 0.427129 0.427129
0.442253 0.442253 0.442253
0.463724 0.463724 0.463724
0.489304 0.489304 0.489304
0.515946 0.515946 0.515946
0.542981 0.542981 0.542981
0.569787 0.569787 0.569787
0.595847 0.595847 0.595847
0.620625 0.620625 0.620625
0.645765 0.645765 0.645765
0.675880 0.675880 0.675880
0.708187 0.708187 0.708187
0.731293 0.731293 0.731293
0.748966 0.748966 0.748966
0.767448 0.767448 0.767448
0.786646 0.786646 0.786646
0.806229 0.806229 0.806229
0.825951 0.825951 0.825951
0.845381 0.845381 0.845381
0.864345 0.864345 0.864345
0.401593 0.401593 0.401593
0.402184 0.402184 0.402184
0.402925 0.402925 0.402925
0.404533 0.404533 0.404533
0.407049 0.407049 0.407049
0.410525 0.410525 0.410525
0.414888 0.414888 0.414888
0.420200 0.420200 0.420200
0.426560 0.426560 0.426560
0.433932 0.433932 0.433932
0.442451 0.442451 0.442451
0.452036 0.452036 0.452036
0.462617 0.462617 0.462617
0.474203 0.474203 0.474203
0.486754 0.486754 0.486754
0.504321 0.504321 0.504321
0.527439 0.527439 0.527439
0.552312 0.552312 0.552312
0.577125 0.577125 0.577125
0.601325 0.601325 0.601325
0.624497 0.624497 0.624497
0.646421 0.646421 0.646421
0.667078 0.667078 0.667078
0.687778 0.687778 0.687778
0.713301 0.713301 0.713301
0.744300 0.744300 0.744300
0.766486 0.766486 0.766486
0.784040 0.784040 0.784040
0.801863 0.801863 0.801863
0.819999 0.819999 0.819999
0.838137 0.838137 0.838137
0.855994 0.855994 0.855994
0.873466 0.873466 0.873466
0.452514 0.452514 0.452514
0.453097 0.453097 0.453097
0.453893 0.453893 0.453893
0.455481 0.455481 0.455481
0.458079 0.458079 0.458079
0.461594 0.461594 0.461594
0.466036 0.466036 0.466036
0.471426 0.471426 0.471426
0.477791 0.477791 0.477791
0.485094 0.485094 0.485094
0.493429 0.493429 0.493429
0.502656 0.502656 0.502656
0.512725 0.512725 0.512725
0.523716 0.523716 0.523716
0.535496 0.535496 0.535496
0.548971 0.548971 0.548971
0.567192 0.567192 0.567192
0.589127 0.589127 0.589127
0.611144 0.611144 0.611144
0.632380 0.632380 0.632380
0.652644 0.652644 0.652644
0.671959 0.671959 0.671959
0.690365 0.690365 0.690365
0.707935 0.707935 0.707935
0.725433 0.725433 0.725433
0.747231 0.747231 0.747231
0.777278 0.777278 0.777278
0.798933 0.798933 0.798933
0.816254 0.816254 0.816254
0.832950 0.832950 0.832950
0.849577 0.849577 0.849577
0.865961 0.865961 0.865961
0.882084 0.882084 0.882084
0.507466 0.507466 0.507466
0.508012 0.508012 0.508012
0.508745 0.508745 0.508745
0.510321 0.510321 0.510321
0.512742 0.512742 0.512742
0.516094 0.516094 0.516094
0.520269 0.520269 0.520269
0.525335 0.525335 0.525335
0.531264 0.531264 0.531264
0.538087 0.538087 0.538087
0.545767 0.545767 0.545767
0.554209 0.554209 0.554209
0.563370 0.563370 0.563370
0.573214 0.573214 0.573214
0.583652 0.583652 0.583652
0.594604 0.594604 0.594604
0.607908 0.607908 0.607908
0.625064 0.625064 0.625064
0.643996 0.643996 0.643996
0.662379 0.662379 0.662379
0.680094 0.680094 0.680094
0.697179 0.697179 0.697179
0.713684 0.713684 0.713684
0.729643 0.729643 0.729643
0.745109 0.745109 0.745109
0.760429 0.760429 0.760429
0.778906 0.778906 0.778906
0.807330 0.807330 0.807330
0.828651 0.828651 0.828651
0.845038 0.845038 0.845038
0.860253 0.860253 0.860253
0.875310 0.875310 0.875310
0.890196 0.890196 0.890196
0.562776 0.562776 0.562776
0.563266 0.563266 0.563266
0.563960 0.563960 0.563960
0.565351 0.565351 0.565351
0.567492 0.567492 0.567492
0.570489 0.570489 0.570489
0.574238 0.574238 0.574238
0.578680 0.578680 0.578680
0.583898 0.583898 0.583898
0.589882 0.589882 0.589882
0.596553 0.596553 0.596553
0.603827 0.603827 0.603827
0.611699 0.611699 0.611699
0.620063 0.620063 0.620063
0.628859 0.628859 0.628859
0.638040 0.638040 0.638040
0.647531 0.647531 0.647531
0.659822 0.659822 0.659822
0.675407 0.675407 0.675407
0.691389 0.691389 0.691389
0.707004 0.707004 0.707004
0.722248 0.722248 0.722248
0.737161 0.737161 0.737161
0.751775 0.751775 0.751775
0.766071 0.766071 0.766071
0.780030 0.780030 0.780030
0.793517 0.793517 0.793517
0.808836 0.808836 0.808836
0.835036 0.835036 0.835036
0.855149 0.855149 0.855149
0.870193 0.870193 0.870193
0.884071 0.884071 0.884071
0.897888 0.897888 0.897888
0.615077 0.615077 0.615077
0.615504 0.615504 0.615504
0.616040 0.616040 0.616040
0.617246 0.617246 0.617246
0.619026 0.619026 0.619026
0.621545 0.621545 0.621545
0.624662 0.624662 0.624662
0.628352 0.628352 0.628352
0.632689 0.632689 0.632689
0.637617 0.637617 0.637617
0.643104 0.643104 0.643104
0.649095 0.649095 0.649095
0.655598 0.655598 0.655598
0.662545 0.662545 0.662545
0.669869 0.669869 0.669869
0.677548 0.677548 0.677548
0.685532 0.685532 0.685532
0.694386 0.694386 0.694386
0.705868 0.705868 0.705868
0.719688 0.719688 0.719686
0.733601 0.733601 0.733598
0.747393 0.747393 0.747393
0.761018 0.761018 0.761018
0.774423 0.774423 0.774423
0.787536 0.787536 0.787536
0.800267 0.800267 0.800267
0.812525 0.812525 0.812525
