ml_luts/bw6__lut3d_33.cube
TITLE "BW6"
DOMAIN_MIN 0.000000 0.000000 0.000000
DOMAIN_MAX 1.000000 1.000000 1.000000
LUT_3D_SIZE 5
0.108125 0.108125 0.108125
0.112138 0.112138 0.112138
0.135622 0.135622 0.135622
0.204181 0.204181 0.204181
0.521386 0.521386 0.521386
0.123010 0.123010 0.123010
0.138969 0.138969 0.138969
0.180220 0.180220 0.180220
0.286219 0.286219 0.286219
0.619852 0.619852 0.619852
0.204242 0.204242 0.204242
0.223316 0.223316 0.223316
0.347639 0.347639 0.347639
0.586496 0.586496 0.586496
0.791516 0.791516 0.791516
0.507466 0.507466 0.507466
0.531264 0.531264 0.531264
0.607908 0.607908 0.607908
0.745109 0.745109 0.745109
0.890196 0.890196 0.890196
0.846860 0.846860 0.846860
0.853468 0.853468 0.853468
0.874388 0.874388 0.874388
0.909323 0.909323 0.909323
0.950958 0.950958 0.950958
0.110010 0.110010 0.110010
0.120220 0.120220 0.120220
0.149668 0.149668 0.149668
0.214090 0.214090 0.214090
0.504662 0.504662 0.504662
0.123571 0.123571 0.123571
0.145722 0.145722 0.145722
0.182530 0.182530 0.182530
0.292471 0.292471 0.292471
0.607464 0.607464 0.607464
0.209651 0.209651 0.209651
0.256095 0.256095 0.256095
0.368748 0.368748 0.368748
0.595546 0.595546 0.595546
0.787346 0.787346 0.787346
0.525067 0.525067 0.525067
0.561655 0.561655 0.561655
0.627952 0.627952 0.627952
0.751245 0.751245 0.751245
0.891732 0.891732 0.891732
0.850401 0.850401 0.850401
0.856741 0.856741 0.856741
0.876970 0.876970 0.876970
0.910101 0.910101 0.910101
0.951674 0.951674 0.951674
0.121690 0.121690 0.121690
0.132155 0.132155 0.132155
0.177935 0.177935 0.177935
0.402666 0.402666 0.402666
0.592432 0.592432 0.592432
0.146418 0.146418 0.146418
0.163708 0.163708 0.163708
0.229778 0.229778 0.229778
0.429534 0.429534 0.429534
0.592542 0.592542 0.592542
0.197490 0.197490 0.197490
0.246918 0.246918 0.246918
0.425719 0.425719 0.425719
0.562953 0.562953 0.562953
0.747913 0.747913 0.747913
0.502613 0.502613 0.502613
0.556750 0.556750 0.556750
0.677249 0.677249 0.677249
0.769105 0.769105 0.769105
0.895037 0.895037 0.895037
0.844388 0.844388 0.844388
0.855081 0.855081 0.855081
0.883367 0.883367 0.883367
0.912032 0.912032 0.912032
0.954071 0.954071 0.954071
0.150767 0.150767 0.150767
0.162476 0.162476 0.162476
0.221736 0.221736 0.221736
0.412993 0.412993 0.412993
0.817784 0.817784 0.817784
0.199824 0.199824 0.199824
0.217442 0.217442 0.217442
0.287430 0.287430 0.287430
0.478842 0.478842 0.478842
0.826362 0.826362 0.826362
0.274144 0.274144 0.274144
0.328266 0.328266 0.328266
0.510886 0.510886 0.510886
0.643466 0.643466 0.643466
0.834710 0.834710 0.834710
0.480852 0.480852 0.480852
0.532015 0.532015 0.532015
0.661252 0.661252 0.661252
0.799779 0.799779 0.799779
0.871445 0.871445 0.871445
0.828824 0.828824 0.828824
0.840509 0.840509 0.840509
0.874975 0.874975 0.874975
0.920029 0.920029 0.920029
0.958602 0.958602 0.958602
0.343816 0.343816 0.343816
0.375700 0.375700 0.375700
0.490783 0.490783 0.490783
0.647555 0.647555 0.647555
0.808072 0.808072 0.808072
0.423652 0.423652 0.423652
0.454866 0.454866 0.454866
0.556729 0.556729 0.556729
0.681369 0.681369 0.681369
0.820837 0.820837 0.820837
0.563180 0.563180 0.563180
0.619787 0.619787 0.619787
0.686145 0.686145 0.686145
0.758927 0.758927 0.758927
0.857542 0.857542 0.857542
0.685214 0.685214 0.685214
0.702083 0.702083 0.702083
0.753536 0.753536 0.753536
0.852743 0.852743 0.852743
0.907858 0.907858 0.907858
0.845151 0.845151 0.845151
0.852880 0.852880 0.852880
0.877668 0.877668 0.877668
0.916136 0.916136 0.916136
0.967590 0.967590 0.967590
