ml_luts/bw7__lut3d_33.cube
TITLE "BW7"
DOMAIN_MIN 0.000000 0.000000 0.000000
DOMAIN_MAX 1.000000 1.000000 1.000000
LUT_3D_SIZE 5
0.142153 0.142153 0.142153
0.188838 0.188838 0.188838
0.281117 0.281117 0.281117
0.443374 0.443374 0.443374
0.690089 0.690089 0.690089
0.311772 0.311772 0.311772
0.281876 0.281876 0.281876
0.236855 0.236855 0.236855
0.399239 0.399239 0.399239
0.663364 0.663364 0.663364
0.621714 0.621714 0.621714
0.645133 0.645133 0.645133
0.563653 0.563653 0.563653
0.376970 0.376970 0.376970
0.525414 0.525414 0.525414
0.826032 0.826032 0.826032
0.833064 0.833064 0.833064
0.853517 0.853517 0.853517
0.790207 0.790207 0.790207
0.753376 0.753376 0.753376
0.965881 0.965881 0.965881
0.967819 0.967819 0.967819
0.975906 0.975906 0.975906
0.982193 0.982193 0.982193
0.976623 0.976623 0.976623
0.201633 0.201633 0.201633
0.228546 0.228546 0.228546
0.373015 0.373015 0.373015
0.557799 0.557799 0.557799
0.736805 0.736805 0.736805
0.268212 0.268212 0.268212
0.297074 0.297074 0.297074
0.378936 0.378936 0.378936
0.516696 0.516696 0.516696
0.714603 0.714603 0.714603
0.591295 0.591295 0.591295
0.609012 0.609012 0.609012
0.567880 0.567880 0.567880
0.410948 0.410948 0.410948
0.619154 0.619154 0.619154
0.812293 0.812293 0.812293
0.818484 0.818484 0.818484
0.845059 0.845059 0.845059
0.790701 0.790701 0.790701
0.754132 0.754132 0.754132
0.963088 0.963088 0.963088
0.965598 0.965598 0.965598
0.974670 0.974670 0.974670
0.982386 0.982386 0.982386
0.975997 0.975997 0.975997
0.323216 0.323216 0.323216
0.344320 0.344320 0.344320
0.397025 0.397025 0.397025
0.596303 0.596303 0.596303
0.803464 0.803464 0.803464
0.380793 0.380793 0.380793
0.407453 0.407453 0.407453
0.452004 0.452004 0.452004
0.629026 0.629026 0.629026
0.813226 0.813226 0.813226
0.514134 0.514134 0.514134
0.536231 0.536231 0.536231
0.594240 0.594240 0.594240
0.668717 0.668717 0.668717
0.791180 0.791180 0.791180
0.786301 0.786301 0.786301
0.792164 0.792164 0.792164
0.816261 0.816261 0.816261
0.798051 0.798051 0.798051
0.738251 0.738251 0.738251
0.957534 0.957534 0.957534
0.960509 0.960509 0.960509
0.969894 0.969894 0.969894
0.983684 0.983684 0.983684
0.976837 0.976837 0.976837
0.530686 0.530686 0.530686
0.545275 0.545275 0.545275
0.586087 0.586087 0.586087
0.628120 0.628120 0.628120
0.810551 0.810551 0.810551
0.579738 0.579738 0.579738
0.588313 0.588313 0.588313
0.617445 0.617445 0.617445
0.652283 0.652283 0.652283
0.819921 0.819921 0.819921
0.631334 0.631334 0.631334
0.644364 0.644364 0.644364
0.693269 0.693269 0.693269
0.717822 0.717822 0.717822
0.854612 0.854612 0.854612
0.747848 0.747848 0.747848
0.753761 0.753761 0.753761
0.773462 0.773462 0.773462
0.813394 0.813394 0.813394
0.883398 0.883398 0.883398
0.945258 0.945258 0.945258
0.948281 0.948281 0.948281
0.959281 0.959281 0.959281
0.977619 0.977619 0.977619
0.980300 0.980300 0.980300
0.804807 0.804807 0.804807
0.808576 0.808576 0.808576
0.821454 0.821454 0.821454
0.841985 0.841985 0.841985
0.860655 0.860655 0.860655
0.816053 0.816053 0.816053
0.819436 0.819436 0.819436
0.829938 0.829938 0.829938
0.848961 0.848961 0.848961
0.866888 0.866888 0.866888
0.841962 0.841962 0.841962
0.848523 0.848523 0.848523
0.858755 0.858755 0.858755
0.875597 0.875597 0.875597
0.891722 0.891722 0.891722
0.891241 0.891241 0.891241
0.891552 0.891552 0.891552
0.892458 0.892458 0.892458
0.915587 0.915587 0.915587
0.931457 0.931457 0.931457
0.958251 0.958251 0.958251
0.959427 0.959427 0.959427
0.963608 0.963608 0.963608
0.972000 0.972000 0.972000
0.987823 0.987854 0.987823
