ml_luts/bw7__lut3d_33.cube
TITLE "BW7"
DOMAIN_MIN 0.000000 0.000000 0.000000
DOMAIN_MAX 1.000000 1.000000 1.000000
LUT_3D_SIZE 9
0.142153 0.142153 0.142153
0.157969 0.157969 0.157969
0.188838 0.188838 0.188838
0.229359 0.229359 0.229359
0.281117 0.281117 0.281117
0.348726 0.348726 0.348726
0.443374 0.443374 0.443374
0.559289 0.559289 0.559289
0.690089 0.690089 0.690089
0.200924 0.200924 0.200924
0.191701 0.191701 0.191701
0.171506 0.171506 0.171506
0.216248 0.216248 0.216248
0.269123 0.269123 0.269123
0.335205 0.335205 0.335205
0.426014 0.426014 0.426014
0.544323 0.544323 0.544323
0.678931 0.678931 0.678931
0.311772 0.311772 0.311772
0.324774 0.324774 0.324774
0.281876 0.281876 0.281876
0.217069 0.217069 0.217069
0.236855 0.236855 0.236855
0.305026 0.305026 0.305026
0.399239 0.399239 0.399239
0.522558 0.522558 0.522558
0.663364 0.663364 0.663364
0.461711 0.461711 0.461711
0.470735 0.470735 0.470735
0.497849 0.497849 0.497849
0.415530 0.415530 0.415530
0.330001 0.330001 0.330001
0.266292 0.266292 0.266292
0.338876 0.338876 0.338876
0.458837 0.458837 0.458837
0.617361 0.617361 0.617361
0.621714 0.621714 0.621714
0.626766 0.626766 0.626766
0.645133 0.645133 0.645133
0.648199 0.648199 0.648199
0.563653 0.563653 0.563653
0.470923 0.470923 0.470923
0.376970 0.376970 0.376970
0.356321 0.356321 0.356321
0.525414 0.525414 0.525414
0.732151 0.732151 0.732151
0.738265 0.738265 0.738265
0.747589 0.747589 0.747589
0.764173 0.764173 0.764173
0.745260 0.745260 0.745260
0.685565 0.685565 0.685565
0.630534 0.630534 0.630534
0.568377 0.568377 0.568377
0.467004 0.467004 0.467004
0.826032 0.826032 0.826032
0.828385 0.828385 0.828385
0.833064 0.833064 0.833064
0.842642 0.842642 0.842642
0.853517 0.853517 0.853517
0.830279 0.830279 0.830279
0.790207 0.790207 0.790207
0.760194 0.760194 0.760194
0.753376 0.753376 0.753376
0.904867 0.904867 0.904867
0.905723 0.905723 0.905723
0.909022 0.909022 0.909022
0.915762 0.915762 0.915762
0.923985 0.923985 0.923985
0.927767 0.927767 0.927767
0.913805 0.913805 0.913805
0.890760 0.890760 0.890760
0.883765 0.883765 0.883765
0.965881 0.965881 0.965881
0.966194 0.966194 0.966194
0.967819 0.967819 0.967819
0.971522 0.971522 0.971522
0.975906 0.975906 0.975906
0.981254 0.981254 0.981254
0.982193 0.982193 0.982193
0.979519 0.979519 0.979519
0.976623 0.976623 0.976623
0.162722 0.162722 0.162722
0.170236 0.170236 0.170236
0.219452 0.219452 0.219452
0.271483 0.271483 0.271483
0.317180 0.317180 0.317180
0.379193 0.379193 0.379193
0.464882 0.464882 0.464882
0.573743 0.573743 0.573743
0.693004 0.693004 0.693004
0.185691 0.185691 0.185691
0.197205 0.197205 0.197205
0.222697 0.222697 0.222697
0.259189 0.259189 0.259189
0.305564 0.305564 0.305564
0.367264 0.367264 0.367264
0.450292 0.450292 0.450292
0.559576 0.559576 0.559576
0.683221 0.683221 0.683221
0.294173 0.294173 0.294173
0.301786 0.301786 0.301786
0.285120 0.285120 0.285120
0.236076 0.236076 0.236076
0.271915 0.271915 0.271915
0.334265 0.334265 0.334265
0.419337 0.419337 0.419337
0.534160 0.534160 0.534160
0.667247 0.667247 0.667247
0.443430 0.443430 0.443430
0.450401 0.450401 0.450401
0.483130 0.483130 0.483130
0.410998 0.410998 0.410998
0.330193 0.330193 0.330193
0.283489 0.283489 0.283489
0.359792 0.359792 0.359792
0.474663 0.474663 0.474663
0.625367 0.625367 0.625367
0.610405 0.610405 0.610405
0.615041 0.615041 0.615041
0.632592 0.632592 0.632592
0.640199 0.640199 0.640199
0.555531 0.555531 0.555531
0.468199 0.468199 0.468199
0.378612 0.378612 0.378612
0.379972 0.379972 0.379972
0.542704 0.542704 0.542704
0.721644 0.721644 0.721644
0.724365 0.724365 0.724365
0.733467 0.733467 0.733467
0.750328 0.750328 0.750328
0.736141 0.736141 0.736141
0.678177 0.678177 0.678177
0.625127 0.625127 0.625127
0.565026 0.565026 0.565026
0.463248 0.463248 0.463248
0.818671 0.818671 0.818671
0.819643 0.819643 0.819643
0.825087 0.825087 0.825087
0.836568 0.836568 0.836568
0.849859 0.849859 0.849859
0.828556 0.828556 0.828556
0.788237 0.788237 0.788237
0.758741 0.758741 0.758741
0.749444 0.749444 0.749444
0.901208 0.901208 0.901208
0.902446 0.902446 0.902446
0.906103 0.906103 0.906103
0.913481 0.913481 0.913481
0.922448 0.922448 0.922436
0.926719 0.926719 0.926719
0.911933 0.911933 0.911933
0.887865 0.887865 0.887865
0.880675 0.880675 0.880675
0.963047 0.963047 0.963047
0.964180 0.964180 0.964180
0.967543 0.967543 0.967543
0.971578 0.971578 0.971578
0.976135 0.976135 0.976135
0.981438 0.981438 0.981438
0.982377 0.982377 0.982377
0.979551 0.979551 0.979551
0.976569 0.976569 0.976569
0.201633 0.201633 0.201633
0.208299 0.208299 0.208299
0.228546 0.228546 0.228546
0.288698 0.288698 0.288698
0.373015 0.373015 0.373015
0.475418 0.475418 0.475418
0.557799 0.557799 0.557799
0.641963 0.641963 0.641963
0.736805 0.736805 0.736805
0.222669 0.222669 0.222669
0.233059 0.233059 0.233059
0.247736 0.247736 0.247736
0.303821 0.303821 0.303821
0.385296 0.385296 0.385296
0.471202 0.471202 0.471202
0.546112 0.546112 0.546112
0.633325 0.633325 0.633325
0.730756 0.730756 0.730756
0.268212 0.268212 0.268212
0.276385 0.276385 0.276385
0.297074 0.297074 0.297074
0.328558 0.328558 0.328558
0.378936 0.378936 0.378936
0.438924 0.438924 0.438924
0.516696 0.516696 0.516696
0.611058 0.611058 0.611058
0.714603 0.714603 0.714603
0.414744 0.414744 0.414744
0.420780 0.420780 0.420780
0.444705 0.444705 0.444705
0.425092 0.425092 0.425092
0.358781 0.358781 0.358781
0.379862 0.379862 0.379862
0.461219 0.461219 0.461219
0.565261 0.565261 0.565261
0.682922 0.682922 0.682922
0.591295 0.591295 0.591295
0.594829 0.594829 0.594829
0.609012 0.609012 0.609012
0.638027 0.638027 0.638027
0.567880 0.567880 0.567880
0.489673 0.489673 0.489673
0.410948 0.410948 0.410948
0.476956 0.476956 0.476956
0.619154 0.619154 0.619154
0.712433 0.712433 0.712433
0.714483 0.714483 0.714483
0.722177 0.722177 0.722177
0.740132 0.740132 0.740132
0.739471 0.739471 0.739471
0.684551 0.684551 0.684551
0.636078 0.636078 0.636078
0.577299 0.577299 0.577299
0.515347 0.515347 0.515347
0.812293 0.812293 0.812293
0.813458 0.813458 0.813458
0.818484 0.818484 0.818484
0.829701 0.829701 0.829701
0.845059 0.845059 0.845059
0.829382 0.829382 0.829382
0.790701 0.790701 0.790701
0.764587 0.764587 0.764587
0.754132 0.754132 0.754132
0.897641 0.897641 0.897641
0.898199 0.898199 0.898199
0.901640 0.901640 0.901640
0.908915 0.908915 0.908915
0.918425 0.918425 0.918425
0.926835 0.926835 0.926835
0.913057 0.913057 0.913057
0.890105 0.890105 0.890105
0.884058 0.884058 0.884058
0.963088 0.963088 0.963088
0.963488 0.963488 0.963488
0.965598 0.965598 0.965598
0.969602 0.969602 0.969602
0.974670 0.974670 0.974670
0.980390 0.980390 0.980390
0.982386 0.982386 0.982386
0.979431 0.979431 0.979431
0.975997 0.975997 0.975997
0.253948 0.253948 0.253948
0.260473 0.260473 0.260473
0.278737 0.278737 0.278737
0.301793 0.301793 0.301793
0.374703 0.374703 0.374703
0.479245 0.479245 0.479245
0.594192 0.594192 0.594192
0.698425 0.698425 0.698425
0.789594 0.789594 0.789594
0.278423 0.278423 0.278423
0.282952 0.282952 0.282952
0.296673 0.296673 0.296673
0.316820 0.316820 0.316820
0.389096 0.389096 0.389096
0.490456 0.490456 0.490456
0.601088 0.601088 0.601088
0.700950 0.700950 0.700950
0.785846 0.785846 0.785846
0.303933 0.303933 0.303933
0.313060 0.313060 0.313060
0.343271 0.343271 0.343271
0.362806 0.362806 0.362806
0.435878 0.435878 0.435878
0.529520 0.529520 0.529520
0.624537 0.624537 0.624537
0.697782 0.697782 0.697782
0.774269 0.774269 0.774269
0.377731 0.377731 0.377731
0.384508 0.384508 0.384508
0.407690 0.407690 0.407690
0.441832 0.441832 0.441832
0.478842 0.478842 0.478842
0.533075 0.533075 0.533075
0.595920 0.595920 0.595920
0.667497 0.667497 0.667497
0.751401 0.751401 0.751390
0.556567 0.556567 0.556567
0.560617 0.560617 0.560617
0.574727 0.574727 0.574727
0.601609 0.601609 0.601609
0.580443 0.580443 0.580443
0.516151 0.516151 0.516151
0.525215 0.525215 0.525215
0.610073 0.610073 0.610073
0.707835 0.707835 0.707835
0.694400 0.694400 0.694400
0.696787 0.696787 0.696787
0.703009 0.703009 0.703009
0.717031 0.717031 0.717031
0.738059 0.738059 0.738059
0.690063 0.690063 0.690063
0.647653 0.647653 0.647653
0.586333 0.586333 0.586333
0.622094 0.622094 0.622094
0.801701 0.801701 0.801701
0.803172 0.803172 0.803172
0.807640 0.807640 0.807640
0.817828 0.817828 0.817828
0.835014 0.835014 0.835014
0.832907 0.832907 0.832907
0.793920 0.793920 0.793920
0.768429 0.768429 0.768429
0.750906 0.750906 0.750906
0.892357 0.892357 0.892357
0.893157 0.893157 0.893157
0.896151 0.896151 0.896151
0.902969 0.902969 0.902969
0.913330 0.913330 0.913330
0.925327 0.925327 0.925327
0.914746 0.914746 0.914746
0.891521 0.891521 0.891521
0.886435 0.886435 0.886435
0.961208 0.961208 0.961208
0.962015 0.962015 0.962015
0.963617 0.963617 0.963617
0.967671 0.967671 0.967671
0.972896 0.972896 0.972896
0.978929 0.978929 0.978929
0.983094 0.983094 0.983094
0.980159 0.980159 0.980159
0.976589 0.976589 0.976589
0.323216 0.323216 0.323216
0.328792 0.328792 0.328792
0.344320 0.344320 0.344320
0.368788 0.368788 0.368788
0.397025 0.397025 0.397025
0.484447 0.484447 0.484447
0.596303 0.596303 0.596303
0.701211 0.701211 0.701211
0.803464 0.803464 0.803464
0.342994 0.342994 0.342994
0.347289 0.347289 0.347289
0.360214 0.360214 0.360214
0.381713 0.381713 0.381713
0.409002 0.409002 0.409002
0.494611 0.494611 0.494611
0.603191 0.603191 0.603191
0.704804 0.704804 0.704804
0.804625 0.804625 0.804625
0.380793 0.380793 0.380793
0.392174 0.392174 0.392174
0.407453 0.407453 0.407453
0.427882 0.427882 0.427882
0.452004 0.452004 0.452004
0.531018 0.531018 0.531018
0.629026 0.629026 0.629026
0.719890 0.719890 0.719890
0.813226 0.813226 0.813226
0.424210 0.424210 0.424210
0.430644 0.430644 0.430644
0.453714 0.453714 0.453714
0.500284 0.500284 0.500284
0.523841 0.523841 0.523841
0.590645 0.590645 0.590645
0.668298 0.668298 0.668298
0.744755 0.744755 0.744755
0.820954 0.820954 0.820954
0.514134 0.514134 0.514134
0.519473 0.519473 0.519473
0.536231 0.536231 0.536231
0.563852 0.563852 0.563852
0.594240 0.594240 0.594240
0.622303 0.622303 0.622303
0.668717 0.668717 0.668717
0.721644 0.721644 0.721644
0.791180 0.791180 0.791180
0.665351 0.665351 0.665351
0.669034 0.669034 0.669034
0.677104 0.677104 0.677104
0.691837 0.691837 0.691837
0.713033 0.713033 0.713033
0.698512 0.698512 0.698512
0.656528 0.656528 0.656528
0.658277 0.658277 0.658277
0.736255 0.736255 0.736255
0.786301 0.786301 0.786301
0.787767 0.787767 0.787767
0.792164 0.792164 0.792164
0.801324 0.801324 0.801324
0.816261 0.816261 0.816261
0.834955 0.834955 0.834955
0.798051 0.798051 0.798051
0.771730 0.771730 0.771730
0.738251 0.738251 0.738251
0.882307 0.882307 0.882307
0.882952 0.882952 0.882952
0.886197 0.886197 0.886197
0.893104 0.893104 0.893104
0.903476 0.903476 0.903476
0.918002 0.918002 0.918002
0.917226 0.917226 0.917226
0.892357 0.892357 0.892355
0.886883 0.886883 0.886883
0.957534 0.957534 0.957534
0.958392 0.958392 0.958392
0.960509 0.960509 0.960509
0.964376 0.964376 0.964376
0.969894 0.969894 0.969894
0.976768 0.976768 0.976768
0.983684 0.983684 0.983684
0.981393 0.981393 0.981393
0.976837 0.976837 0.976837
0.411021 0.411021 0.411021
0.415668 0.415668 0.415668
0.428903 0.428903 0.428903
0.452123 0.452123 0.452123
0.482724 0.482724 0.482724
0.508422 0.508422 0.508422
0.602014 0.602014 0.602011
0.702418 0.702418 0.702418
0.805516 0.805516 0.805516
0.427623 0.427623 0.427623
0.431077 0.431077 0.431077
0.442671 0.442671 0.442671
0.463934 0.463934 0.463934
0.491571 0.491571 0.491571
0.516845 0.516845 0.516845
0.606979 0.606979 0.606979
0.704398 0.704398 0.704398
0.805816 0.805816 0.805816
0.475683 0.475683 0.475683
0.478669 0.478669 0.478669
0.488798 0.488798 0.488798
0.506319 0.506319 0.506319
0.529118 0.529118 0.529118
0.551312 0.551312 0.551312
0.631664 0.631664 0.631664
0.721026 0.721026 0.721026
0.816545 0.816545 0.816545
0.495686 0.495686 0.495686
0.503981 0.503981 0.503981
0.537858 0.537858 0.537858
0.566562 0.566562 0.566562
0.585020 0.585020 0.585020
0.602870 0.602870 0.602870
0.668785 0.668785 0.668785
0.745824 0.745824 0.745824
0.832845 0.832845 0.832845
0.566220 0.566220 0.566220
0.569812 0.569812 0.569812
0.582473 0.582473 0.582473
0.603944 0.603944 0.603944
0.637174 0.637174 0.637174
0.653436 0.653436 0.653436
0.707754 0.707754 0.707754
0.774346 0.774346 0.774346
0.851984 0.851984 0.851984
0.640914 0.640914 0.640914
0.643746 0.643746 0.643746
0.652339 0.652339 0.652339
0.667855 0.667855 0.667855
0.688056 0.688056 0.688054
0.712303 0.712303 0.712303
0.736589 0.736589 0.736589
0.778563 0.778563 0.778563
0.834936 0.834936 0.834936
0.759679 0.759679 0.759679
0.761510 0.761510 0.761510
0.767454 0.767454 0.767454
0.780182 0.780182 0.780182
0.795197 0.795197 0.795197
0.816192 0.816192 0.816192
0.804628 0.804628 0.804628
0.771181 0.771181 0.771181
0.774273 0.774273 0.774273
0.869591 0.869591 0.869591
0.870721 0.870721 0.870721
0.874359 0.874359 0.874359
0.881614 0.881614 0.881614
0.891662 0.891662 0.891661
0.905482 0.905482 0.905482
0.920850 0.920850 0.920850
0.894766 0.894766 0.894766
0.886378 0.886378 0.886378
0.953353 0.953353 0.953353
0.953598 0.953598 0.953598
0.955754 0.955754 0.955754
0.959852 0.959852 0.959852
0.965785 0.965785 0.965785
0.973452 0.973452 0.973452
0.982192 0.982192 0.982192
0.983706 0.983706 0.983706
0.978668 0.978668 0.978668
0.530686 0.530686 0.530686
0.534081 0.534081 0.534081
0.545275 0.545275 0.545275
0.563671 0.563671 0.563671
0.586087 0.586087 0.586087
0.608241 0.608241 0.608241
0.628120 0.628120 0.628120
0.711260 0.711260 0.711260
0.810551 0.810551 0.810551
0.542939 0.542939 0.542939
0.546167 0.546167 0.546167
0.556027 0.556027 0.556027
0.571964 0.571964 0.571964
0.592220 0.592220 0.592220
0.613142 0.613142 0.613142
0.631456 0.631456 0.631456
0.712779 0.712779 0.712779
0.811004 0.811004 0.811004
0.579738 0.579738 0.579738
0.581749 0.581749 0.581749
0.588313 0.588313 0.588313
0.600794 0.600794 0.600794
0.617445 0.617445 0.617445
0.635898 0.635898 0.635898
0.652283 0.652283 0.652283
0.726756 0.726756 0.726756
0.819921 0.819921 0.819921
0.608615 0.608615 0.608615
0.615449 0.615449 0.615449
0.631395 0.631395 0.631395
0.641419 0.641419 0.641419
0.654344 0.654344 0.654344
0.669520 0.669520 0.669520
0.682853 0.682853 0.682853
0.748399 0.748399 0.748399
0.834539 0.834539 0.834539
0.631334 0.631334 0.631334
0.634176 0.634176 0.634176
0.644364 0.644364 0.644364
0.671082 0.671082 0.671082
0.693269 0.693269 0.693269
0.705661 0.705661 0.705661
0.717822 0.717822 0.717822
0.775962 0.775962 0.775962
0.854612 0.854612 0.854612
0.691176 0.691176 0.691176
0.693217 0.693217 0.693217
0.699333 0.699333 0.699333
0.709201 0.709201 0.709201
0.721494 0.721494 0.721494
0.747195 0.747195 0.747195
0.760958 0.760958 0.760958
0.812181 0.812181 0.812181
0.880248 0.880248 0.880248
0.747848 0.747848 0.747848
0.749184 0.749184 0.749184
0.753761 0.753761 0.753761
0.761710 0.761710 0.761710
0.773462 0.773462 0.773462
0.790773 0.790773 0.790773
0.813394 0.813394 0.813394
0.837867 0.837867 0.837867
0.883398 0.883398 0.883398
0.847076 0.847076 0.847076
0.848364 0.848364 0.848364
0.853114 0.853114 0.853114
0.861687 0.861687 0.861687
0.873386 0.873386 0.873386
0.888106 0.888106 0.888106
0.907080 0.907080 0.907080
0.899187 0.899187 0.899187
0.879590 0.879590 0.879590
0.945258 0.945258 0.945258
0.945860 0.945860 0.945860
0.948281 0.948281 0.948281
0.952788 0.952788 0.952788
0.959281 0.959281 0.959281
0.967593 0.967593 0.967593
0.977619 0.977619 0.977619
0.986299 0.986299 0.986299
0.980300 0.980300 0.980300
0.665629 0.665629 0.665629
0.667807 0.667807 0.667807
0.673515 0.673515 0.673515
0.683178 0.683178 0.683178
0.695989 0.695989 0.695989
0.711608 0.711608 0.711608
0.725333 0.725333 0.725333
0.737576 0.737576 0.737576
0.823030 0.823030 0.823030
0.672690 0.672690 0.672690
0.674316 0.674316 0.674316
0.679171 0.679171 0.679171
0.687825 0.687825 0.687825
0.699548 0.699548 0.699548
0.714005 0.714005 0.714005
0.727438 0.727438 0.727438
0.739526 0.739526 0.739526
0.824337 0.824337 0.824337
0.692549 0.692549 0.692549
0.693544 0.693544 0.693544
0.697212 0.697212 0.697212
0.704596 0.704596 0.704596
0.714737 0.714737 0.714737
0.727825 0.727825 0.727825
0.740981 0.740981 0.740981
0.751872 0.751872 0.751872
0.832601 0.832601 0.832601
0.717906 0.717906 0.717906
0.719329 0.719329 0.719329
0.722445 0.722445 0.722445
0.728930 0.728930 0.728930
0.737868 0.737868 0.737868
0.748855 0.748855 0.748855
0.760652 0.760652 0.760652
0.769927 0.769927 0.769927
0.845789 0.845789 0.845789
0.721165 0.721165 0.721165
0.724654 0.724654 0.724654
0.736536 0.736536 0.736536
0.754589 0.754589 0.754589
0.763714 0.763714 0.763714
0.773134 0.773134 0.773134
0.784721 0.784721 0.784721
0.793678 0.793678 0.793678
0.863655 0.863655 0.863655
0.757755 0.757755 0.757755
0.759077 0.759077 0.759077
0.762019 0.762019 0.762019
0.766658 0.766658 0.766658
0.783881 0.783881 0.783881
0.803839 0.803839 0.803839
0.815122 0.815122 0.815122
0.825113 0.825113 0.825113
0.886795 0.886795 0.886795
0.806475 0.806475 0.806475
0.807383 0.807383 0.807383
0.810088 0.810088 0.810088
0.814664 0.814664 0.814664
0.820985 0.820985 0.820985
0.829740 0.829740 0.829740
0.851537 0.851537 0.851537
0.863574 0.863574 0.863574
0.915130 0.915130 0.915130
0.852640 0.852640 0.852640
0.853286 0.853286 0.853286
0.855586 0.855586 0.855586
0.860041 0.860041 0.860041
0.866747 0.866747 0.866747
0.876238 0.876238 0.876238
0.890027 0.890027 0.890027
0.909000 0.909000 0.909000
0.934895 0.934895 0.934895
0.932467 0.932467 0.932467
0.933310 0.933310 0.933310
0.936202 0.936202 0.936202
0.941587 0.941587 0.941587
0.949310 0.949310 0.949310
0.959089 0.959089 0.959089
0.970282 0.970282 0.970281
0.982871 0.982871 0.982871
0.983257 0.983257 0.983257
0.804807 0.804807 0.804807
0.805711 0.805711 0.805711
0.808576 0.808576 0.808576
0.814034 0.814034 0.814034
0.821454 0.821454 0.821454
0.830655 0.830655 0.830655
0.841985 0.841985 0.841985
0.851431 0.851431 0.851431
0.860655 0.860655 0.860655
0.807507 0.807507 0.807507
0.808252 0.808252 0.808252
0.811028 0.811028 0.811028
0.816922 0.816922 0.816922
0.823901 0.823901 0.823901
0.832710 0.832710 0.832710
0.843544 0.843544 0.843544
0.852783 0.852783 0.852783
0.861947 0.861947 0.861947
0.816053 0.816053 0.816053
0.817179 0.817179 0.817179
0.819436 0.819436 0.819436
0.823603 0.823603 0.823603
0.829938 0.829938 0.829938
0.838294 0.838294 0.838294
0.848961 0.848961 0.848961
0.858571 0.858571 0.858571
0.866888 0.866888 0.866888
0.830591 0.830591 0.830591
0.831370 0.831370 0.831370
0.833496 0.833496 0.833496
0.837428 0.837428 0.837428
0.843074 0.843074 0.843074
0.850626 0.850626 0.850626
0.860533 0.860533 0.860533
0.870211 0.870211 0.870211
0.877245 0.877245 0.877245
0.841962 0.841962 0.841962
0.843202 0.843202 0.843202
0.848523 0.848523 0.848523
0.853872 0.853872 0.853872
0.858755 0.858755 0.858755
0.865879 0.865879 0.865879
0.875597 0.875597 0.875597
0.885441 0.885441 0.885441
0.891722 0.891722 0.891722
0.847422 0.847422 0.847422
0.847607 0.847607 0.847607
0.851062 0.851062 0.851062
0.861310 0.861310 0.861310
0.876320 0.876320 0.876320
0.884800 0.884800 0.884800
0.893785 0.893785 0.893785
0.903244 0.903244 0.903244
0.909170 0.909170 0.909170
0.891241 0.891241 0.891241
0.891306 0.891306 0.891306
0.891552 0.891552 0.891552
0.892097 0.892097 0.892097
0.892458 0.892458 0.892458
0.900698 0.900698 0.900698
0.915587 0.915587 0.915587
0.924571 0.924571 0.924571
0.931457 0.931457 0.931457
0.928569 0.928569 0.928569
0.929068 0.929068 0.929068
0.929838 0.929838 0.929838
0.931121 0.931121 0.931121
0.932902 0.932902 0.932902
0.935062 0.935062 0.935062
0.937686 0.937686 0.937686
0.950196 0.950196 0.950196
0.958522 0.958522 0.958522
0.958251 0.958251 0.958251
0.958511 0.958511 0.958511
0.959427 0.959427 0.959427
0.961078 0.961078 0.961078
0.963608 0.963608 0.963608
0.967106 0.967106 0.967106
0.972000 0.972000 0.972000
0.978737 0.978737 0.978737
0.987823 0.987854 0.987823
