ml_luts/bw7__lut3d_33.cube
TITLE "BW7"
DOMAIN_MIN 0.000000 0.000000 0.000000
DOMAIN_MAX 1.000000 1.000000 1.000000
LUT_3D_SIZE 33
0.142153 0.142153 0.142153
0.143957 0.143957 0.143957
0.146132 0.146132 0.146132
0.151306 0.151306 0.151306
0.157969 0.157969 0.157969
0.165155 0.165155 0.165155
0.172622 0.172622 0.172622
0.180441 0.180441 0.180441
0.188838 0.188838 0.188838
0.197755 0.197755 0.197755
0.207557 0.207557 0.207557
0.218129 0.218129 0.218129
0.229359 0.229359 0.229359
0.241409 0.241409 0.241409
0.254118 0.254118 0.254118
0.267313 0.267313 0.267313
0.281117 0.281117 0.281117
0.295550 0.295550 0.295550
0.310674 0.310674 0.310674
0.328106 0.328106 0.328106
0.348726 0.348726 0.348726
0.370795 0.370795 0.370795
0.393942 0.393942 0.393942
0.418131 0.418131 0.418131
0.443374 0.443374 0.443374
0.469905 0.469905 0.469905
0.498025 0.498025 0.498025
0.527818 0.527818 0.527818
0.559289 0.559289 0.559289
0.591478 0.591478 0.591478
0.623907 0.623907 0.623907
0.656741 0.656741 0.656741
0.690089 0.690089 0.690089
0.149189 0.149189 0.149189
0.148358 0.148358 0.148358
0.145514 0.145514 0.145514
0.148030 0.148030 0.148030
0.154916 0.154916 0.154916
0.162418 0.162418 0.162418
0.170244 0.170244 0.170244
0.178296 0.178296 0.178296
0.186827 0.186827 0.186827
0.195923 0.195923 0.195923
0.205803 0.205803 0.205803
0.216404 0.216404 0.216404
0.227718 0.227718 0.227718
0.239830 0.239830 0.239830
0.252485 0.252485 0.252485
0.265644 0.265644 0.265644
0.279373 0.279373 0.279373
0.293675 0.293675 0.293675
0.308713 0.308713 0.308713
0.325952 0.325952 0.325952
0.346139 0.346139 0.346139
0.367707 0.367707 0.367707
0.390491 0.390491 0.390491
0.414393 0.414393 0.414393
0.439471 0.439471 0.439471
0.465806 0.465806 0.465806
0.493862 0.493862 0.493862
0.523721 0.523721 0.523721
0.555450 0.555450 0.555450
0.587899 0.587899 0.587899
0.620611 0.620611 0.620611
0.653671 0.653671 0.653671
0.687162 0.687162 0.687162
0.158000 0.158000 0.158000
0.160465 0.160465 0.160465
0.156147 0.156147 0.156147
0.150884 0.150884 0.150884
0.151760 0.151760 0.151760
0.158912 0.158912 0.158912
0.167145 0.167145 0.167145
0.175571 0.175571 0.175571
0.184231 0.184231 0.184231
0.193573 0.193573 0.193573
0.203525 0.203525 0.203525
0.214211 0.214211 0.214211
0.225737 0.225737 0.225737
0.237931 0.237931 0.237931
0.250637 0.250637 0.250637
0.263845 0.263845 0.263845
0.277528 0.277528 0.277528
0.291757 0.291757 0.291757
0.306787 0.306787 0.306787
0.323981 0.323981 0.323981
0.343967 0.343967 0.343967
0.365316 0.365316 0.365316
0.387913 0.387913 0.387913
0.411621 0.411621 0.411621
0.436556 0.436556 0.436556
0.462816 0.462816 0.462816
0.490808 0.490808 0.490808
0.520790 0.520790 0.520790
0.552582 0.552582 0.552582
0.585287 0.585287 0.585287
0.618228 0.618228 0.618228
0.651488 0.651488 0.651488
0.685151 0.685151 0.685151
0.177157 0.177157 0.177157
0.179875 0.179875 0.179875
0.181978 0.181978 0.181978
0.172551 0.172551 0.172551
0.163093 0.163093 0.163093
0.154370 0.154370 0.154370
0.160598 0.160598 0.160598
0.169890 0.169890 0.169890
0.179229 0.179229 0.179229
0.189004 0.189004 0.189004
0.199309 0.199309 0.199309
0.210258 0.210258 0.210258
0.221944 0.221944 0.221944
0.234251 0.234251 0.234251
0.247051 0.247051 0.247051
0.260372 0.260372 0.260372
0.274160 0.274160 0.274160
0.288373 0.288373 0.288373
0.303477 0.303477 0.303477
0.320616 0.320616 0.320616
0.340042 0.340042 0.340042
0.360854 0.360854 0.360854
0.383061 0.383061 0.383061
0.406643 0.406643 0.406643
0.431765 0.431765 0.431765
0.458427 0.458427 0.458427
0.486912 0.486912 0.486912
0.517348 0.517348 0.517348
0.549551 0.549551 0.549551
0.582674 0.582674 0.582674
0.615779 0.615779 0.615779
0.649026 0.649026 0.649026
0.682672 0.682672 0.682672
0.200924 0.200924 0.200924
0.203229 0.203229 0.203229
0.206268 0.206268 0.206268
0.205145 0.205145 0.205145
0.191701 0.191701 0.191701
0.178174 0.178174 0.178174
0.167587 0.167587 0.167587
0.163941 0.163941 0.163941
0.171506 0.171506 0.171506
0.181980 0.181980 0.181980
0.192773 0.192773 0.192773
0.204198 0.204198 0.204198
0.216248 0.216248 0.216248
0.228787 0.228787 0.228787
0.241792 0.241792 0.241792
0.255190 0.255190 0.255190
0.269123 0.269123 0.269123
0.283547 0.283547 0.283547
0.298971 0.298971 0.298971
0.316240 0.316240 0.316240
0.335205 0.335205 0.335205
0.355624 0.355624 0.355624
0.377471 0.377471 0.377471
0.400898 0.400898 0.400898
0.426014 0.426014 0.426014
0.452770 0.452770 0.452770
0.481353 0.481353 0.481353
0.511887 0.511887 0.511887
0.544323 0.544323 0.544323
0.577764 0.577764 0.577764
0.611319 0.611319 0.611319
0.644925 0.644925 0.644925
0.678931 0.678931 0.678931
0.225982 0.225982 0.225982
0.228055 0.228055 0.228055
0.230595 0.230595 0.230595
0.235017 0.235017 0.235017
0.228064 0.228064 0.228064
0.211859 0.211859 0.211859
0.196078 0.196078 0.196078
0.183015 0.183015 0.183015
0.172894 0.172894 0.172894
0.174797 0.174797 0.174797
0.184649 0.184649 0.184649
0.196662 0.196662 0.196662
0.209093 0.209093 0.209093
0.221933 0.221933 0.221933
0.235093 0.235093 0.235093
0.248759 0.248759 0.248759
0.262941 0.262941 0.262941
0.277479 0.277479 0.277479
0.293225 0.293225 0.293225
0.310682 0.310682 0.310682
0.329420 0.329420 0.329420
0.349750 0.349750 0.349750
0.375840 0.375840 0.375840
0.408607 0.408607 0.408607
0.434666 0.434666 0.434666
0.462096 0.462096 0.462096
0.491083 0.491083 0.491083
0.521658 0.521658 0.521658
0.553876 0.553876 0.553876
0.586619 0.586619 0.586619
0.619366 0.619366 0.619366
0.652195 0.652195 0.652195
0.685255 0.685255 0.685255
0.254122 0.254122 0.254122
0.255753 0.255753 0.255753
0.258041 0.258041 0.258041
0.262735 0.262735 0.262735
0.267489 0.267489 0.267489
0.253519 0.253519 0.253519
0.234507 0.234507 0.234507
0.217162 0.217162 0.217162
0.201746 0.201746 0.201746
0.190047 0.190047 0.190047
0.181844 0.181844 0.181844
0.188155 0.188155 0.188155
0.201195 0.201195 0.201195
0.214474 0.214474 0.214474
0.228009 0.228009 0.228009
0.241972 0.241972 0.241972
0.256342 0.256342 0.256342
0.271413 0.271413 0.271413
0.287803 0.287803 0.287803
0.305606 0.305606 0.305606
0.324874 0.324874 0.324874
0.346114 0.346114 0.346114
0.370313 0.370313 0.370313
0.397609 0.397609 0.397609
0.424828 0.424828 0.424828
0.453401 0.453401 0.453401
0.483304 0.483304 0.483304
0.514495 0.514495 0.514495
0.547128 0.547128 0.547128
0.580535 0.580535 0.580535
0.613763 0.613763 0.613763
0.646992 0.646992 0.646992
0.680444 0.680444 0.680444
0.281994 0.281994 0.281994
0.283416 0.283416 0.283416
0.285419 0.285419 0.285419
0.289629 0.289629 0.289629
0.296149 0.296149 0.296149
0.294230 0.294230 0.294230
0.277542 0.277542 0.277542
0.257223 0.257223 0.257223
0.239021 0.239021 0.239021
0.222989 0.222989 0.222989
0.208391 0.208391 0.208391
0.198074 0.198074 0.198074
0.195703 0.195703 0.195703
0.204501 0.204501 0.204501
0.218437 0.218437 0.218437
0.232618 0.232618 0.232618
0.247246 0.247246 0.247246
0.262829 0.262829 0.262829
0.279363 0.279363 0.279363
0.296873 0.296873 0.296873
0.315941 0.315941 0.315941
0.336892 0.336892 0.336892
0.359954 0.359954 0.359954
0.385116 0.385116 0.385116
0.412196 0.412196 0.412196
0.440852 0.440852 0.440852
0.470867 0.470867 0.470867
0.502302 0.502302 0.502302
0.535420 0.535420 0.535420
0.569704 0.569704 0.569704
0.603975 0.603975 0.603975
0.638137 0.638137 0.638137
0.672462 0.672462 0.672462
0.311772 0.311772 0.311772
0.313073 0.313073 0.313073
0.314918 0.314918 0.314918
0.318688 0.318688 0.318688
0.324774 0.324774 0.324774
0.331010 0.331010 0.331010
0.322560 0.322560 0.322560
0.303522 0.303522 0.303522
0.281876 0.281876 0.281876
0.262344 0.262344 0.262344
0.245977 0.245977 0.245977
0.230424 0.230424 0.230424
0.217069 0.217069 0.217069
0.207503 0.207503 0.207503
0.209479 0.209479 0.209479
0.221673 0.221673 0.221673
0.236855 0.236855 0.236855
0.252769 0.252769 0.252769
0.269192 0.269192 0.269192
0.286409 0.286409 0.286409
0.305026 0.305026 0.305026
0.325461 0.325461 0.325461
0.348046 0.348046 0.348046
0.372698 0.372698 0.372698
0.399239 0.399239 0.399239
0.427619 0.427619 0.427619
0.457585 0.457585 0.457585
0.489114 0.489114 0.489114
0.522558 0.522558 0.522558
0.557584 0.557584 0.557584
0.593004 0.593004 0.593004
0.628144 0.628144 0.628144
0.663364 0.663364 0.663364
0.344753 0.344753 0.344753
0.345939 0.345939 0.345939
0.347669 0.347669 0.347669
0.351163 0.351163 0.351163
0.356782 0.356782 0.356782
0.364302 0.364302 0.364302
0.369207 0.369207 0.369207
0.354125 0.354125 0.354125
0.331997 0.331997 0.331997
0.308747 0.308747 0.308747
0.287449 0.287449 0.287449
0.270289 0.270289 0.270289
0.254270 0.254270 0.254270
0.238114 0.238114 0.238114
0.225997 0.225997 0.225997
0.219264 0.219264 0.219264
0.225126 0.225126 0.225126
0.241173 0.241173 0.241173
0.257742 0.257742 0.257742
0.274955 0.274955 0.274955
0.293282 0.293282 0.293282
0.313131 0.313131 0.313131
0.334878 0.334878 0.334878
0.358656 0.358656 0.358656
0.384493 0.384493 0.384493
0.412279 0.412279 0.412279
0.441982 0.441982 0.441982
0.473595 0.473595 0.473595
0.507432 0.507432 0.507432
0.543386 0.543386 0.543386
0.580364 0.580364 0.580364
0.617065 0.617065 0.617065
0.653619 0.653619 0.653619
0.380270 0.380270 0.380270
0.381403 0.381403 0.381403
0.383000 0.383000 0.383000
0.386347 0.386347 0.386347
0.391553 0.391553 0.391553
0.398644 0.398644 0.398644
0.407541 0.407541 0.407541
0.405228 0.405228 0.405228
0.387133 0.387133 0.387133
0.363353 0.363353 0.363353
0.338204 0.338204 0.338204
0.314779 0.314779 0.314779
0.296861 0.296861 0.296861
0.280508 0.280508 0.280508
0.263704 0.263704 0.263704
0.247655 0.247655 0.247655
0.236535 0.236535 0.236535
0.234760 0.234760 0.234760
0.244494 0.244494 0.244494
0.261726 0.261726 0.261726
0.279848 0.279848 0.279848
0.299268 0.299268 0.299268
0.320330 0.320330 0.320330
0.343429 0.343429 0.343429
0.368688 0.368688 0.368688
0.395979 0.395979 0.395979
0.425301 0.425301 0.425301
0.456845 0.456845 0.456845
0.490786 0.490786 0.490786
0.527192 0.527192 0.527192
0.565405 0.565405 0.565405
0.603812 0.603812 0.603812
0.641792 0.641792 0.641792
0.418440 0.418440 0.418440
0.419505 0.419505 0.419505
0.420962 0.420962 0.420962
0.424083 0.424083 0.424083
0.428957 0.428957 0.428957
0.435587 0.435587 0.435587
0.443965 0.443965 0.443965
0.451387 0.451387 0.451387
0.442942 0.442942 0.442942
0.422424 0.422424 0.422424
0.397345 0.397345 0.397345
0.371286 0.371286 0.371286
0.350586 0.350586 0.350586
0.334026 0.334026 0.334026
0.316217 0.316217 0.316217
0.297098 0.297098 0.297098
0.278118 0.278118 0.278118
0.261787 0.261787 0.261787
0.251223 0.251223 0.251223
0.252703 0.252703 0.252703
0.268096 0.268096 0.268096
0.287564 0.287564 0.287564
0.308473 0.308473 0.308473
0.331185 0.331185 0.331185
0.356048 0.356048 0.356048
0.383062 0.383062 0.383062
0.412217 0.412217 0.412217
0.443683 0.443683 0.443683
0.477609 0.477609 0.477609
0.514206 0.514206 0.514206
0.553089 0.553089 0.553089
0.592681 0.592681 0.592681
0.631832 0.631832 0.631832
0.461711 0.461711 0.461711
0.462709 0.462709 0.462709
0.463882 0.463882 0.463882
0.466527 0.466527 0.466527
0.470735 0.470735 0.470735
0.476506 0.476506 0.476506
0.483919 0.483919 0.483919
0.492935 0.492935 0.492935
0.497849 0.497849 0.497849
0.485051 0.485051 0.485051
0.463924 0.463924 0.463924
0.439956 0.439956 0.439956
0.415530 0.415530 0.415530
0.390651 0.390651 0.390651
0.370323 0.370323 0.370323
0.351182 0.351182 0.351182
0.330001 0.330001 0.330001
0.308870 0.308870 0.308870
0.288084 0.288084 0.288084
0.272481 0.272481 0.272481
0.266292 0.266292 0.266292
0.272119 0.272119 0.272119
0.292687 0.292687 0.292687
0.314786 0.314786 0.314786
0.338876 0.338876 0.338876
0.365191 0.365191 0.365191
0.393863 0.393863 0.393863
0.424974 0.424974 0.424974
0.458837 0.458837 0.458837
0.495561 0.495561 0.495561
0.535087 0.535087 0.535087
0.576281 0.576281 0.576281
0.617361 0.617361 0.617361
0.503872 0.503872 0.503872
0.504761 0.504761 0.504761
0.505773 0.505773 0.505773
0.508009 0.508009 0.508009
0.511549 0.511549 0.511549
0.516878 0.516878 0.516878
0.524039 0.524039 0.524039
0.532778 0.532778 0.532778
0.543116 0.543116 0.543116
0.542727 0.542727 0.542727
0.528317 0.528317 0.528317
0.507450 0.507450 0.507450
0.483154 0.483154 0.483154
0.455036 0.455036 0.455036
0.427801 0.427801 0.427801
0.406147 0.406147 0.406147
0.385347 0.385347 0.385347
0.362470 0.362470 0.362470
0.339793 0.339793 0.339793
0.317619 0.317619 0.317619
0.296972 0.296972 0.296972
0.283064 0.283064 0.283064
0.282452 0.282452 0.282452
0.294803 0.294803 0.294803
0.317957 0.317957 0.317957
0.343305 0.343305 0.343305
0.371158 0.371158 0.371158
0.401680 0.401680 0.401680
0.435154 0.435154 0.435154
0.471830 0.471830 0.471830
0.511912 0.511912 0.511912
0.554710 0.554710 0.554710
0.598389 0.598389 0.598389
0.545647 0.545647 0.545647
0.546475 0.546475 0.546475
0.547378 0.547378 0.547378
0.549436 0.549436 0.549436
0.552606 0.552606 0.552606
0.557317 0.557317 0.557317
0.563573 0.563573 0.563573
0.571219 0.571219 0.571219
0.580222 0.580222 0.580222
0.587910 0.587910 0.587910
0.582691 0.582691 0.582691
0.567138 0.567138 0.567138
0.546753 0.546753 0.546753
0.522422 0.522422 0.522422
0.493705 0.493705 0.493705
0.465534 0.465534 0.465534
0.442462 0.442462 0.442462
0.420471 0.420471 0.420471
0.396640 0.396640 0.396640
0.373122 0.373122 0.373122
0.350137 0.350137 0.350137
0.327483 0.327483 0.327483
0.307813 0.307813 0.307813
0.297185 0.297185 0.297185
0.299568 0.299568 0.299568
0.320582 0.320582 0.320582
0.347455 0.347455 0.347455
0.377254 0.377251 0.377251
0.410344 0.410329 0.410329
0.447003 0.447003 0.447003
0.487602 0.487602 0.487602
0.531757 0.531757 0.531757
0.578340 0.578340 0.578340
0.586245 0.586245 0.586245
0.587057 0.587057 0.587057
0.587869 0.587869 0.587869
0.589664 0.589664 0.589664
0.592433 0.592433 0.592433
0.596297 0.596297 0.596297
0.601259 0.601259 0.601259
0.607376 0.607376 0.607376
0.614633 0.614633 0.614633
0.623000 0.623000 0.623000
0.627196 0.627196 0.627196
0.618490 0.618490 0.618490
0.602276 0.602276 0.602276
0.582449 0.582449 0.582449
0.558530 0.558530 0.558530
0.530060 0.530060 0.530060
0.501843 0.501843 0.501843
0.478148 0.478148 0.478148
0.456006 0.456006 0.456006
0.432786 0.432786 0.432786
0.409494 0.409494 0.409494
0.386221 0.386221 0.386221
0.362721 0.362721 0.362721
0.338872 0.338872 0.338872
0.319288 0.319288 0.319288
0.315173 0.315173 0.315173
0.323221 0.323221 0.323221
0.351968 0.351966 0.351966
0.384354 0.384341 0.384341
0.420684 0.420684 0.420684
0.461187 0.461187 0.461187
0.505993 0.505993 0.505993
0.554534 0.554534 0.554534
0.621714 0.621714 0.621714
0.622364 0.622364 0.622364
0.623029 0.623029 0.623029
0.624496 0.624496 0.624496
0.626766 0.626766 0.626766
0.629940 0.629940 0.629940
0.634043 0.634043 0.634043
0.639123 0.639123 0.639123
0.645133 0.645133 0.645133
0.652003 0.652003 0.652003
0.659696 0.659696 0.659696
0.658952 0.658952 0.658952
0.648199 0.648199 0.648199
0.632430 0.632430 0.632430
0.613500 0.613500 0.613500
0.590758 0.590758 0.590758
0.563653 0.563653 0.563653
0.536509 0.536509 0.536509
0.513475 0.513475 0.513475
0.492485 0.492485 0.492485
0.470923 0.470923 0.470923
0.448385 0.448385 0.448385
0.425327 0.425327 0.425327
0.401577 0.401577 0.401577
0.376970 0.376970 0.376970
0.352368 0.352368 0.352368
0.334784 0.334784 0.334784
0.337227 0.337227 0.337227
0.356321 0.356321 0.356321
0.391593 0.391593 0.391593
0.431343 0.431343 0.431343
0.475983 0.475983 0.475983
0.525414 0.525414 0.525414
0.652762 0.652762 0.652762
0.653334 0.653334 0.653334
0.658105 0.658105 0.658105
0.659566 0.659566 0.659566
0.661355 0.661355 0.661355
0.663817 0.663817 0.663817
0.667009 0.667009 0.667009
0.670996 0.670996 0.670996
0.675811 0.675811 0.675811
0.681370 0.681370 0.681370
0.687658 0.687658 0.687658
0.692582 0.692582 0.692582
0.688620 0.688620 0.688620
0.677108 0.677108 0.677108
0.662129 0.662129 0.662129
0.644355 0.644355 0.644355
0.623267 0.623267 0.623267
0.598282 0.598282 0.598282
0.572806 0.572806 0.572806
0.551290 0.551290 0.551290
0.532371 0.532371 0.532371
0.512709 0.512709 0.512709
0.491216 0.491216 0.491216
0.468765 0.468765 0.468765
0.445274 0.445274 0.445274
0.420288 0.420288 0.420288
0.393775 0.393775 0.393775
0.368306 0.368306 0.368306
0.357636 0.357636 0.357636
0.363699 0.363699 0.363699
0.398193 0.398193 0.398193
0.441978 0.441978 0.441978
0.491536 0.491536 0.491536
0.681981 0.681981 0.681981
0.683006 0.683006 0.683006
0.689103 0.689103 0.689103
0.690850 0.690850 0.690850
0.692650 0.692650 0.692650
0.694775 0.694775 0.694775
0.697365 0.697365 0.697365
0.700519 0.700519 0.700519
0.704375 0.704375 0.704375
0.708891 0.708891 0.708891
0.714041 0.714041 0.714041
0.719714 0.719714 0.719714
0.721917 0.721917 0.721917
0.715490 0.715490 0.715490
0.703546 0.703546 0.703546
0.689374 0.689374 0.689374
0.672776 0.672776 0.672776
0.653401 0.653401 0.653401
0.630716 0.630716 0.630716
0.607372 0.607372 0.607372
0.587874 0.587874 0.587874
0.571461 0.571461 0.571461
0.554357 0.554357 0.554357
0.534877 0.534877 0.534877
0.514067 0.514067 0.514067
0.491468 0.491468 0.491468
0.467183 0.467183 0.467183
0.440889 0.440889 0.440889
0.412533 0.412533 0.412533
0.385106 0.385106 0.385106
0.387682 0.387682 0.387682
0.404581 0.404581 0.404581
0.453115 0.453115 0.453115
0.708743 0.708743 0.708743
0.710178 0.710178 0.710178
0.711717 0.711717 0.711717
0.713552 0.713552 0.713552
0.715609 0.715609 0.715609
0.717726 0.717726 0.717726
0.720104 0.720104 0.720104
0.722866 0.722866 0.722866
0.726220 0.726220 0.726220
0.730153 0.730153 0.730153
0.734650 0.734650 0.734650
0.739630 0.739630 0.739630
0.744931 0.744931 0.744931
0.744109 0.744109 0.744109
0.735982 0.735982 0.735982
0.724462 0.724462 0.724462
0.711180 0.711180 0.711180
0.695902 0.695902 0.695902
0.678258 0.678258 0.678258
0.657878 0.657878 0.657878
0.636797 0.636797 0.636797
0.619504 0.619504 0.619504
0.606258 0.606258 0.606258
0.592465 0.592465 0.592465
0.575930 0.575930 0.575930
0.557675 0.557675 0.557675
0.537772 0.537772 0.537772
0.515953 0.515953 0.515953
0.491918 0.491918 0.491918
0.465315 0.465315 0.465315
0.436004 0.436004 0.436004
0.413725 0.413725 0.413725
0.427329 0.427329 0.427329
0.732151 0.732151 0.732151
0.733426 0.733426 0.733426
0.734808 0.734808 0.734808
0.736439 0.736439 0.736439
0.738265 0.738265 0.738265
0.740141 0.740141 0.740141
0.742220 0.742220 0.742220
0.744662 0.744662 0.744662
0.747589 0.747589 0.747589
0.751059 0.751059 0.751059
0.755039 0.755039 0.755039
0.759452 0.759452 0.759452
0.764173 0.764173 0.764173
0.767686 0.767686 0.767686
0.764750 0.764750 0.764750
0.756065 0.756065 0.756065
0.745260 0.745260 0.745260
0.733023 0.733023 0.733023
0.719195 0.719195 0.719195
0.703512 0.703512 0.703512
0.685565 0.685565 0.685565
0.666750 0.666750 0.666750
0.651564 0.651564 0.651564
0.641241 0.641241 0.641241
0.630534 0.630534 0.630534
0.617168 0.617168 0.617168
0.602531 0.602531 0.602531
0.586342 0.586342 0.586342
0.568377 0.568377 0.568377
0.548345 0.548345 0.548345
0.525585 0.525585 0.525585
0.498941 0.498941 0.498941
0.467004 0.467004 0.467004
0.756156 0.756156 0.756156
0.757146 0.757146 0.757146
0.758229 0.758229 0.758229
0.759547 0.759547 0.759547
0.761051 0.761051 0.761051
0.762634 0.762634 0.762634
0.764451 0.764451 0.764451
0.766637 0.766637 0.766637
0.769245 0.769245 0.769245
0.772355 0.772355 0.772355
0.775948 0.775948 0.775948
0.779906 0.779906 0.779906
0.784143 0.784143 0.784143
0.788626 0.788626 0.788626
0.790326 0.790326 0.790326
0.785753 0.785753 0.785753
0.777015 0.777015 0.777015
0.767107 0.767107 0.767107
0.756091 0.756091 0.756091
0.743768 0.743768 0.743768
0.729915 0.729915 0.729915
0.714187 0.714187 0.714187
0.697374 0.697374 0.697374
0.683703 0.683703 0.683703
0.675891 0.675891 0.675891
0.667882 0.667882 0.667882
0.657662 0.657662 0.657662
0.646636 0.646636 0.646636
0.634799 0.634799 0.634799
0.621801 0.621801 0.621801
0.607094 0.607094 0.607094
0.589767 0.589767 0.589767
0.568763 0.568763 0.568763
0.780810 0.780810 0.780810
0.781421 0.781421 0.781421
0.782042 0.782042 0.782042
0.782941 0.782941 0.782941
0.784038 0.784038 0.784038
0.785311 0.785311 0.785311
0.786871 0.786871 0.786871
0.788809 0.788809 0.788809
0.791209 0.791209 0.791209
0.794049 0.794049 0.794049
0.797341 0.797341 0.797341
0.800943 0.800943 0.800943
0.804787 0.804787 0.804787
0.808827 0.808827 0.808827
0.813060 0.813060 0.813060
0.812776 0.812776 0.812776
0.806791 0.806791 0.806791
0.798566 0.798566 0.798566
0.789423 0.789423 0.789423
0.779251 0.779251 0.779251
0.767857 0.767857 0.767857
0.755084 0.755084 0.755084
0.740654 0.740654 0.740654
0.724988 0.724988 0.724988
0.711904 0.711904 0.711904
0.705474 0.705474 0.705474
0.699662 0.699662 0.699662
0.692227 0.692227 0.692227
0.684449 0.684449 0.684449
0.676296 0.676296 0.676296
0.667481 0.667481 0.667481
0.657765 0.657765 0.657765
0.646889 0.646889 0.646889
0.803175 0.803175 0.803175
0.803774 0.803774 0.803774
0.804362 0.804362 0.804362
0.805132 0.805132 0.805132
0.806060 0.806060 0.806060
0.807121 0.807121 0.807121
0.808419 0.808419 0.808419
0.810008 0.810008 0.810008
0.811991 0.811991 0.811991
0.814389 0.814389 0.814389
0.817172 0.817172 0.817172
0.820286 0.820286 0.820286
0.823642 0.823642 0.823642
0.827214 0.827214 0.827214
0.830988 0.830988 0.830988
0.833838 0.833838 0.833838
0.832052 0.832052 0.832052
0.825845 0.825845 0.825845
0.818385 0.818385 0.818385
0.810139 0.810139 0.810139
0.800972 0.800972 0.800972
0.790721 0.790721 0.790721
0.779200 0.779200 0.779200
0.766140 0.766140 0.766140
0.751175 0.751175 0.751175
0.737341 0.737341 0.737341
0.733220 0.733220 0.733220
0.729608 0.729608 0.729608
0.724870 0.724870 0.724870
0.719945 0.719945 0.719945
0.715077 0.715077 0.715077
0.710296 0.710296 0.710296
0.705732 0.705732 0.705732
0.826032 0.826032 0.826032
0.826631 0.826631 0.826631
0.827136 0.827136 0.827136
0.827708 0.827708 0.827708
0.828385 0.828385 0.828385
0.829220 0.829220 0.829220
0.830239 0.830239 0.830239
0.831503 0.831503 0.831503
0.833064 0.833064 0.833064
0.834978 0.834978 0.834978
0.837213 0.837213 0.837213
0.839792 0.839792 0.839792
0.842642 0.842642 0.842642
0.845694 0.845694 0.845694
0.848876 0.848876 0.848876
0.852208 0.852208 0.852208
0.853517 0.853517 0.853517
0.850366 0.850366 0.850366
0.844285 0.844285 0.844285
0.837603 0.837603 0.837603
0.830279 0.830279 0.830279
0.822135 0.822135 0.822135
0.812911 0.812911 0.812911
0.802332 0.802332 0.802332
0.790207 0.790207 0.790207
0.776436 0.776436 0.776436
0.764048 0.764048 0.764048
0.761589 0.761589 0.761589
0.760194 0.760194 0.760194
0.757865 0.757865 0.757865
0.755573 0.755573 0.755573
0.754049 0.754049 0.754049
0.753376 0.753376 0.753376
0.845893 0.845893 0.845893
0.846400 0.846400 0.846400
0.846852 0.846852 0.846852
0.847349 0.847349 0.847349
0.847918 0.847918 0.847918
0.848633 0.848633 0.848633
0.849557 0.849557 0.849557
0.850726 0.850726 0.850726
0.852179 0.852179 0.852179
0.853959 0.853959 0.853959
0.856039 0.856039 0.856039
0.858429 0.858429 0.858429
0.861071 0.861071 0.861071
0.863882 0.863882 0.863882
0.866812 0.866812 0.866812
0.869880 0.869880 0.869880
0.873125 0.873125 0.873125
0.873335 0.873335 0.873335
0.869288 0.869288 0.869288
0.863948 0.863948 0.863948
0.858127 0.858127 0.858127
0.851662 0.851662 0.851662
0.844388 0.844388 0.844388
0.836091 0.836091 0.836091
0.826592 0.826592 0.826592
0.815651 0.815651 0.815651
0.803095 0.803095 0.803095
0.791152 0.791152 0.791152
0.790533 0.790533 0.790533
0.791373 0.791373 0.791373
0.791606 0.791606 0.791606
0.792455 0.792455 0.792455
0.794436 0.794436 0.794436
0.865629 0.865629 0.865629
0.866021 0.866021 0.866021
0.866285 0.866285 0.866285
0.866657 0.866657 0.866657
0.867082 0.867082 0.867082
0.867703 0.867703 0.867703
0.868528 0.868528 0.868528
0.869582 0.869582 0.869582
0.870939 0.870939 0.870939
0.872609 0.872609 0.872609
0.874562 0.874562 0.874562
0.876820 0.876820 0.876820
0.879291 0.879291 0.879291
0.881894 0.881894 0.881894
0.884575 0.884575 0.884575
0.887341 0.887341 0.887341
0.890232 0.890232 0.890232
0.892543 0.892543 0.892543
0.891798 0.891798 0.891798
0.887853 0.887853 0.887853
0.883267 0.883267 0.883267
0.878198 0.878198 0.878198
0.872525 0.872525 0.872525
0.866080 0.866080 0.866080
0.858750 0.858750 0.858750
0.850316 0.850316 0.850316
0.840626 0.840626 0.840626
