ml_luts/bw8__lut3d_33.cube
TITLE "BW8"
DOMAIN_MIN 0.000000 0.000000 0.000000
DOMAIN_MAX 1.000000 1.000000 1.000000
LUT_3D_SIZE 5
0.131930 0.131930 0.131930
0.154032 0.154032 0.154032
0.248172 0.248172 0.248172
0.405257 0.405257 0.405257
0.703517 0.703517 0.703517
0.194309 0.194309 0.194309
0.219291 0.219291 0.219291
0.311055 0.311055 0.311055
0.442737 0.442737 0.442737
0.741192 0.741192 0.741192
0.391593 0.391593 0.391593
0.402586 0.402586 0.402586
0.447486 0.447486 0.447486
0.590952 0.590952 0.590952
0.836820 0.836820 0.836820
0.667307 0.667307 0.667307
0.677074 0.677074 0.677074
0.710998 0.710998 0.710998
0.780951 0.780951 0.780951
0.918143 0.918143 0.918143
0.928710 0.928710 0.928710
0.930479 0.930479 0.930479
0.937606 0.937606 0.937606
0.947265 0.947265 0.947265
0.954192 0.954192 0.954192
0.139865 0.139865 0.139865
0.159791 0.159791 0.159791
0.269780 0.269780 0.269780
0.415093 0.415093 0.415093
0.698032 0.698032 0.698032
0.186137 0.186137 0.186137
0.229699 0.229699 0.229699
0.327379 0.327379 0.327379
0.447176 0.447176 0.447176
0.733416 0.733416 0.733416
0.391135 0.391135 0.391135
0.410283 0.410283 0.410283
0.450769 0.450769 0.450769
0.591946 0.591946 0.591946
0.834276 0.834276 0.834276
0.663710 0.663710 0.663710
0.677115 0.677115 0.677115
0.712867 0.712867 0.712867
0.782000 0.782000 0.782000
0.918776 0.918776 0.918776
0.928397 0.928397 0.928397
0.930516 0.930516 0.930516
0.937964 0.937964 0.937964
0.947248 0.947248 0.947248
0.954169 0.954169 0.954169
0.176455 0.176455 0.176455
0.197730 0.197730 0.197730
0.273129 0.273129 0.273129
0.427043 0.427043 0.427043
0.699764 0.699764 0.699764
0.244518 0.244518 0.244518
0.277065 0.277065 0.277065
0.334156 0.334156 0.334156
0.463179 0.463179 0.463179
0.725108 0.725108 0.725108
0.364439 0.364439 0.364439
0.391947 0.391947 0.391947
0.467796 0.467796 0.467796
0.599039 0.599039 0.599039
0.825879 0.825879 0.825879
0.655764 0.655764 0.655764
0.673821 0.673821 0.673821
0.729599 0.729599 0.729599
0.792390 0.792390 0.792390
0.919883 0.919883 0.919883
0.927061 0.927061 0.927061
0.930384 0.930384 0.930384
0.938896 0.938896 0.938896
0.947643 0.947643 0.947643
0.954345 0.954345 0.954345
0.268879 0.268879 0.268879
0.288798 0.288798 0.288798
0.343557 0.343557 0.343557
0.424193 0.424193 0.424193
0.727161 0.727161 0.727161
0.340753 0.340753 0.340753
0.352617 0.352617 0.352617
0.390342 0.390342 0.390342
0.460265 0.460265 0.460265
0.752321 0.752321 0.752321
0.409236 0.409236 0.409236
0.432061 0.432061 0.432061
0.524752 0.524752 0.524752
0.598783 0.598783 0.598783
0.823915 0.823915 0.823915
0.604944 0.604944 0.604944
0.627431 0.627431 0.627431
0.697123 0.697123 0.697123
0.810612 0.810612 0.810612
0.913928 0.913928 0.913928
0.924490 0.924490 0.924490
0.927708 0.927708 0.927708
0.937384 0.937384 0.937384
0.949014 0.949014 0.949014
0.954818 0.954818 0.954818
0.462440 0.462440 0.462440
0.476180 0.476180 0.476180
0.526650 0.526650 0.526650
0.612627 0.612627 0.612627
0.742977 0.742977 0.742977
0.514847 0.514847 0.514847
0.528460 0.528460 0.528460
0.575410 0.575410 0.575410
0.651649 0.651649 0.651649
0.767445 0.767445 0.767445
0.622171 0.622171 0.622171
0.657901 0.657901 0.657901
0.700435 0.700435 0.700435
0.754784 0.754784 0.754784
0.835874 0.835874 0.835874
0.776989 0.776989 0.776989
0.783328 0.783328 0.783328
0.803681 0.803681 0.803681
0.879457 0.879457 0.879457
0.917120 0.917120 0.917120
0.923980 0.923980 0.923980
0.926467 0.926467 0.926467
0.934615 0.934615 0.934615
0.946868 0.946868 0.946868
0.955474 0.955474 0.955474
