ml_luts/bw8__lut3d_33.cube
TITLE "BW8"
DOMAIN_MIN 0.000000 0.000000 0.000000
DOMAIN_MAX 1.000000 1.000000 1.000000
LUT_3D_SIZE 33
0.131930 0.131930 0.131930
0.132403 0.132403 0.132403
0.132990 0.132990 0.132990
0.134715 0.134715 0.134715
0.136893 0.136893 0.136893
0.139909 0.139909 0.139909
0.143910 0.143910 0.143910
0.148508 0.148508 0.148508
0.154032 0.154032 0.154032
0.160587 0.160587 0.160587
0.168361 0.168361 0.168361
0.177662 0.177662 0.177662
0.188537 0.188537 0.188537
0.201138 0.201138 0.201138
0.215433 0.215433 0.215433
0.231232 0.231232 0.231232
0.248172 0.248172 0.248172
0.265914 0.265914 0.265914
0.284104 0.284104 0.284104
0.303516 0.303516 0.303516
0.324472 0.324472 0.324472
0.345185 0.345185 0.345185
0.365402 0.365402 0.365402
0.385281 0.385281 0.385281
0.405257 0.405257 0.405257
0.426087 0.426087 0.426087
0.449544 0.449544 0.449544
0.478487 0.478487 0.478487
0.514184 0.514184 0.514184
0.556487 0.556487 0.556487
0.603099 0.603099 0.603099
0.652607 0.652607 0.652607
0.703517 0.703517 0.703517
0.132994 0.132994 0.132994
0.133295 0.133295 0.133295
0.134043 0.134043 0.134043
0.135753 0.135753 0.135753
0.138134 0.138134 0.138134
0.141304 0.141304 0.141304
0.145184 0.145184 0.145184
0.149796 0.149796 0.149796
0.155200 0.155200 0.155200
0.161753 0.161753 0.161753
0.169502 0.169502 0.169502
0.178785 0.178785 0.178785
0.189679 0.189679 0.189679
0.202238 0.202238 0.202238
0.216447 0.216447 0.216447
0.232161 0.232161 0.232161
0.249030 0.249030 0.249030
0.266617 0.266617 0.266617
0.284588 0.284588 0.284588
0.303815 0.303815 0.303815
0.324494 0.324494 0.324494
0.344837 0.344837 0.344837
0.364785 0.364785 0.364785
0.384526 0.384526 0.384526
0.404421 0.404421 0.404421
0.425102 0.425102 0.425102
0.448382 0.448382 0.448382
0.477120 0.477120 0.477120
0.512590 0.512590 0.512590
0.554716 0.554716 0.554716
0.601355 0.601355 0.601355
0.650864 0.650864 0.650864
0.701802 0.701802 0.701802
0.134488 0.134488 0.134488
0.134783 0.134783 0.134783
0.135375 0.135375 0.135375
0.137177 0.137177 0.137177
0.139802 0.139802 0.139802
0.143081 0.143081 0.143081
0.147018 0.147018 0.147018
0.151505 0.151505 0.151505
0.156890 0.156890 0.156890
0.163388 0.163388 0.163388
0.171211 0.171211 0.171211
0.180519 0.180519 0.180519
0.191439 0.191439 0.191439
0.204104 0.204104 0.204104
0.218320 0.218320 0.218320
0.233917 0.233917 0.233917
0.250674 0.250674 0.250674
0.268160 0.268160 0.268160
0.286000 0.286000 0.286000
0.305037 0.305037 0.305037
0.325457 0.325457 0.325457
0.345547 0.345547 0.345547
0.365301 0.365301 0.365301
0.384903 0.384903 0.384903
0.404645 0.404645 0.404645
0.425274 0.425274 0.425274
0.448448 0.448448 0.448448
0.477124 0.477124 0.477124
0.512543 0.512543 0.512543
0.554682 0.554682 0.554682
0.601263 0.601263 0.601263
0.650662 0.650662 0.650662
0.701518 0.701518 0.701518
0.138125 0.138125 0.138125
0.138555 0.138555 0.138555
0.139114 0.139114 0.139114
0.140771 0.140771 0.140771
0.144218 0.144218 0.144218
0.147411 0.147411 0.147411
0.151111 0.151111 0.151111
0.155501 0.155501 0.155501
0.160852 0.160852 0.160852
0.167359 0.167359 0.167359
0.175232 0.175232 0.175232
0.184651 0.184651 0.184651
0.195655 0.195655 0.195655
0.208331 0.208331 0.208331
0.222489 0.222489 0.222489
0.238013 0.238013 0.238013
0.254612 0.254612 0.254612
0.271825 0.271825 0.271825
0.289508 0.289508 0.289508
0.308221 0.308221 0.308221
0.327899 0.327899 0.327899
0.347417 0.347417 0.347417
0.366800 0.366800 0.366800
0.386195 0.386195 0.386195
0.405920 0.405920 0.405920
0.426673 0.426673 0.426673
0.450230 0.450230 0.450230
0.479366 0.479366 0.479366
0.515246 0.515246 0.515246
0.557507 0.557507 0.557507
0.603809 0.603809 0.603809
0.652820 0.652820 0.652820
0.703135 0.703135 0.703135
0.144793 0.144793 0.144793
0.145210 0.145210 0.145210
0.145867 0.145867 0.145867
0.147321 0.147321 0.147321
0.149944 0.149944 0.149944
0.154241 0.154241 0.154241
0.157798 0.157798 0.157798
0.161951 0.161951 0.161951
0.167218 0.167218 0.167218
0.173790 0.173790 0.173790
0.181717 0.181717 0.181717
0.191242 0.191242 0.191242
0.202333 0.202333 0.202333
0.215030 0.215030 0.215030
0.229213 0.229213 0.229213
0.244626 0.244626 0.244626
0.260977 0.260977 0.260977
0.277866 0.277866 0.277866
0.295358 0.295358 0.295358
0.313777 0.313777 0.313777
0.332711 0.332711 0.332711
0.351578 0.351578 0.351578
0.370414 0.370414 0.370414
0.389394 0.389394 0.389394
0.408861 0.408861 0.408861
0.429557 0.429557 0.429557
0.453460 0.453460 0.453460
0.482912 0.482912 0.482912
0.518994 0.518994 0.518994
0.561223 0.561223 0.561223
0.607285 0.607285 0.607285
0.655972 0.655972 0.655972
0.705920 0.705920 0.705920
0.153444 0.153444 0.153444
0.153807 0.153807 0.153807
0.154454 0.154454 0.154454
0.155692 0.155692 0.155692
0.158030 0.158030 0.158030
0.161554 0.161554 0.161554
0.167310 0.167310 0.167310
0.171761 0.171761 0.171761
0.176780 0.176780 0.176780
0.183248 0.183248 0.183248
0.191267 0.191267 0.191267
0.200870 0.200870 0.200870
0.212030 0.212030 0.212030
0.224713 0.224713 0.224713
0.238753 0.238753 0.238753
0.253910 0.253910 0.253910
0.269902 0.269902 0.269902
0.286290 0.286290 0.286290
0.303411 0.303411 0.303411
0.321463 0.321463 0.321463
0.339653 0.339653 0.339653
0.357857 0.357857 0.357857
0.378923 0.378923 0.378923
0.403596 0.403596 0.403596
0.423225 0.423225 0.423225
0.444844 0.444844 0.444844
0.470816 0.470816 0.470816
0.502367 0.502367 0.502367
0.539874 0.539874 0.539874
0.581961 0.581961 0.581961
0.627244 0.627244 0.627244
0.674399 0.674399 0.674399
0.722233 0.722233 0.722233
0.164649 0.164649 0.164649
0.165099 0.165099 0.165099
0.165674 0.165674 0.165674
0.166962 0.166962 0.166962
0.169064 0.169064 0.169064
0.172489 0.172489 0.172489
0.177245 0.177245 0.177245
0.185088 0.185088 0.185088
0.190940 0.190940 0.190940
0.197373 0.197373 0.197373
0.205489 0.205489 0.205489
0.215201 0.215201 0.215201
0.226452 0.226452 0.226452
0.239042 0.239042 0.239042
0.252723 0.252723 0.252723
0.267271 0.267271 0.267271
0.282456 0.282456 0.282456
0.298443 0.298443 0.298443
0.315357 0.315357 0.315357
0.332791 0.332791 0.332791
0.350501 0.350501 0.350501
0.368596 0.368596 0.368596
0.387769 0.387769 0.387769
0.408258 0.408258 0.408258
0.428439 0.428439 0.428439
0.451159 0.451159 0.451159
0.478297 0.478297 0.478297
0.510848 0.510848 0.510848
0.548837 0.548837 0.548837
0.590718 0.590718 0.590718
0.635336 0.635336 0.635336
0.681710 0.681710 0.681710
0.728657 0.728657 0.728657
0.177942 0.177942 0.177942
0.178461 0.178461 0.178461
0.179066 0.179066 0.179066
0.180357 0.180357 0.180357
0.182408 0.182408 0.182408
0.185568 0.185568 0.185568
0.189946 0.189946 0.189946
0.196155 0.196155 0.196155
0.206311 0.206311 0.206311
0.214041 0.214041 0.214041
0.221931 0.221931 0.221931
0.231465 0.231465 0.231465
0.242377 0.242377 0.242377
0.254493 0.254493 0.254493
0.267555 0.267555 0.267555
0.281297 0.281297 0.281297
0.295773 0.295773 0.295773
0.311250 0.311250 0.311250
0.327320 0.327320 0.327320
0.343528 0.343528 0.343528
0.360192 0.360192 0.360192
0.377474 0.377474 0.377474
0.395472 0.395472 0.395472
0.414266 0.414266 0.414266
0.434368 0.434368 0.434368
0.457644 0.457644 0.457644
0.485436 0.485436 0.485436
0.518479 0.518479 0.518479
0.556484 0.556484 0.556484
0.598035 0.598035 0.598035
0.642134 0.642134 0.642134
0.687925 0.687925 0.687925
0.734155 0.734155 0.734155
0.194309 0.194309 0.194309
0.194796 0.194796 0.194796
0.195499 0.195499 0.195499
0.196769 0.196769 0.196769
0.198858 0.198858 0.198858
0.201771 0.201771 0.201771
0.205990 0.205990 0.205990
0.211518 0.211518 0.211518
0.219291 0.219291 0.219291
0.230549 0.230549 0.230549
0.240999 0.240999 0.240999
0.250478 0.250478 0.250478
0.260756 0.260756 0.260756
0.272108 0.272108 0.272108
0.284234 0.284234 0.284234
0.297124 0.297124 0.297124
0.311055 0.311055 0.311055
0.325672 0.325672 0.325672
0.340322 0.340322 0.340322
0.355187 0.355187 0.355187
0.370731 0.370731 0.370731
0.387087 0.387087 0.387087
0.404321 0.404321 0.404321
0.422573 0.422573 0.422573
0.442737 0.442737 0.442737
0.466675 0.466675 0.466675
0.495123 0.495123 0.495123
0.528655 0.528655 0.528655
0.566501 0.566501 0.566501
0.607557 0.607557 0.607557
0.650980 0.650980 0.650980
0.695929 0.695929 0.695929
0.741192 0.741192 0.741192
0.214023 0.214023 0.214023
0.214453 0.214453 0.214453
0.215120 0.215120 0.215120
0.216441 0.216441 0.216441
0.218491 0.218491 0.218491
0.221340 0.221340 0.221340
0.225173 0.225173 0.225173
0.230500 0.230500 0.230500
0.237013 0.237013 0.237013
0.245888 0.245888 0.245888
0.257714 0.257714 0.257714
0.270247 0.270247 0.270247
0.281015 0.281015 0.281015
0.291363 0.291363 0.291363
0.302754 0.302754 0.302754
0.315190 0.315190 0.315190
0.328272 0.328272 0.328272
0.341526 0.341526 0.341526
0.354793 0.354793 0.354793
0.368437 0.368437 0.368437
0.382866 0.382866 0.382866
0.398204 0.398204 0.398204
0.414505 0.414505 0.414505
0.432165 0.432165 0.432165
0.452575 0.452575 0.452575
0.477017 0.477017 0.477017
0.506127 0.506127 0.506127
0.540087 0.540087 0.540087
0.577883 0.577883 0.577883
0.618640 0.618640 0.618640
0.661587 0.661587 0.661587
0.705826 0.705826 0.705826
0.750206 0.750206 0.750206
0.236559 0.236559 0.236559
0.237034 0.237034 0.237034
0.237639 0.237639 0.237639
0.238959 0.238959 0.238959
0.241024 0.241024 0.241024
0.243840 0.243840 0.243840
0.247483 0.247483 0.247483
0.252278 0.252278 0.252278
0.258399 0.258399 0.258399
0.265609 0.265609 0.265609
0.274839 0.274839 0.274839
0.286570 0.286570 0.286570
0.300525 0.300525 0.300525
0.312450 0.312450 0.312450
0.323095 0.323095 0.323095
0.334383 0.334383 0.334383
0.345988 0.345988 0.345988
0.357725 0.357725 0.357725
0.369684 0.369684 0.369684
0.382194 0.382194 0.382194
0.395635 0.395635 0.395635
0.410125 0.410125 0.410125
0.425853 0.425853 0.425853
0.443681 0.443681 0.443681
0.464838 0.464838 0.464838
0.490088 0.490088 0.490088
0.519864 0.519864 0.519864
0.553868 0.553868 0.553868
0.591197 0.591197 0.591197
0.631287 0.631287 0.631287
0.673369 0.673369 0.673369
0.716664 0.716664 0.716664
0.759869 0.759869 0.759869
0.261467 0.261467 0.261467
0.261950 0.261950 0.261950
0.262519 0.262519 0.262519
0.263774 0.263774 0.263774
0.265779 0.265779 0.265779
0.268419 0.268419 0.268419
0.271893 0.271893 0.271893
0.276112 0.276112 0.276112
0.281567 0.281567 0.281567
0.288208 0.288208 0.288208
0.295699 0.295699 0.295699
0.305124 0.305124 0.305124
0.319913 0.319913 0.319913
0.336626 0.336626 0.336626
0.349092 0.349092 0.349092
0.358939 0.358939 0.358939
0.369069 0.369069 0.369069
0.379432 0.379432 0.379432
0.390125 0.390125 0.390125
0.401566 0.401566 0.401566
0.414114 0.414114 0.414114
0.428028 0.428028 0.428028
0.444033 0.444033 0.444033
0.462841 0.462841 0.462841
0.485260 0.485260 0.485260
0.511749 0.511749 0.511749
0.542134 0.542134 0.542134
0.575759 0.575759 0.575759
0.612092 0.612092 0.612092
0.650785 0.650785 0.650785
0.691247 0.691247 0.691247
0.732658 0.732658 0.732658
0.773692 0.773692 0.773692
0.289113 0.289113 0.289113
0.289493 0.289493 0.289493
0.289996 0.289996 0.289996
0.291027 0.291027 0.291027
0.292689 0.292689 0.292689
0.294946 0.294946 0.294946
0.297989 0.297989 0.297989
0.301644 0.301644 0.301644
0.306251 0.306251 0.306237
0.312738 0.312738 0.312732
0.320336 0.320336 0.320336
0.328934 0.328934 0.328934
0.340025 0.340025 0.340025
0.352906 0.352906 0.352906
0.368086 0.368086 0.368086
0.380443 0.380443 0.380443
0.389466 0.389466 0.389466
0.398719 0.398719 0.398719
0.408380 0.408380 0.408380
0.418925 0.418925 0.418925
0.430928 0.430928 0.430928
0.444966 0.444966 0.444966
0.461616 0.461616 0.461616
0.481326 0.481326 0.481326
0.504662 0.504662 0.504662
0.531836 0.531836 0.531836
0.562207 0.562207 0.562207
0.595195 0.595195 0.595195
0.630583 0.630583 0.630583
0.668040 0.668040 0.668040
0.707159 0.707159 0.707159
0.746964 0.746964 0.746964
0.786103 0.786103 0.786103
0.315838 0.315838 0.315838
0.316128 0.316128 0.316128
0.316544 0.316544 0.316544
0.317390 0.317390 0.317390
0.318721 0.318721 0.318721
0.320825 0.320825 0.320825
0.323764 0.323764 0.323764
0.327306 0.327306 0.327306
0.331574 0.331574 0.331565
0.337314 0.337314 0.337310
0.344319 0.344319 0.344319
0.352124 0.352124 0.352124
0.360409 0.360409 0.360409
0.369028 0.369028 0.369028
0.380520 0.380520 0.380520
0.395277 0.395277 0.395277
0.407128 0.407128 0.407128
0.415438 0.415438 0.415438
0.424373 0.424373 0.424373
0.434574 0.434574 0.434574
0.446736 0.446736 0.446736
0.461377 0.461377 0.461377
0.478785 0.478785 0.478785
0.499307 0.499307 0.499307
0.523310 0.523310 0.523310
0.550559 0.550559 0.550559
0.580462 0.580462 0.580462
0.612727 0.612727 0.612727
0.647193 0.647193 0.647193
0.683618 0.683618 0.683618
0.721565 0.721565 0.721565
0.759937 0.759937 0.759937
0.797400 0.797400 0.797400
0.341808 0.341808 0.341808
0.342124 0.342124 0.342124
0.342474 0.342474 0.342474
0.343271 0.343271 0.343271
0.344514 0.344514 0.344514
0.346391 0.346391 0.346391
0.349012 0.349012 0.349012
0.352226 0.352226 0.352226
0.356102 0.356102 0.356102
0.360744 0.360744 0.360744
0.366514 0.366514 0.366514
0.373256 0.373256 0.373256
0.380540 0.380540 0.380540
0.388193 0.388193 0.388193
0.396045 0.396045 0.396045
0.406919 0.406919 0.406919
0.421267 0.421267 0.421267
0.433120 0.433120 0.433120
0.441908 0.441908 0.441908
0.452339 0.452339 0.452339
0.465018 0.465018 0.465018
0.480309 0.480309 0.480309
0.498472 0.498472 0.498472
0.519665 0.519665 0.519665
0.543925 0.543925 0.543925
0.570927 0.570927 0.570927
0.600377 0.600377 0.600377
0.632079 0.632079 0.632079
0.665837 0.665837 0.665837
0.701402 0.701402 0.701402
0.738211 0.738211 0.738211
0.775089 0.775089 0.775089
0.810677 0.810677 0.810677
0.367469 0.367469 0.367469
0.367808 0.367808 0.367808
0.368149 0.368149 0.368149
0.368886 0.368886 0.368886
0.370064 0.370064 0.370064
0.371700 0.371700 0.371700
0.373849 0.373849 0.373849
0.376600 0.376600 0.376600
0.379926 0.379926 0.379926
0.383843 0.383843 0.383843
0.388502 0.388502 0.388502
0.394226 0.394226 0.394226
0.400582 0.400582 0.400582
0.407322 0.407322 0.407322
0.414283 0.414283 0.414283
0.421435 0.421435 0.421435
0.432181 0.432181 0.432181
0.447316 0.447316 0.447316
0.461260 0.461260 0.461260
0.472859 0.472859 0.472859
0.486279 0.486279 0.486279
0.502375 0.502375 0.502375
0.521254 0.521254 0.521254
0.542805 0.542805 0.542805
0.566937 0.566937 0.566937
0.593523 0.593523 0.593523
0.622424 0.622424 0.622424
0.653410 0.653410 0.653410
0.686315 0.686315 0.686315
0.720743 0.720743 0.720743
0.755988 0.755988 0.755988
0.790875 0.790875 0.790875
0.824170 0.824170 0.824170
0.391593 0.391593 0.391593
0.391858 0.391858 0.391858
0.392167 0.392167 0.392167
0.392796 0.392796 0.392796
0.393833 0.393833 0.393833
0.395312 0.395312 0.395312
0.397221 0.397221 0.397221
0.399655 0.399655 0.399655
0.402586 0.402586 0.402586
0.406037 0.406037 0.406037
0.409986 0.409986 0.409986
0.414762 0.414762 0.414762
0.420367 0.420367 0.420367
0.426540 0.426540 0.426540
0.433077 0.433077 0.433077
0.440011 0.440011 0.440011
0.447486 0.447486 0.447486
0.459296 0.459296 0.459296
0.476683 0.476683 0.476683
0.494308 0.494308 0.494308
0.510060 0.510060 0.510060
0.526674 0.526674 0.526674
0.545777 0.545777 0.545777
0.567189 0.567189 0.567189
0.590952 0.590952 0.590952
0.616943 0.616943 0.616943
0.645067 0.645067 0.645067
0.675121 0.675121 0.675121
0.706897 0.706897 0.706897
0.739881 0.739881 0.739881
0.773271 0.773271 0.773271
0.805926 0.805926 0.805926
0.836820 0.836820 0.836820
0.414557 0.414557 0.414557
0.414819 0.414819 0.414819
0.417888 0.417888 0.417888
0.418619 0.418619 0.418619
0.419532 0.419532 0.419532
0.420818 0.420818 0.420818
0.422516 0.422516 0.422516
0.424641 0.424641 0.424641
0.427296 0.427296 0.427296
0.430515 0.430515 0.430515
0.434293 0.434293 0.434293
0.438630 0.438630 0.438630
0.443902 0.443902 0.443902
0.450054 0.450054 0.450054
0.456820 0.456820 0.456820
0.464073 0.464073 0.464073
0.471882 0.471882 0.471882
0.480367 0.480367 0.480367
0.493488 0.493488 0.493488
0.513647 0.513647 0.513647
0.535341 0.535341 0.535341
0.554608 0.554608 0.554608
0.573188 0.573188 0.573188
0.593899 0.593899 0.593899
0.616765 0.616765 0.616765
0.641591 0.641591 0.641591
0.668363 0.668363 0.668363
0.696956 0.696956 0.696956
0.727153 0.727153 0.727153
0.758408 0.758408 0.758408
0.789859 0.789859 0.789859
0.820364 0.820364 0.820364
0.848969 0.848969 0.848969
0.439171 0.439171 0.439171
0.439846 0.439846 0.439846
0.443927 0.443927 0.443927
0.445119 0.445119 0.445119
0.446319 0.446319 0.446319
0.447750 0.447750 0.447750
0.449436 0.449436 0.449436
0.451523 0.451523 0.451523
0.454187 0.454187 0.454187
0.457460 0.457460 0.457460
0.461354 0.461354 0.461354
0.465829 0.465829 0.465829
0.471004 0.471004 0.471004
0.477248 0.477248 0.477248
0.484349 0.484349 0.484349
0.491988 0.491988 0.491988
0.500202 0.500202 0.500202
0.509059 0.509059 0.509059
0.518624 0.518624 0.518624
0.532860 0.532860 0.532860
0.555039 0.555039 0.555039
0.579664 0.579664 0.579664
0.601504 0.601504 0.601504
0.621412 0.621412 0.621412
0.643235 0.643235 0.643235
0.666792 0.666792 0.666792
0.692108 0.692108 0.692108
0.719067 0.719067 0.719067
0.747463 0.747463 0.747463
0.776741 0.776741 0.776741
0.806035 0.806035 0.806035
0.834263 0.834263 0.834263
0.860546 0.860546 0.860546
0.467047 0.467047 0.467047
0.468255 0.468255 0.468255
0.469611 0.469611 0.469611
0.471209 0.471209 0.471209
0.472926 0.472926 0.472926
0.474720 0.474720 0.474720
0.476634 0.476634 0.476634
0.478936 0.478936 0.478936
0.481834 0.481834 0.481834
0.485320 0.485320 0.485320
0.489449 0.489449 0.489449
0.494240 0.494240 0.494240
0.499509 0.499509 0.499509
0.505701 0.505701 0.505701
0.512929 0.512929 0.512929
0.520819 0.520819 0.520819
0.529227 0.529227 0.529227
0.538216 0.538216 0.538216
0.547840 0.547840 0.547840
0.558200 0.558200 0.558200
0.572688 0.572688 0.572688
0.595656 0.595656 0.595656
0.622753 0.622753 0.622753
0.646718 0.646718 0.646718
0.667718 0.667718 0.667718
0.690367 0.690367 0.690367
0.714614 0.714614 0.714614
0.740269 0.740269 0.740269
0.767069 0.767069 0.767069
0.794426 0.794426 0.794426
0.821530 0.821530 0.821530
0.847492 0.847492 0.847492
0.871531 0.871531 0.871531
0.498373 0.498373 0.498373
0.499759 0.499759 0.499759
0.501226 0.501226 0.501226
0.502960 0.502960 0.502960
0.504826 0.504826 0.504826
0.506725 0.506725 0.506725
0.508790 0.508790 0.508790
0.511240 0.511240 0.511240
0.514269 0.514269 0.514269
0.517909 0.517909 0.517909
0.522223 0.522223 0.522223
0.527169 0.527169 0.527169
0.532579 0.532579 0.532579
0.538548 0.538548 0.538548
0.545526 0.545526 0.545526
0.553385 0.553385 0.553385
0.561820 0.561820 0.561820
0.570838 0.570838 0.570838
0.580484 0.580484 0.580484
0.590835 0.590835 0.590835
0.601902 0.601902 0.601902
0.616355 0.616355 0.616355
0.639545 0.639545 0.639545
0.668712 0.668712 0.668712
0.694199 0.694199 0.694199
0.715913 0.715913 0.715913
0.738950 0.738950 0.738950
0.763050 0.763050 0.763050
0.787967 0.787967 0.787967
0.813134 0.813134 0.813134
0.837813 0.837813 0.837813
0.861299 0.861299 0.861299
0.882941 0.882941 0.882941
0.536353 0.536353 0.536353
0.537618 0.537618 0.537618
0.538902 0.538902 0.538902
0.540489 0.540489 0.540489
0.542233 0.542233 0.542233
0.544054 0.544054 0.544054
0.546150 0.546150 0.546150
0.548631 0.548631 0.548631
0.551691 0.551691 0.551691
0.555363 0.555363 0.555363
0.559701 0.559701 0.559701
0.564591 0.564591 0.564591
0.569907 0.569907 0.569907
0.575611 0.575611 0.575611
0.582022 0.582022 0.582022
0.589471 0.589471 0.589471
0.597799 0.597799 0.597799
0.606780 0.606780 0.606780
0.616411 0.616411 0.616411
0.626692 0.626692 0.626692
0.637606 0.637606 0.637606
0.649086 0.649086 0.649086
0.663088 0.663088 0.663088
0.685520 0.685520 0.685520
0.716100 0.716100 0.716100
0.742250 0.742250 0.742250
0.763977 0.763977 0.763977
0.786465 0.786465 0.786465
0.809393 0.809393 0.809393
0.832230 0.832230 0.832230
0.854396 0.854396 0.854396
0.875298 0.875298 0.875298
0.894474 0.894474 0.894474
0.579312 0.579312 0.579312
0.580169 0.580169 0.580169
0.581045 0.581045 0.581045
0.582144 0.582144 0.582144
0.583491 0.583491 0.583491
0.585077 0.585077 0.585077
0.587020 0.587020 0.587020
0.589413 0.589413 0.589413
0.592437 0.592437 0.592437
0.596099 0.596099 0.596099
0.600385 0.600385 0.600385
0.605183 0.605183 0.605183
0.610353 0.610353 0.610353
0.615827 0.615827 0.615827
0.621665 0.621665 0.621665
0.628393 0.628393 0.628393
0.636157 0.636157 0.636157
0.644631 0.644631 0.644631
0.653664 0.653664 0.653664
0.663260 0.663260 0.663260
0.673411 0.673411 0.673411
0.684027 0.684027 0.684027
0.695043 0.695043 0.695043
0.707808 0.707808 0.707808
0.728050 0.728050 0.728050
0.758253 0.758253 0.758253
0.783549 0.783549 0.783549
0.804700 0.804700 0.804700
0.825827 0.825827 0.825827
0.846681 0.846681 0.846681
0.866823 0.866823 0.866823
0.885748 0.885748 0.885748
0.903069 0.903069 0.903069
0.621936 0.621936 0.621936
0.622810 0.622810 0.622810
0.623670 0.623670 0.623670
0.624678 0.624678 0.624678
0.625888 0.625888 0.625888
0.627299 0.627299 0.627299
0.628982 0.628982 0.628982
0.631096 0.631096 0.631096
0.633736 0.633736 0.633736
0.636971 0.636971 0.636971
0.640787 0.640787 0.640787
0.645131 0.645131 0.645131
0.649885 0.649885 0.649885
0.654990 0.654990 0.654990
0.660444 0.660444 0.660444
0.666397 0.666397 0.666397
0.673287 0.673287 0.673287
0.681144 0.681144 0.681144
0.689669 0.689669 0.689669
0.698795 0.698795 0.698795
0.708473 0.708473 0.708473
0.718595 0.718595 0.718595
0.729058 0.729058 0.729058
0.739736 0.739736 0.739736
0.750700 0.750700 0.750700
0.766711 0.766711 0.766711
0.796694 0.796694 0.796694
0.820761 0.820761 0.820761
0.840747 0.840747 0.840747
0.859703 0.859703 0.859703
0.877984 0.877984 0.877984
0.895139 0.895139 0.895139
0.910766 0.910766 0.910766
0.667307 0.667307 0.667307
0.668217 0.668217 0.668217
0.668940 0.668940 0.668940
0.669740 0.669740 0.669740
0.670686 0.670686 0.670686
0.671827 0.671827 0.671827
0.673186 0.673186 0.673186
0.674906 0.674906 0.674906
0.677074 0.677074 0.677074
0.679778 0.679778 0.679778
0.682982 0.682982 0.682982
0.686730 0.686730 0.686730
0.690923 0.690923 0.690923
0.695435 0.695435 0.695435
0.700230 0.700230 0.700230
0.705303 0.705303 0.705303
0.710998 0.710998 0.710998
0.717741 0.717741 0.717741
0.725457 0.725457 0.725457
0.733868 0.733868 0.733868
0.742856 0.742856 0.742856
0.752253 0.752253 0.752253
0.761836 0.761836 0.761836
0.771436 0.771436 0.771436
0.780951 0.780951 0.780951
0.790657 0.790657 0.790657
0.804731 0.804731 0.804731
0.832325 0.832325 0.832325
0.854753 0.854753 0.854753
0.872657 0.872657 0.872657
0.889006 0.889006 0.889006
0.904321 0.904321 0.904321
0.918143 0.918143 0.918143
0.709253 0.709253 0.709253
0.710089 0.710089 0.710089
0.710762 0.710762 0.710762
0.711455 0.711455 0.711455
0.712291 0.712291 0.712291
0.713329 0.713329 0.713329
0.714636 0.714636 0.714636
0.716288 0.716288 0.716288
0.718388 0.718388 0.718388
0.721000 0.721000 0.721000
0.724077 0.724077 0.724077
0.727688 0.727688 0.727688
0.731700 0.731700 0.731700
0.736000 0.736000 0.736000
0.740545 0.740545 0.740545
0.745331 0.745331 0.745331
0.750411 0.750411 0.750411
0.756280 0.756280 0.756280
0.763169 0.763169 0.763169
0.770716 0.770716 0.770716
0.778726 0.778726 0.778726
0.787046 0.787046 0.787046
0.795522 0.795522 0.795522
0.804020 0.804020 0.804020
0.812438 0.812438 0.812438
0.820715 0.820715 0.820715
0.828872 0.828872 0.828872
0.839725 0.839725 0.839725
0.864220 0.864220 0.864220
0.884310 0.884310 0.884310
0.899700 0.899700 0.899700
0.913194 0.913194 0.913194
0.925190 0.925190 0.925190
0.751463 0.751463 0.751463
0.752074 0.752074 0.752074
0.752484 0.752484 0.752484
0.753003 0.753003 0.753003
0.753640 0.753640 0.753640
0.754509 0.754509 0.754509
0.755680 0.755680 0.755680
0.757242 0.757242 0.757242
0.759236 0.759236 0.759236
0.761742 0.761742 0.761742
0.764672 0.764672 0.764672
0.768084 0.768084 0.768084
0.771859 0.771859 0.771859
0.775862 0.775862 0.775862
0.779999 0.779999 0.779999
0.784276 0.784276 0.784276
0.788776 0.788776 0.788776
0.793677 0.793677 0.793677
0.799349 0.799349 0.799349
0.805821 0.805821 0.805821
0.812724 0.812724 0.812724
0.819887 0.819887 0.819887
0.827137 0.827137 0.827137
0.834405 0.834405 0.834405
0.841596 0.841596 0.841596
0.848658 0.848658 0.848658
0.855604 0.855604 0.855604
