ml_luts/bw8__lut3d_33.cube
TITLE "BW8"
DOMAIN_MIN 0.000000 0.000000 0.000000
DOMAIN_MAX 1.000000 1.000000 1.000000
LUT_3D_SIZE 9
0.131930 0.131930 0.131930
0.136893 0.136893 0.136893
0.154032 0.154032 0.154032
0.188537 0.188537 0.188537
0.248172 0.248172 0.248172
0.324472 0.324472 0.324472
0.405257 0.405257 0.405257
0.514184 0.514184 0.514184
0.703517 0.703517 0.703517
0.144793 0.144793 0.144793
0.149944 0.149944 0.149944
0.167218 0.167218 0.167218
0.202333 0.202333 0.202333
0.260977 0.260977 0.260977
0.332711 0.332711 0.332711
0.408861 0.408861 0.408861
0.518994 0.518994 0.518994
0.705920 0.705920 0.705920
0.194309 0.194309 0.194309
0.198858 0.198858 0.198858
0.219291 0.219291 0.219291
0.260756 0.260756 0.260756
0.311055 0.311055 0.311055
0.370731 0.370731 0.370731
0.442737 0.442737 0.442737
0.566501 0.566501 0.566501
0.741192 0.741192 0.741192
0.289113 0.289113 0.289113
0.292689 0.292689 0.292689
0.306251 0.306251 0.306237
0.340025 0.340025 0.340025
0.389466 0.389466 0.389466
0.430928 0.430928 0.430928
0.504662 0.504662 0.504662
0.630583 0.630583 0.630583
0.786103 0.786103 0.786103
0.391593 0.391593 0.391593
0.393833 0.393833 0.393833
0.402586 0.402586 0.402586
0.420367 0.420367 0.420367
0.447486 0.447486 0.447486
0.510060 0.510060 0.510060
0.590952 0.590952 0.590952
0.706897 0.706897 0.706897
0.836820 0.836820 0.836820
0.498373 0.498373 0.498373
0.504826 0.504826 0.504826
0.514269 0.514269 0.514269
0.532579 0.532579 0.532579
0.561820 0.561820 0.561820
0.601902 0.601902 0.601902
0.694199 0.694199 0.694199
0.787967 0.787967 0.787967
0.882941 0.882941 0.882941
0.667307 0.667307 0.667307
0.670686 0.670686 0.670686
0.677074 0.677074 0.677074
0.690923 0.690923 0.690923
0.710998 0.710998 0.710998
0.742856 0.742856 0.742856
0.780951 0.780951 0.780951
0.854753 0.854753 0.854753
0.918143 0.918143 0.918143
0.831403 0.831403 0.831403
0.832567 0.832567 0.832567
0.837115 0.837115 0.837115
0.846518 0.846518 0.846518
0.858061 0.858061 0.858061
0.873851 0.873851 0.873851
0.892908 0.892908 0.892908
0.910890 0.910890 0.910890
0.940860 0.940860 0.940860
0.928710 0.928710 0.928710
0.928966 0.928966 0.928966
0.930479 0.930479 0.930479
0.933757 0.933757 0.933757
0.937606 0.937606 0.937606
0.942222 0.942222 0.942222
0.947265 0.947265 0.947265
0.951374 0.951374 0.951374
0.954192 0.954192 0.954192
0.134142 0.134142 0.134142
0.137023 0.137023 0.137023
0.158587 0.158587 0.158587
0.198117 0.198117 0.198117
0.257069 0.257069 0.257069
0.328373 0.328373 0.328373
0.403833 0.403833 0.403833
0.509046 0.509046 0.509046
0.692321 0.692321 0.692321
0.142385 0.142385 0.142385
0.152002 0.152002 0.152002
0.172992 0.172992 0.172992
0.211355 0.211355 0.211355
0.269438 0.269438 0.269438
0.337230 0.337230 0.337230
0.408648 0.408648 0.408648
0.513647 0.513647 0.513647
0.695856 0.695856 0.695856
0.193946 0.193946 0.193946
0.202640 0.202640 0.202640
0.221425 0.221425 0.221425
0.263552 0.263552 0.263552
0.314847 0.314847 0.314847
0.370956 0.370956 0.370956
0.437135 0.437135 0.437135
0.554452 0.554452 0.554452
0.729866 0.729866 0.729866
0.289371 0.289371 0.289371
0.295019 0.295019 0.295019
0.308580 0.308580 0.308580
0.337660 0.337660 0.337660
0.382800 0.382800 0.382800
0.423920 0.423920 0.423920
0.493359 0.493359 0.493359
0.618164 0.618164 0.618164
0.777308 0.777308 0.777308
0.392689 0.392689 0.392689
0.394696 0.394696 0.394696
0.402431 0.402431 0.402431
0.417752 0.417752 0.417752
0.442529 0.442529 0.442529
0.502796 0.502796 0.502796
0.583983 0.583983 0.583983
0.700287 0.700287 0.700287
0.831737 0.831737 0.831737
0.494262 0.494262 0.494262
0.496711 0.496711 0.496711
0.505118 0.505118 0.505118
0.522378 0.522378 0.522378
0.551804 0.551804 0.551804
0.593298 0.593298 0.593298
0.686169 0.686169 0.686169
0.782772 0.782772 0.782772
0.880876 0.880876 0.880876
0.661257 0.661257 0.661257
0.662384 0.662384 0.662384
0.669699 0.669699 0.669699
0.686005 0.686005 0.686005
0.708141 0.708141 0.708141
0.740978 0.740978 0.740977
0.778645 0.778645 0.778645
0.853179 0.853179 0.853179
0.916620 0.916620 0.916620
0.828273 0.828273 0.828273
0.830000 0.830000 0.830000
0.835015 0.835015 0.835015
0.845226 0.845226 0.845226
0.857541 0.857541 0.857541
0.872615 0.872615 0.872615
0.891111 0.891111 0.891111
0.908936 0.908936 0.908936
0.940018 0.940018 0.940018
0.926684 0.926684 0.926684
0.927714 0.927714 0.927714
0.930649 0.930649 0.930649
0.934168 0.934168 0.934168
0.938083 0.938083 0.938083
0.942559 0.942559 0.942559
0.947330 0.947330 0.947330
0.951393 0.951393 0.951393
0.954200 0.954200 0.954200
0.139865 0.139865 0.139865
0.143534 0.143534 0.143534
0.159791 0.159791 0.159791
0.205436 0.205436 0.205436
0.269780 0.269780 0.269780
0.343613 0.343613 0.343613
0.415093 0.415093 0.415093
0.520668 0.520668 0.520668
0.698032 0.698032 0.698032
0.154000 0.154000 0.154000
0.161769 0.161769 0.161769
0.176333 0.176333 0.176333
0.221407 0.221407 0.221407
0.283635 0.283635 0.283635
0.352038 0.352038 0.352038
0.420505 0.420505 0.420505
0.528057 0.528057 0.528057
0.704462 0.704462 0.704462
0.186137 0.186137 0.186137
0.197375 0.197375 0.197375
0.229699 0.229699 0.229699
0.273107 0.273107 0.273107
0.327379 0.327379 0.327379
0.382312 0.382312 0.382312
0.447176 0.447176 0.447176
0.564172 0.564172 0.564172
0.733416 0.733416 0.733416
0.287758 0.287758 0.287758
0.295812 0.295812 0.295812
0.319396 0.319396 0.319396
0.346626 0.346626 0.346626
0.388625 0.388625 0.388625
0.431716 0.431716 0.431716
0.504574 0.504574 0.504574
0.627859 0.627859 0.627859
0.781267 0.781267 0.781267
0.391135 0.391135 0.391135
0.396183 0.396183 0.396183
0.410283 0.410283 0.410283
0.425573 0.425573 0.425573
0.450769 0.450769 0.450769
0.510028 0.510028 0.510028
0.591946 0.591946 0.591946
0.706161 0.706161 0.706161
0.834276 0.834276 0.834276
0.496047 0.496047 0.496047
0.501661 0.501661 0.501661
0.515597 0.515597 0.515597
0.533022 0.533022 0.533022
0.560774 0.560774 0.560774
0.601324 0.601324 0.601324
0.691446 0.691446 0.691446
0.787471 0.787471 0.787471
0.882222 0.882222 0.882222
0.663710 0.663710 0.663710
0.668065 0.668065 0.668065
0.677115 0.677115 0.677115
0.691747 0.691747 0.691747
0.712867 0.712867 0.712867
0.744006 0.744006 0.744006
0.782000 0.782000 0.782000
0.857055 0.857055 0.857055
0.918776 0.918776 0.918776
0.830022 0.830022 0.830022
0.831597 0.831597 0.831597
0.836139 0.836139 0.836139
0.845547 0.845547 0.845547
0.857836 0.857836 0.857836
0.873239 0.873239 0.873239
0.892354 0.892354 0.892354
0.910616 0.910616 0.910616
0.941087 0.941087 0.941087
0.928397 0.928397 0.928397
0.928740 0.928740 0.928740
0.930516 0.930516 0.930516
0.933841 0.933841 0.933841
0.937964 0.937964 0.937964
0.942505 0.942505 0.942505
0.947248 0.947248 0.947248
0.951347 0.951347 0.951347
0.954169 0.954169 0.954169
0.153089 0.153089 0.153089
0.157703 0.157703 0.157703
0.173050 0.173050 0.173050
0.204273 0.204273 0.204273
0.275633 0.275633 0.275633
0.348606 0.348606 0.348606
0.419719 0.419719 0.419719
0.523365 0.523365 0.523365
0.690001 0.690001 0.690001
0.173997 0.173997 0.173997
0.178071 0.178071 0.178071
0.191768 0.191768 0.191768
0.221609 0.221609 0.221609
0.290898 0.290898 0.290898
0.358521 0.358521 0.358521
0.426894 0.426894 0.426894
0.532107 0.532107 0.532107
0.698280 0.698280 0.698280
0.200155 0.200155 0.200155
0.212244 0.212244 0.212244
0.249954 0.249954 0.249954
0.276779 0.276779 0.276779
0.335386 0.335386 0.335386
0.390673 0.390673 0.390673
0.456501 0.456501 0.456501
0.568702 0.568702 0.568702
0.729158 0.729158 0.729158
0.269372 0.269372 0.269372
0.279612 0.279612 0.279612
0.311931 0.311931 0.311931
0.354784 0.354784 0.354784
0.393982 0.393982 0.393982
0.438340 0.438340 0.438340
0.511466 0.511466 0.511466
0.630753 0.630753 0.630753
0.778799 0.778799 0.778799
0.388554 0.388554 0.388554
0.393243 0.393243 0.393243
0.408842 0.408842 0.408842
0.434154 0.434154 0.434154
0.460359 0.460359 0.460359
0.516275 0.516275 0.516275
0.598737 0.598737 0.598737
0.709743 0.709743 0.709743
0.833640 0.833640 0.833640
0.492365 0.492365 0.492365
0.498000 0.498000 0.498000
0.515053 0.515053 0.515053
0.543771 0.543771 0.543771
0.570040 0.570040 0.570040
0.609061 0.609061 0.609061
0.696216 0.696216 0.696216
0.790606 0.790606 0.790606
0.882585 0.882585 0.882585
0.659802 0.659802 0.659802
0.664424 0.664424 0.664424
0.679127 0.679127 0.679127
0.701572 0.701572 0.701572
0.722481 0.722481 0.722481
0.751013 0.751013 0.751013
0.786496 0.786496 0.786496
0.859189 0.859189 0.859189
0.919306 0.919306 0.919306
0.828166 0.828166 0.828166
0.830356 0.830356 0.830356
0.837949 0.837949 0.837949
0.849138 0.849138 0.849138
0.861098 0.861098 0.861098
0.875612 0.875612 0.875612
0.893811 0.893811 0.893811
0.911848 0.911848 0.911848
0.942072 0.942072 0.942072
0.928145 0.928145 0.928145
0.929042 0.929042 0.929042
0.931116 0.931116 0.931116
0.934539 0.934539 0.934539
0.938392 0.938392 0.938392
0.942736 0.942736 0.942736
0.947374 0.947374 0.947374
0.951472 0.951472 0.951472
0.954265 0.954265 0.954265
0.176455 0.176455 0.176455
0.181514 0.181514 0.181514
0.197730 0.197730 0.197730
0.225408 0.225408 0.225408
0.273129 0.273129 0.273129
0.351817 0.351817 0.351817
0.427043 0.427043 0.427043
0.535374 0.535374 0.535374
0.699764 0.699764 0.699764
0.198352 0.198352 0.198352
0.202713 0.202713 0.202713
0.217142 0.217142 0.217142
0.242715 0.242715 0.242715
0.287843 0.287843 0.287843
0.362010 0.362010 0.362010
0.434233 0.434233 0.434233
0.543573 0.543573 0.543573
0.704141 0.704141 0.704141
0.244518 0.244518 0.244518
0.258390 0.258390 0.258390
0.277065 0.277065 0.277065
0.299357 0.299357 0.299357
0.334156 0.334156 0.334156
0.394901 0.394901 0.394901
0.463179 0.463179 0.463179
0.575352 0.575352 0.575352
0.725108 0.725108 0.725108
0.287686 0.287686 0.287686
0.297155 0.297155 0.297155
0.328054 0.328054 0.328054
0.374615 0.374615 0.374615
0.398542 0.398542 0.398542
0.446930 0.446930 0.446930
0.520221 0.520221 0.520221
0.629380 0.629380 0.629380
0.765932 0.765932 0.765932
0.364439 0.364439 0.364439
0.371094 0.371094 0.371094
0.391947 0.391947 0.391947
0.425086 0.425086 0.425086
0.467796 0.467796 0.467796
0.520396 0.520396 0.520396
0.599039 0.599039 0.599039
0.704401 0.704401 0.704401
0.825879 0.825879 0.825879
0.484943 0.484943 0.484943
0.491358 0.491358 0.491358
0.509645 0.509645 0.509645
0.541358 0.541358 0.541358
0.582252 0.582252 0.582252
0.621545 0.621545 0.621545
0.700239 0.700239 0.700239
0.790716 0.790716 0.790716
0.880060 0.880060 0.880060
0.655764 0.655764 0.655764
0.660087 0.660087 0.660087
0.673821 0.673821 0.673821
0.698582 0.698582 0.698582
0.729599 0.729599 0.729599
0.756729 0.756729 0.756729
0.792390 0.792390 0.792390
0.862438 0.862438 0.862438
0.919883 0.919883 0.919883
0.822971 0.822971 0.822971
0.824864 0.824864 0.824864
0.832616 0.832616 0.832616
0.846695 0.846695 0.846695
0.863074 0.863074 0.863074
0.877701 0.877701 0.877701
0.895081 0.895081 0.895081
0.912777 0.912777 0.912777
0.942971 0.942971 0.942971
0.927061 0.927061 0.927061
0.927991 0.927991 0.927991
0.930384 0.930384 0.930384
0.934373 0.934373 0.934373
0.938896 0.938896 0.938896
0.943189 0.943189 0.943189
0.947643 0.947643 0.947643
0.951665 0.951665 0.951665
0.954345 0.954345 0.954345
0.212177 0.212177 0.212177
0.217316 0.217316 0.217316
0.233722 0.233722 0.233722
0.261689 0.261689 0.261689
0.299508 0.299508 0.299508
0.347769 0.347769 0.347769
0.425675 0.425675 0.425675
0.548121 0.548121 0.548121
0.712345 0.712345 0.712345
0.234266 0.234266 0.234266
0.238472 0.238472 0.238472
0.253081 0.253081 0.253081
0.278485 0.278485 0.278485
0.312389 0.312389 0.312389
0.357572 0.357572 0.357572
0.432527 0.432527 0.432527
0.554542 0.554542 0.554542
0.715408 0.715408 0.715408
0.295891 0.295891 0.295891
0.299220 0.299220 0.299220
0.310737 0.310737 0.310737
0.330047 0.330047 0.330047
0.355227 0.355227 0.355227
0.391378 0.391378 0.391378
0.463659 0.463659 0.463659
0.587808 0.587808 0.587808
0.738470 0.738470 0.738470
0.320619 0.320619 0.320619
0.330967 0.330967 0.330967
0.367720 0.367720 0.367720
0.396149 0.396149 0.396149
0.414646 0.414646 0.414646
0.443713 0.443713 0.443713
0.524895 0.524895 0.524895
0.639753 0.639753 0.639753
0.773122 0.773122 0.773122
0.382424 0.382424 0.382424
0.388003 0.387994 0.387994
0.406592 0.406592 0.406592
0.437676 0.437676 0.437676
0.488343 0.488343 0.488343
0.521567 0.521567 0.521567
0.603720 0.603720 0.603720
0.701659 0.701659 0.701659
0.813239 0.813239 0.813239
0.454925 0.454925 0.454925
0.460513 0.460513 0.460513
0.479675 0.479675 0.479675
0.516570 0.516570 0.516570
0.570014 0.570014 0.570014
0.635998 0.635998 0.635998
0.702842 0.702842 0.702842
0.784658 0.784658 0.784658
0.871939 0.871939 0.871939
0.636053 0.636053 0.636053
0.641666 0.641666 0.641666
0.660073 0.660073 0.660073
0.690854 0.690854 0.690854
0.725881 0.725881 0.725881
0.766665 0.766665 0.766665
0.801834 0.801834 0.801834
0.864413 0.864413 0.864413
0.919192 0.919192 0.919192
0.818498 0.818498 0.818498
0.820976 0.820976 0.820976
0.828863 0.828863 0.828863
0.842882 0.842882 0.842882
0.860854 0.860854 0.860854
0.880897 0.880897 0.880897
0.897177 0.897177 0.897177
0.914914 0.914914 0.914914
0.944036 0.944036 0.944036
0.926501 0.926501 0.926501
0.926972 0.926972 0.926972
0.929306 0.929306 0.929306
0.933363 0.933363 0.933363
0.938609 0.938609 0.938609
0.944054 0.944054 0.944054
0.948326 0.948326 0.948326
0.952043 0.952043 0.952043
0.954578 0.954578 0.954578
0.268879 0.268879 0.268879
0.273454 0.273454 0.273454
0.288798 0.288798 0.288798
0.313364 0.313364 0.313364
0.343557 0.343557 0.343557
0.379222 0.379222 0.379222
0.424193 0.424193 0.424193
0.541352 0.541352 0.541352
0.727161 0.727161 0.727161
0.288423 0.288423 0.288423
0.292466 0.292466 0.292466
0.305692 0.305692 0.305692
0.327218 0.327218 0.327218
0.354554 0.354554 0.354554
0.387631 0.387631 0.387631
0.430679 0.430679 0.430679
0.548618 0.548618 0.548618
0.731663 0.731663 0.731663
0.340753 0.340753 0.340753
0.343497 0.343497 0.343497
0.352617 0.352617 0.352617
0.368704 0.368704 0.368704
0.390342 0.390342 0.390342
0.417770 0.417770 0.417770
0.460265 0.460265 0.460265
0.582480 0.582480 0.582480
0.752321 0.752321 0.752321
0.382614 0.382614 0.382614
0.391588 0.391588 0.391588
0.412619 0.412619 0.412619
0.425440 0.425440 0.425440
0.443644 0.443644 0.443644
0.469757 0.469757 0.469757
0.516937 0.516937 0.516937
0.637078 0.637078 0.637078
0.784398 0.784398 0.784398
0.409236 0.409236 0.409236
0.414176 0.414176 0.414176
0.432061 0.432061 0.432061
0.478389 0.478389 0.478389
0.524752 0.524752 0.524752
0.553233 0.553233 0.553233
0.598783 0.598783 0.598783
0.707373 0.707373 0.707373
0.823915 0.823915 0.823915
0.488813 0.488813 0.488813
0.494325 0.494325 0.494325
0.513706 0.513706 0.513706
0.547042 0.547042 0.547042
0.592526 0.592526 0.592526
0.662482 0.662482 0.662482
0.701339 0.701339 0.701339
0.786369 0.786369 0.786369
0.867466 0.867466 0.867466
0.604944 0.604944 0.604944
0.610061 0.610061 0.610061
0.627431 0.627431 0.627431
0.656392 0.656392 0.656392
0.697123 0.697123 0.697123
0.750555 0.750555 0.750555
0.810612 0.810612 0.810612
0.862263 0.862263 0.862263
0.913928 0.913928 0.913928
0.794828 0.794828 0.794828
0.798405 0.798405 0.798405
0.810449 0.810449 0.810449
0.830162 0.830162 0.830162
0.853313 0.853313 0.853313
0.877157 0.877157 0.877157
0.901142 0.901142 0.901142
0.918652 0.918652 0.918652
0.944789 0.944789 0.944789
0.924490 0.924490 0.924490
0.925208 0.925208 0.925208
0.927708 0.927708 0.927708
0.931900 0.931900 0.931900
0.937384 0.937384 0.937384
0.943472 0.943472 0.943472
0.949014 0.949014 0.949014
0.952464 0.952464 0.952464
0.954818 0.954818 0.954818
0.350251 0.350251 0.350251
0.353489 0.353489 0.353489
0.364451 0.364451 0.364451
0.382305 0.382305 0.382305
0.405932 0.405932 0.405932
0.434628 0.434628 0.434628
0.479015 0.479015 0.479015
0.547185 0.547185 0.547185
0.720386 0.720386 0.720386
0.363950 0.363950 0.363950
0.366808 0.366808 0.366808
0.376514 0.376514 0.376514
0.392948 0.392948 0.392948
0.415279 0.415279 0.415279
0.443557 0.443557 0.443557
0.488441 0.488441 0.488441
0.556616 0.556616 0.556616
0.726970 0.726970 0.726970
0.402054 0.402054 0.402054
0.404279 0.404279 0.404279
0.412063 0.412063 0.412063
0.425812 0.425812 0.425812
0.446447 0.446447 0.446447
0.476146 0.476146 0.476146
0.522212 0.522212 0.522212
0.588587 0.588587 0.588587
0.748867 0.748867 0.748867
0.456717 0.456717 0.456717
0.460400 0.460400 0.460400
0.468223 0.468223 0.468223
0.482968 0.482968 0.482968
0.505838 0.505838 0.505838
0.537468 0.537468 0.537468
0.580011 0.580011 0.580011
0.640226 0.640226 0.640217
0.783691 0.783691 0.783691
0.468944 0.468944 0.468944
0.477847 0.477847 0.477847
0.510553 0.510553 0.510553
0.563857 0.563857 0.563857
0.590868 0.590868 0.590868
0.619143 0.619143 0.619143
0.654355 0.654355 0.654355
0.707671 0.707671 0.707671
0.827746 0.827746 0.827746
0.553320 0.553320 0.553320
0.557935 0.557935 0.557935
0.573158 0.573158 0.573158
0.597568 0.597568 0.597568
0.657107 0.657107 0.657107
0.715629 0.715629 0.715629
0.744999 0.744999 0.744999
0.786549 0.786549 0.786549
0.874677 0.874677 0.874677
0.679167 0.679167 0.679167
0.682881 0.682881 0.682881
0.695164 0.695164 0.695164
0.715583 0.715583 0.715583
0.744532 0.744532 0.744532
0.781762 0.781762 0.781762
0.837477 0.837477 0.837477
0.864538 0.864538 0.864538
0.916091 0.916091 0.916091
0.791224 0.791224 0.791224
0.793772 0.793772 0.793772
0.802333 0.802333 0.802333
0.817309 0.817309 0.817309
0.838203 0.838203 0.838203
0.864432 0.864432 0.864432
0.895021 0.895021 0.895021
0.924962 0.924962 0.924962
0.944650 0.944650 0.944650
0.913203 0.913203 0.913203
0.914426 0.914426 0.914426
0.918566 0.918566 0.918566
0.925401 0.925401 0.925401
0.934070 0.934070 0.934070
0.942448 0.942448 0.942448
0.948723 0.948723 0.948723
0.953258 0.953258 0.953258
0.955119 0.955119 0.955119
0.462440 0.462440 0.462440
0.465423 0.465423 0.465423
0.476180 0.476180 0.476180
0.496254 0.496254 0.496254
0.526650 0.526650 0.526650
0.566270 0.566270 0.566270
0.612627 0.612627 0.612627
0.675745 0.675745 0.675745
0.742977 0.742977 0.742977
0.474227 0.474227 0.474227
0.477241 0.477241 0.477241
0.487975 0.487975 0.487975
0.507997 0.507997 0.507997
0.538006 0.538006 0.538006
0.576615 0.576615 0.576615
0.621721 0.621721 0.621721
0.682937 0.682937 0.682937
0.748673 0.748673 0.748673
0.514847 0.514847 0.514847
0.517826 0.517826 0.517826
0.528460 0.528460 0.528460
0.547692 0.547692 0.547692
0.575410 0.575410 0.575410
0.610648 0.610648 0.610648
0.651649 0.651649 0.651649
0.706750 0.706750 0.706750
0.767445 0.767445 0.767445
0.581067 0.581067 0.581067
0.583683 0.583683 0.583683
0.592972 0.592972 0.592972
0.609499 0.609499 0.609499
0.633211 0.633211 0.633211
0.663198 0.663198 0.663198
0.698135 0.698135 0.698135
0.744080 0.744080 0.744080
0.797486 0.797486 0.797486
0.622171 0.622171 0.622171
0.630505 0.630505 0.630505
0.657901 0.657901 0.657901
0.681090 0.681090 0.681090
0.700435 0.700435 0.700435
0.725334 0.725334 0.725334
0.754784 0.754784 0.754784
0.791281 0.791281 0.791281
0.835874 0.835874 0.835874
0.645834 0.645834 0.645834
0.648546 0.648546 0.648546
0.667539 0.667539 0.667539
0.708779 0.708779 0.708779
0.767088 0.767088 0.767088
0.794657 0.794657 0.794657
0.817932 0.817932 0.817932
0.843846 0.843846 0.843846
0.877665 0.877665 0.877665
0.776989 0.776989 0.776989
0.778448 0.778448 0.778448
0.783328 0.783328 0.783328
0.791820 0.791820 0.791820
0.803681 0.803681 0.803681
0.840049 0.840049 0.840049
0.879457 0.879457 0.879457
0.896620 0.896620 0.896620
0.917120 0.917120 0.917120
0.870806 0.870806 0.870806
0.871794 0.871794 0.871794
0.875200 0.875200 0.875200
0.881207 0.881207 0.881207
0.889843 0.889843 0.889843
0.901104 0.901104 0.901104
0.915313 0.915313 0.915313
0.936920 0.936920 0.936920
0.945327 0.945327 0.945327
0.923980 0.923980 0.923980
0.924525 0.924525 0.924525
0.926467 0.926467 0.926467
0.929865 0.929865 0.929865
0.934615 0.934615 0.934615
0.940455 0.940455 0.940455
0.946868 0.946868 0.946868
0.952468 0.952468 0.952468
0.955474 0.955474 0.955474
