ml_luts/bw9__lut3d_33.cube
TITLE "BW9"
DOMAIN_MIN 0.000000 0.000000 0.000000
DOMAIN_MAX 1.000000 1.000000 1.000000
LUT_3D_SIZE 5
0.149142 0.149142 0.149142
0.163508 0.163508 0.163508
0.346502 0.346502 0.346502
0.752529 0.752529 0.752529
0.868650 0.868650 0.868650
0.185199 0.185199 0.185199
0.206403 0.206403 0.206403
0.436118 0.436118 0.436118
0.773455 0.773455 0.773455
0.873167 0.873167 0.873167
0.572610 0.572610 0.572610
0.595060 0.595060 0.595060
0.692249 0.692249 0.692249
0.814114 0.814114 0.814114
0.887297 0.887297 0.887297
0.825169 0.825169 0.825169
0.828292 0.828292 0.828292
0.828729 0.828729 0.828729
0.850201 0.850201 0.850201
0.911947 0.911947 0.911947
0.914702 0.914702 0.914702
0.916236 0.916236 0.916236
0.921065 0.921065 0.921065
0.927817 0.927817 0.927817
0.943847 0.943847 0.943847
0.149989 0.149989 0.149989
0.167695 0.167695 0.167695
0.399706 0.399706 0.399706
0.761667 0.761667 0.761667
0.867300 0.867300 0.867300
0.177020 0.177020 0.177020
0.236217 0.236217 0.236217
0.499915 0.499915 0.499915
0.776117 0.776117 0.776117
0.870915 0.870915 0.870915
0.589635 0.589635 0.589635
0.633341 0.633341 0.633341
0.706046 0.706046 0.706046
0.814624 0.814624 0.814624
0.886908 0.886908 0.886908
0.824167 0.824167 0.824167
0.827328 0.827328 0.827328
0.831562 0.831562 0.831562
0.851095 0.851095 0.851095
0.912634 0.912634 0.912634
0.913809 0.913809 0.913809
0.915761 0.915761 0.915761
0.922183 0.922183 0.922183
0.928101 0.928101 0.928101
0.944060 0.944060 0.944060
0.164447 0.164447 0.164447
0.209327 0.209327 0.209327
0.387816 0.387816 0.387816
0.758671 0.758671 0.758671
0.871488 0.871488 0.871488
0.214370 0.214370 0.214370
0.289902 0.289902 0.289902
0.513114 0.513114 0.513114
0.785400 0.785400 0.785400
0.875620 0.875620 0.875620
0.475113 0.475113 0.475113
0.568116 0.568116 0.568116
0.749168 0.749168 0.749168
0.823202 0.823202 0.823202
0.890448 0.890448 0.890448
0.828912 0.828912 0.828912
0.831846 0.831846 0.831846
0.842023 0.842023 0.842023
0.856961 0.856961 0.856961
0.914977 0.914977 0.914977
0.915633 0.915633 0.915633
0.917620 0.917620 0.917620
0.923591 0.923591 0.923591
0.930911 0.930911 0.930911
0.944854 0.944854 0.944854
0.232304 0.232304 0.232304
0.315215 0.315215 0.315215
0.648756 0.648756 0.648756
0.760248 0.760248 0.760248
0.867338 0.867338 0.867338
0.321920 0.321920 0.321920
0.417644 0.417644 0.417644
0.695928 0.695928 0.695928
0.782744 0.782744 0.782744
0.872265 0.872265 0.872265
0.385504 0.385504 0.385504
0.519944 0.519944 0.519944
0.773646 0.773646 0.773646
0.822849 0.822849 0.822849
0.890814 0.890814 0.890814
0.796593 0.796593 0.796593
0.806885 0.806885 0.806885
0.830329 0.830329 0.830329
0.867662 0.867662 0.867662
0.918860 0.918860 0.918860
0.918921 0.918921 0.918921
0.920829 0.920829 0.920829
0.926535 0.926535 0.926535
0.936378 0.936378 0.936378
0.946624 0.946624 0.946624
0.626337 0.626337 0.626337
0.707988 0.707988 0.707988
0.816815 0.816815 0.816815
0.862676 0.862676 0.862676
0.884581 0.884581 0.884581
0.650301 0.650301 0.650301
0.725525 0.725525 0.725525
0.819471 0.819471 0.819471
0.867714 0.867714 0.867714
0.888198 0.888198 0.888198
0.725887 0.725887 0.725887
0.743450 0.743450 0.743450
0.822850 0.822850 0.822850
0.880800 0.880800 0.880800
0.902205 0.902205 0.902205
0.777843 0.777843 0.777843
0.781134 0.781134 0.781134
0.793771 0.793771 0.793771
0.886860 0.886860 0.886860
0.924895 0.924895 0.924895
0.911101 0.911101 0.911101
0.912757 0.912757 0.912757
0.918806 0.918806 0.918806
0.931250 0.931250 0.931250
0.951415 0.951415 0.951415
