ml_luts/bw9__lut3d_33.cube
TITLE "BW9"
DOMAIN_MIN 0.000000 0.000000 0.000000
DOMAIN_MAX 1.000000 1.000000 1.000000
LUT_3D_SIZE 33
0.149142 0.149142 0.149142
0.149142 0.149142 0.149142
0.149142 0.149142 0.149142
0.149529 0.149529 0.149529
0.150263 0.150263 0.150263
0.151830 0.151830 0.151830
0.154358 0.154358 0.154358
0.158170 0.158170 0.158170
0.163508 0.163508 0.163508
0.170881 0.170881 0.170881
0.180932 0.180932 0.180932
0.194585 0.194585 0.194585
0.212672 0.212672 0.212672
0.236213 0.236213 0.236213
0.266078 0.266078 0.266078
0.302923 0.302923 0.302923
0.346502 0.346502 0.346502
0.395302 0.395302 0.395302
0.451671 0.451671 0.451671
0.514481 0.514481 0.514481
0.575509 0.575509 0.575509
0.631723 0.631723 0.631723
0.681155 0.681155 0.681155
0.721418 0.721418 0.721418
0.752529 0.752529 0.752529
0.776396 0.776396 0.776396
0.794896 0.794896 0.794896
0.809447 0.809447 0.809447
0.821397 0.821397 0.821397
0.832200 0.832200 0.832200
0.843189 0.843189 0.843189
0.855376 0.855376 0.855376
0.868650 0.868650 0.868650
0.149142 0.149142 0.149142
0.149142 0.149142 0.149142
0.149280 0.149280 0.149280
0.149650 0.149650 0.149650
0.150511 0.150511 0.150511
0.152196 0.152196 0.152196
0.154719 0.154719 0.154719
0.158617 0.158617 0.158617
0.163981 0.163981 0.163981
0.171311 0.171311 0.171311
0.181407 0.181407 0.181407
0.194990 0.194990 0.194990
0.212953 0.212953 0.212953
0.236309 0.236309 0.236309
0.265844 0.265844 0.265844
0.302305 0.302305 0.302305
0.345408 0.345408 0.345408
0.393663 0.393663 0.393663
0.449348 0.449348 0.449348
0.511067 0.511067 0.511067
0.570986 0.570986 0.570986
0.626736 0.626736 0.626736
0.676369 0.676369 0.676369
0.717410 0.717410 0.717410
0.749359 0.749359 0.749359
0.773979 0.773979 0.773979
0.793122 0.793122 0.793122
0.808109 0.808109 0.808109
0.820351 0.820351 0.820351
0.831283 0.831283 0.831283
0.842272 0.842272 0.842272
0.854460 0.854460 0.854460
0.867734 0.867734 0.867734
0.149285 0.149285 0.149285
0.149285 0.149285 0.149285
0.149401 0.149401 0.149401
0.149898 0.149898 0.149898
0.150877 0.150877 0.150877
0.152700 0.152700 0.152700
0.155431 0.155431 0.155431
0.159353 0.159353 0.159353
0.164776 0.164776 0.164776
0.172168 0.172168 0.172168
0.182300 0.182300 0.182300
0.195966 0.195966 0.195966
0.214000 0.214000 0.214000
0.237405 0.237405 0.237405
0.266953 0.266953 0.266953
0.303325 0.303325 0.303325
0.346317 0.346317 0.346317
0.394324 0.394324 0.394324
0.449647 0.449647 0.449647
0.510767 0.510767 0.510767
0.569846 0.569846 0.569846
0.625209 0.625209 0.625209
0.674783 0.674783 0.674783
0.715948 0.715948 0.715948
0.748098 0.748098 0.748098
0.772995 0.772995 0.772995
0.792329 0.792329 0.792329
0.807511 0.807511 0.807511
0.819867 0.819867 0.819867
0.830858 0.830858 0.830858
0.841896 0.841896 0.841896
0.854029 0.854029 0.854029
0.867304 0.867304 0.867304
0.150014 0.150014 0.150014
0.150147 0.150147 0.150147
0.150162 0.150162 0.150162
0.150661 0.150661 0.150661
0.152156 0.152156 0.152156
0.154037 0.154037 0.154037
0.156935 0.156935 0.156935
0.161045 0.161045 0.161045
0.166681 0.166681 0.166681
0.174371 0.174371 0.174371
0.184789 0.184789 0.184789
0.198728 0.198728 0.198728
0.217156 0.217156 0.217156
0.240889 0.240889 0.240889
0.270586 0.270586 0.270586
0.307107 0.307107 0.307107
0.350017 0.350017 0.350017
0.398283 0.398283 0.398283
0.453189 0.453189 0.453189
0.512274 0.512274 0.512274
0.569524 0.569524 0.569524
0.623644 0.623644 0.623644
0.672763 0.672763 0.672763
0.714323 0.714323 0.714323
0.747107 0.747107 0.747107
0.772610 0.772610 0.772610
0.792322 0.792322 0.792322
0.807704 0.807704 0.807704
0.820113 0.820113 0.820113
0.831101 0.831101 0.831101
0.842059 0.842059 0.842059
0.854080 0.854080 0.854080
0.867194 0.867194 0.867194
0.151984 0.151984 0.151984
0.152209 0.152209 0.152209
0.152341 0.152341 0.152341
0.152412 0.152412 0.152412
0.153914 0.153914 0.153914
0.156995 0.156995 0.156995
0.159978 0.159978 0.159978
0.163989 0.163989 0.163989
0.169843 0.169843 0.169843
0.177906 0.177906 0.177906
0.188789 0.188789 0.188789
0.203257 0.203257 0.203257
0.222158 0.222158 0.222158
0.246392 0.246392 0.246392
0.276667 0.276667 0.276667
0.313686 0.313686 0.313686
0.356922 0.356922 0.356922
0.406328 0.406328 0.406328
0.461550 0.461550 0.461550
0.518808 0.518808 0.518808
0.574250 0.574250 0.574250
0.626763 0.626763 0.626763
0.674705 0.674705 0.674705
0.715418 0.715418 0.715418
0.747834 0.747834 0.747834
0.773102 0.773102 0.773102
0.792697 0.792697 0.792697
0.807951 0.807951 0.807951
0.820269 0.820269 0.820269
0.831204 0.831204 0.831204
0.842104 0.842104 0.842104
0.854088 0.854088 0.854088
0.867159 0.867159 0.867159
0.155757 0.155757 0.155757
0.156118 0.156118 0.156118
0.156465 0.156465 0.156465
0.156371 0.156371 0.156371
0.156976 0.156976 0.156976
0.160037 0.160037 0.160037
0.165214 0.165214 0.165214
0.169816 0.169816 0.169816
0.175553 0.175553 0.175553
0.183643 0.183643 0.183643
0.195099 0.195099 0.195099
0.210421 0.210421 0.210421
0.230256 0.230256 0.230256
0.255379 0.255379 0.255379
0.286594 0.286594 0.286594
0.324467 0.324467 0.324467
0.368180 0.368180 0.368180
0.418680 0.418680 0.418680
0.474148 0.474148 0.474148
0.529611 0.529611 0.529611
0.583536 0.583536 0.583536
0.634719 0.634719 0.634719
0.688551 0.688551 0.688551
0.742338 0.742338 0.742338
0.768230 0.768230 0.768230
0.788194 0.788194 0.788194
0.803702 0.803702 0.803702
0.816114 0.816114 0.816114
0.826747 0.826747 0.826747
0.836921 0.836921 0.836921
0.847711 0.847711 0.847711
0.859533 0.859533 0.859533
0.872176 0.872176 0.872176
0.162504 0.162504 0.162504
0.162961 0.162961 0.162961
0.163581 0.163581 0.163581
0.163775 0.163775 0.163775
0.163789 0.163789 0.163789
0.165578 0.165578 0.165578
0.170540 0.170540 0.170540
0.178242 0.178242 0.178242
0.186245 0.186245 0.186245
0.195468 0.195468 0.195468
0.207515 0.207515 0.207515
0.223970 0.223970 0.223970
0.245651 0.245651 0.245651
0.272882 0.272882 0.272882
0.306028 0.306028 0.306028
0.345010 0.345010 0.345010
0.390474 0.390474 0.390474
0.442739 0.442739 0.442739
0.497964 0.497964 0.497964
0.552291 0.552291 0.552291
0.605472 0.605472 0.605472
0.656134 0.656134 0.656134
0.702901 0.702901 0.702901
0.742758 0.742758 0.742758
0.769846 0.769846 0.769846
0.790223 0.790223 0.790223
0.805524 0.805524 0.805524
0.817598 0.817598 0.817598
0.827944 0.827944 0.827944
0.837968 0.837968 0.837968
0.848645 0.848645 0.848645
0.860366 0.860366 0.860366
0.872883 0.872883 0.872883
0.171852 0.171852 0.171852
0.172394 0.172394 0.172394
0.173115 0.173115 0.173115
0.173858 0.173858 0.173858
0.173761 0.173761 0.173761
0.173989 0.173989 0.173989
0.177682 0.177682 0.177682
0.185271 0.185271 0.185271
0.195247 0.195247 0.195247
0.209004 0.209004 0.209004
0.223365 0.223365 0.223365
0.240398 0.240398 0.240398
0.261895 0.261895 0.261895
0.289824 0.289824 0.289824
0.324187 0.324187 0.324187
0.364097 0.364097 0.364097
0.411248 0.411248 0.411248
0.463447 0.463447 0.463447
0.515838 0.515838 0.515838
0.567410 0.567410 0.567410
0.618147 0.618147 0.618147
0.666566 0.666566 0.666566
0.709430 0.709430 0.709430
0.743982 0.743982 0.743982
0.770621 0.770621 0.770621
0.790768 0.790768 0.790768
0.805912 0.805912 0.805912
0.817845 0.817845 0.817845
0.828125 0.828125 0.828125
0.838084 0.838084 0.838084
0.848717 0.848717 0.848717
0.860419 0.860419 0.860419
0.872879 0.872879 0.872879
0.185199 0.185199 0.185199
0.185871 0.185871 0.185871
0.186780 0.186780 0.186780
0.188415 0.188415 0.188415
0.188392 0.188392 0.188392
0.188147 0.188147 0.188147
0.188769 0.188769 0.188769
0.195574 0.195574 0.195574
0.206403 0.206403 0.206403
0.219838 0.219838 0.219838
0.241514 0.241514 0.241514
0.262826 0.262826 0.262826
0.285548 0.285548 0.285548
0.313391 0.313391 0.313391
0.346703 0.346703 0.346703
0.388146 0.388146 0.388146
0.436118 0.436118 0.436118
0.485730 0.485730 0.485730
0.534801 0.534801 0.534801
0.583186 0.583186 0.583186
0.630980 0.630980 0.630980
0.676367 0.676367 0.676367
0.716199 0.716199 0.716199
0.748410 0.748410 0.748410
0.773455 0.773455 0.773455
0.792574 0.792574 0.792574
0.807096 0.807096 0.807096
0.818688 0.818688 0.818688
0.828780 0.828780 0.828780
0.838615 0.838615 0.838615
0.849194 0.849194 0.849194
0.860787 0.860787 0.860787
0.873167 0.873167 0.873167
0.204261 0.204261 0.204261
0.204971 0.204971 0.204971
0.205979 0.205979 0.205979
0.208168 0.208168 0.208168
0.209007 0.209007 0.209007
0.208801 0.208801 0.208801
0.208427 0.208427 0.208427
0.211071 0.211071 0.211071
0.221484 0.221484 0.221484
0.236312 0.236312 0.236312
0.256203 0.256203 0.256203
0.286653 0.286653 0.286653
0.315721 0.315721 0.315721
0.345061 0.345061 0.345061
0.380403 0.380403 0.380403
0.421205 0.421205 0.421205
0.465665 0.465665 0.465665
0.511892 0.511892 0.511892
0.557963 0.557963 0.557963
0.603118 0.603118 0.603118
0.647314 0.647314 0.647314
0.688669 0.688669 0.688669
0.724433 0.724433 0.724433
0.753531 0.753531 0.753531
0.776513 0.776513 0.776513
0.794410 0.794410 0.794410
0.808260 0.808260 0.808260
0.819549 0.819549 0.819549
0.829532 0.829532 0.829532
0.839356 0.839356 0.839356
0.849963 0.849963 0.849963
0.861604 0.861604 0.861604
0.873983 0.873983 0.873983
0.229845 0.229845 0.229845
0.230676 0.230676 0.230676
0.231921 0.231921 0.231921
0.234452 0.234452 0.234452
0.236961 0.236961 0.236961
0.237027 0.237027 0.237027
0.236650 0.236650 0.236650
0.236743 0.236743 0.236743
0.243019 0.243019 0.243019
0.258149 0.258149 0.258149
0.278412 0.278412 0.278412
0.305906 0.305906 0.305906
0.347153 0.347153 0.347153
0.386049 0.386049 0.386049
0.421924 0.421924 0.421924
0.460247 0.460247 0.460247
0.499953 0.499953 0.499953
0.540315 0.540315 0.540315
0.581250 0.581250 0.581250
0.622805 0.622805 0.622805
0.663472 0.663472 0.663472
0.700984 0.700984 0.700984
0.733120 0.733120 0.733120
0.759506 0.759506 0.759506
0.780549 0.780549 0.780549
0.797092 0.797092 0.797092
0.810107 0.810107 0.810107
0.820896 0.820896 0.820896
0.830613 0.830613 0.830613
0.840330 0.840330 0.840330
0.850895 0.850895 0.850895
0.862505 0.862505 0.862505
0.874811 0.874811 0.874811
0.264278 0.264278 0.264278
0.265320 0.265320 0.265320
0.266801 0.266801 0.266801
0.269751 0.269751 0.269751
0.274182 0.274182 0.274182
0.274963 0.274963 0.274963
0.274725 0.274725 0.274725
0.274345 0.274345 0.274345
0.275724 0.275724 0.275724
0.287241 0.287241 0.287241
0.308947 0.308947 0.308947
0.337445 0.337445 0.337445
0.387005 0.387005 0.387005
0.444934 0.444934 0.444934
0.489009 0.489009 0.489009
0.524197 0.524197 0.524197
0.559351 0.559351 0.559351
0.593861 0.593861 0.593861
0.627828 0.627828 0.627828
0.661645 0.661645 0.661645
0.694703 0.694703 0.694703
0.725235 0.725235 0.725235
0.751181 0.751181 0.751181
0.772584 0.772584 0.772584
0.789943 0.789943 0.789943
0.803837 0.803837 0.803837
0.815127 0.815127 0.815127
0.824865 0.824865 0.824865
0.834006 0.834006 0.834006
0.843485 0.843485 0.843485
0.853916 0.853916 0.853916
0.865265 0.865265 0.865265
0.877302 0.877302 0.877302
0.314294 0.314294 0.314294
0.315417 0.315417 0.315417
0.316809 0.316809 0.316809
0.319914 0.319914 0.319914
0.324932 0.324932 0.324932
0.327159 0.327159 0.327159
0.326827 0.326827 0.326827
0.326201 0.326201 0.326201
0.326078 0.326078 0.326078
0.331834 0.331834 0.331834
0.353527 0.353527 0.353527
0.385969 0.385969 0.385969
0.429261 0.429261 0.429261
0.479094 0.479094 0.479094
0.529178 0.529178 0.529178
0.572084 0.572084 0.572084
0.606098 0.606098 0.606098
0.636060 0.636060 0.636060
0.664675 0.664675 0.664675
0.692105 0.692105 0.692105
0.718192 0.718192 0.718192
0.742216 0.742216 0.742216
0.763362 0.763362 0.763362
0.781362 0.781362 0.781362
0.796184 0.796184 0.796184
0.808302 0.808302 0.808302
0.818453 0.818453 0.818453
0.827520 0.827520 0.827520
0.836313 0.836313 0.836313
0.845645 0.845645 0.845645
0.856000 0.856000 0.856000
0.867191 0.867191 0.867191
0.879088 0.879088 0.879088
0.371721 0.371721 0.371721
0.372880 0.372880 0.372880
0.374244 0.374244 0.374244
0.377330 0.377330 0.377330
0.382128 0.382128 0.382128
0.386905 0.386905 0.386905
0.388095 0.388095 0.388095
0.388809 0.388809 0.388809
0.390116 0.390116 0.390116
0.393307 0.393307 0.393307
0.405705 0.405705 0.405705
0.434319 0.434319 0.434319
0.470762 0.470762 0.470762
0.508644 0.508644 0.508644
0.550714 0.550714 0.550714
0.594312 0.594312 0.594312
0.633700 0.633700 0.633700
0.664572 0.664572 0.664572
0.688889 0.688889 0.688889
0.711885 0.711885 0.711885
0.733436 0.733436 0.733436
0.753232 0.753232 0.753232
0.770969 0.770969 0.770969
0.786447 0.786447 0.786447
0.799744 0.799744 0.799744
0.810893 0.810893 0.810893
0.820437 0.820437 0.820437
0.829149 0.829149 0.829149
0.837786 0.837786 0.837786
0.847067 0.847067 0.847067
0.857375 0.857375 0.857375
0.868508 0.868508 0.868508
0.880324 0.880324 0.880324
0.436158 0.436158 0.436158
0.437540 0.437540 0.437540
0.438926 0.438926 0.438926
0.442220 0.442220 0.442220
0.447202 0.447202 0.447202
0.453936 0.453936 0.453936
0.456698 0.456698 0.456698
0.457850 0.457850 0.457850
0.459460 0.459460 0.459460
0.461962 0.461962 0.461962
0.466345 0.466345 0.466345
0.483154 0.483154 0.483154
0.512962 0.512962 0.512962
0.546942 0.546942 0.546942
0.580509 0.580509 0.580509
0.615192 0.615192 0.615192
0.651051 0.651051 0.651051
0.685091 0.685091 0.685091
0.711414 0.711414 0.711414
0.730291 0.730291 0.730291
0.748149 0.748149 0.748149
0.764670 0.764670 0.764670
0.779468 0.779468 0.779468
0.792441 0.792441 0.792441
0.803855 0.803855 0.803855
0.813763 0.813763 0.813763
0.822761 0.822761 0.822761
0.831228 0.831228 0.831228
0.839843 0.839843 0.839843
0.849210 0.849210 0.849210
0.859593 0.859593 0.859593
0.870765 0.870765 0.870765
0.882532 0.882532 0.882532
0.506398 0.506398 0.506398
0.507856 0.507856 0.507856
0.509220 0.509220 0.509220
0.512388 0.512388 0.512388
0.517212 0.517212 0.517212
0.524011 0.524011 0.524011
0.528299 0.528299 0.528299
0.529363 0.529363 0.529363
0.530280 0.530280 0.530280
0.531915 0.531915 0.531915
0.534097 0.534097 0.534097
0.539892 0.539892 0.539892
0.558044 0.558044 0.558044
0.585341 0.585341 0.585341
0.614312 0.614312 0.614312
0.642092 0.642092 0.642092
0.669109 0.669109 0.669109
0.697119 0.697119 0.697119
0.725207 0.725207 0.725207
0.747178 0.747178 0.747178
0.761987 0.761987 0.761987
0.775788 0.775788 0.775788
0.788272 0.788272 0.788272
0.799273 0.799273 0.799273
0.808959 0.808959 0.808959
0.817613 0.817613 0.817613
0.825808 0.825808 0.825808
0.833893 0.833893 0.833893
0.842501 0.842501 0.842501
0.851951 0.851951 0.851951
0.862312 0.862312 0.862312
0.873394 0.873394 0.873394
0.885003 0.885003 0.885003
0.572610 0.572610 0.572610
0.573763 0.573763 0.573763
0.574902 0.574902 0.574902
0.577492 0.577492 0.577492
0.581557 0.581557 0.581557
0.587277 0.587277 0.587277
0.593207 0.593207 0.593207
0.594557 0.594557 0.594557
0.595060 0.595060 0.595060
0.596031 0.596031 0.596031
0.597297 0.597297 0.597297
0.598858 0.598858 0.598858
0.605335 0.605335 0.605335
0.623080 0.623080 0.623080
0.646952 0.646952 0.646952
0.670454 0.670454 0.670454
0.692249 0.692249 0.692249
0.711997 0.711997 0.711997
0.733181 0.733181 0.733181
0.756407 0.756407 0.756407
0.774270 0.774270 0.774270
0.785779 0.785779 0.785779
0.796272 0.796272 0.796272
0.805658 0.805658 0.805658
0.814114 0.814114 0.814114
0.821882 0.821882 0.821882
0.829334 0.829334 0.829334
0.836973 0.836973 0.836973
0.845340 0.845340 0.845340
0.854701 0.854701 0.854701
0.864974 0.864974 0.864974
0.875885 0.875885 0.875885
0.887297 0.887297 0.887297
0.631104 0.631104 0.631104
0.632118 0.632118 0.632118
0.641741 0.641741 0.641741
0.644256 0.644256 0.644256
0.647305 0.647305 0.647305
0.651474 0.651474 0.651474
0.656874 0.656874 0.656874
0.658474 0.658474 0.658474
0.658602 0.658602 0.658602
0.658891 0.658891 0.658891
0.659521 0.659521 0.659521
0.660301 0.660301 0.660301
0.661066 0.661066 0.661066
0.668047 0.668047 0.668047
0.683941 0.683941 0.683941
0.702511 0.702511 0.702511
0.719515 0.719515 0.719515
0.735029 0.735029 0.735029
0.748690 0.748690 0.748690
0.764309 0.764309 0.764309
0.782487 0.782487 0.782487
0.795454 0.795454 0.795454
0.804228 0.804228 0.804228
0.812086 0.812086 0.812086
0.819392 0.819392 0.819392
0.826347 0.826347 0.826347
0.833265 0.833265 0.833265
0.840526 0.840526 0.840526
0.848553 0.848553 0.848553
0.857616 0.857616 0.857616
0.867594 0.867594 0.867594
0.878349 0.878349 0.878349
0.889591 0.889591 0.889591
0.683732 0.683732 0.683732
0.685463 0.685463 0.685463
0.697577 0.697577 0.697577
0.700467 0.700467 0.700467
0.703191 0.703191 0.703191
0.706306 0.706306 0.706306
0.710040 0.710040 0.710040
0.712340 0.712340 0.712340
0.712492 0.712492 0.712492
0.712315 0.712315 0.712315
0.712394 0.712394 0.712394
0.712546 0.712546 0.712546
0.712570 0.712570 0.712570
0.712879 0.712879 0.712879
0.719293 0.719293 0.719293
0.731453 0.731453 0.731453
0.744280 0.744280 0.744280
0.756062 0.756062 0.756062
0.766851 0.766851 0.766851
0.776601 0.776601 0.776601
0.787805 0.787805 0.787805
0.801088 0.801088 0.801088
0.810923 0.810923 0.810923
0.818209 0.818209 0.818209
0.824587 0.824587 0.824587
0.830872 0.830872 0.830872
0.837380 0.837380 0.837380
0.844419 0.844419 0.844419
0.852301 0.852301 0.852301
0.861091 0.861091 0.861091
0.870660 0.870660 0.870660
0.881044 0.881044 0.881044
0.891914 0.891914 0.891914
0.726145 0.726145 0.726145
0.728370 0.728370 0.728370
0.730709 0.730709 0.730709
0.733350 0.733350 0.733350
0.736165 0.736165 0.736165
0.738864 0.738864 0.738864
0.741721 0.741721 0.741721
0.744436 0.744436 0.744436
0.744992 0.744992 0.744992
0.744880 0.744880 0.744880
0.744905 0.744905 0.744905
0.745022 0.745022 0.745022
0.745034 0.745034 0.745034
0.744894 0.744894 0.744894
0.745956 0.745956 0.745956
0.751697 0.751697 0.751697
0.761029 0.761029 0.761029
0.770458 0.770458 0.770458
0.779211 0.779211 0.779211
0.787339 0.787339 0.787339
0.794824 0.794824 0.794824
0.803216 0.803216 0.803216
0.813524 0.813524 0.813524
0.822080 0.822080 0.822080
0.828846 0.828846 0.828846
0.834836 0.834836 0.834836
0.841222 0.841222 0.841222
0.848262 0.848262 0.848262
0.856111 0.856111 0.856111
0.864775 0.864775 0.864775
0.874160 0.874160 0.874160
0.884119 0.884119 0.884119
0.894542 0.894542 0.894542
0.755775 0.755775 0.755775
0.757390 0.757390 0.757390
0.759109 0.759109 0.759109
0.760987 0.760987 0.760987
0.763012 0.763012 0.763012
0.764968 0.764968 0.764968
0.766968 0.766968 0.766968
0.769267 0.769267 0.769267
0.770208 0.770208 0.770208
0.770300 0.770300 0.770300
0.770330 0.770330 0.770330
0.770422 0.770422 0.770422
0.770423 0.770423 0.770423
0.770360 0.770360 0.770360
0.770174 0.770174 0.770174
0.771664 0.771664 0.771664
0.776843 0.776843 0.776843
0.784128 0.784128 0.784128
0.791216 0.791216 0.791216
0.797866 0.797866 0.797866
0.804075 0.804075 0.804075
0.809890 0.809890 0.809890
0.816380 0.816380 0.816380
0.824730 0.824730 0.824730
0.832803 0.832803 0.832803
0.839724 0.839724 0.839724
0.846127 0.846127 0.846127
0.853182 0.853182 0.853182
0.860966 0.860966 0.860966
0.869472 0.869472 0.869472
0.878630 0.878630 0.878630
0.888286 0.888286 0.888286
0.898371 0.898371 0.898371
0.779942 0.779942 0.779942
0.780979 0.780979 0.780979
0.782042 0.782042 0.782042
0.783273 0.783273 0.783273
0.784578 0.784578 0.784578
0.785883 0.785883 0.785883
0.787263 0.787263 0.787263
0.788863 0.788863 0.788863
0.790124 0.790124 0.790124
0.790414 0.790414 0.790414
0.790469 0.790469 0.790469
0.790542 0.790542 0.790542
0.790580 0.790580 0.790580
0.790576 0.790576 0.790576
0.790522 0.790522 0.790522
0.790449 0.790449 0.790449
0.792275 0.792275 0.792275
0.796977 0.796977 0.796977
0.802707 0.802707 0.802707
0.808136 0.808136 0.808136
0.813285 0.813285 0.813285
0.818174 0.818174 0.818174
0.822867 0.822867 0.822867
0.828143 0.828143 0.828143
0.835497 0.835497 0.835497
0.844006 0.844006 0.844006
0.851776 0.851776 0.851776
0.858863 0.858861 0.858861
0.866602 0.866592 0.866592
0.874952 0.874952 0.874952
0.883846 0.883846 0.883846
0.893161 0.893161 0.893161
0.902914 0.902914 0.902914
0.799645 0.799645 0.799645
0.800140 0.800140 0.800140
0.800559 0.800559 0.800559
0.801161 0.801161 0.801161
0.801865 0.801865 0.801865
0.802623 0.802623 0.802623
0.803546 0.803546 0.803546
0.804683 0.804683 0.804683
0.805977 0.805977 0.805977
0.806447 0.806447 0.806447
0.806609 0.806609 0.806609
0.806754 0.806754 0.806754
0.806848 0.806848 0.806848
0.806885 0.806885 0.806885
0.806880 0.806880 0.806880
0.806874 0.806874 0.806874
0.806945 0.806945 0.806945
0.808784 0.808784 0.808784
0.812757 0.812757 0.812757
0.817050 0.817050 0.817050
0.821228 0.821228 0.821228
0.825335 0.825335 0.825335
0.829385 0.829385 0.829385
0.833450 0.833450 0.833450
0.838097 0.838097 0.838097
0.844899 0.844899 0.844899
0.854414 0.854414 0.854414
0.862890 0.862887 0.862887
0.870504 0.870485 0.870485
0.878650 0.878650 0.878650
0.887305 0.887305 0.887305
0.896370 0.896370 0.896370
0.905884 0.905884 0.905884
0.813231 0.813231 0.813231
0.813621 0.813621 0.813621
0.813952 0.813952 0.813952
0.814361 0.814361 0.814361
0.814868 0.814868 0.814868
0.815373 0.815373 0.815373
0.815987 0.815987 0.815987
0.816769 0.816769 0.816769
0.817733 0.817733 0.817733
0.818280 0.818280 0.818280
0.818436 0.818436 0.818436
0.818507 0.818507 0.818507
0.818564 0.818564 0.818564
0.818598 0.818598 0.818598
0.818614 0.818614 0.818614
0.818635 0.818635 0.818635
0.818675 0.818675 0.818675
0.819118 0.819118 0.819118
0.821070 0.821070 0.821070
0.824517 0.824517 0.824517
0.828246 0.828246 0.828246
0.832040 0.832040 0.832040
0.835879 0.835879 0.835879
0.839809 0.839809 0.839809
0.843638 0.843638 0.843638
0.847595 0.847595 0.847595
0.854667 0.854667 0.854667
0.865192 0.865192 0.865192
0.874016 0.874016 0.874016
0.882131 0.882131 0.882131
0.890547 0.890547 0.890547
0.899422 0.899422 0.899422
0.908711 0.908711 0.908711
0.825169 0.825169 0.825169
0.825495 0.825495 0.825495
0.825756 0.825756 0.825756
0.826014 0.826014 0.826014
0.826327 0.826327 0.826327
0.826670 0.826670 0.826670
0.827092 0.827092 0.827092
0.827624 0.827624 0.827624
0.828292 0.828292 0.828292
0.828895 0.828895 0.828895
0.829019 0.829019 0.829019
0.828995 0.828995 0.828995
0.828978 0.828978 0.828978
0.828946 0.828946 0.828946
0.828879 0.828879 0.828879
0.828791 0.828791 0.828791
0.828729 0.828729 0.828729
0.828749 0.828749 0.828749
0.829435 0.829435 0.829435
0.831622 0.831622 0.831622
0.835012 0.835012 0.835012
0.838660 0.838660 0.838660
0.842419 0.842419 0.842416
0.846271 0.846271 0.846266
0.850201 0.850201 0.850201
0.854206 0.854206 0.854206
0.858654 0.858654 0.858654
0.865485 0.865485 0.865485
0.876513 0.876513 0.876513
0.885852 0.885852 0.885852
0.894338 0.894338 0.894338
0.902967 0.902967 0.902967
0.911947 0.911947 0.911947
0.834682 0.834682 0.834682
0.834988 0.834988 0.834988
0.835207 0.835207 0.835207
0.835424 0.835424 0.835424
0.835695 0.835695 0.835695
0.835997 0.835997 0.835997
0.836383 0.836383 0.836383
0.836885 0.836885 0.836885
0.837525 0.837525 0.837525
0.838335 0.838335 0.838335
0.838659 0.838659 0.838659
0.838747 0.838747 0.838747
0.838841 0.838841 0.838841
0.838910 0.838910 0.838910
0.838938 0.838938 0.838938
0.838951 0.838951 0.838951
0.838979 0.838979 0.838979
0.839073 0.839073 0.839073
0.839280 0.839280 0.839280
0.840347 0.840347 0.840347
0.843032 0.843032 0.843032
0.846622 0.846622 0.846622
0.850386 0.850386 0.850378
0.854265 0.854265 0.854248
0.858195 0.858195 0.858195
0.862143 0.862143 0.862143
0.866125 0.866125 0.866125
0.870478 0.870478 0.870478
0.877199 0.877199 0.877199
0.888281 0.888281 0.888281
0.898202 0.898202 0.898202
0.907000 0.907000 0.907000
0.915614 0.915614 0.915614
0.844709 0.844709 0.844709
0.844935 0.844935 0.844935
0.845084 0.845084 0.845084
0.845243 0.845243 0.845243
0.845455 0.845455 0.845455
0.845718 0.845718 0.845718
0.846106 0.846106 0.846106
0.846640 0.846640 0.846640
0.847331 0.847331 0.847331
0.848208 0.848208 0.848208
0.848853 0.848853 0.848853
0.849172 0.849172 0.849172
0.849389 0.849389 0.849389
0.849578 0.849578 0.849578
0.849714 0.849714 0.849714
0.849811 0.849811 0.849811
0.849910 0.849910 0.849910
0.850050 0.850050 0.850050
0.850295 0.850295 0.850295
0.850693 0.850693 0.850693
0.852193 0.852193 0.852193
0.855502 0.855502 0.855502
0.859210 0.859210 0.859210
0.863012 0.863012 0.863012
0.866866 0.866866 0.866866
0.870710 0.870710 0.870710
0.874574 0.874574 0.874574
