ml_luts/bw9__lut3d_33.cube
TITLE "BW9"
DOMAIN_MIN 0.000000 0.000000 0.000000
DOMAIN_MAX 1.000000 1.000000 1.000000
LUT_3D_SIZE 9
0.149142 0.149142 0.149142
0.150263 0.150263 0.150263
0.163508 0.163508 0.163508
0.212672 0.212672 0.212672
0.346502 0.346502 0.346502
0.575509 0.575509 0.575509
0.752529 0.752529 0.752529
0.821397 0.821397 0.821397
0.868650 0.868650 0.868650
0.151984 0.151984 0.151984
0.153914 0.153914 0.153914
0.169843 0.169843 0.169843
0.222158 0.222158 0.222158
0.356922 0.356922 0.356922
0.574250 0.574250 0.574250
0.747834 0.747834 0.747834
0.820269 0.820269 0.820269
0.867159 0.867159 0.867159
0.185199 0.185199 0.185199
0.188392 0.188392 0.188392
0.206403 0.206403 0.206403
0.285548 0.285548 0.285548
0.436118 0.436118 0.436118
0.630980 0.630980 0.630980
0.773455 0.773455 0.773455
0.828780 0.828780 0.828780
0.873167 0.873167 0.873167
0.314294 0.314294 0.314294
0.324932 0.324932 0.324932
0.326078 0.326078 0.326078
0.429261 0.429261 0.429261
0.606098 0.606098 0.606098
0.718192 0.718192 0.718192
0.796184 0.796184 0.796184
0.836313 0.836313 0.836313
0.879088 0.879088 0.879088
0.572610 0.572610 0.572610
0.581557 0.581557 0.581557
0.595060 0.595060 0.595060
0.605335 0.605335 0.605335
0.692249 0.692249 0.692249
0.774270 0.774270 0.774270
0.814114 0.814114 0.814114
0.845340 0.845340 0.845340
0.887297 0.887297 0.887297
0.755775 0.755775 0.755775
0.763012 0.763012 0.763012
0.770208 0.770208 0.770208
0.770423 0.770423 0.770423
0.776843 0.776843 0.776843
0.804075 0.804075 0.804075
0.832803 0.832803 0.832803
0.860966 0.860966 0.860966
0.898371 0.898371 0.898371
0.825169 0.825169 0.825169
0.826327 0.826327 0.826327
0.828292 0.828292 0.828292
0.828978 0.828978 0.828978
0.828729 0.828729 0.828729
0.835012 0.835012 0.835012
0.850201 0.850201 0.850201
0.876513 0.876513 0.876513
0.911947 0.911947 0.911947
0.868520 0.868520 0.868520
0.869016 0.869016 0.869016
0.871018 0.871018 0.871018
0.874030 0.874030 0.874030
0.874712 0.874712 0.874712
0.876631 0.876631 0.876631
0.886979 0.886979 0.886979
0.900999 0.900999 0.900999
0.923358 0.923358 0.923358
0.914702 0.914702 0.914702
0.914901 0.914901 0.914901
0.916236 0.916236 0.916236
0.919421 0.919421 0.919421
0.921065 0.921065 0.921065
0.923621 0.923621 0.923621
0.927817 0.927817 0.927817
0.937308 0.937308 0.937308
0.943847 0.943847 0.943847
0.149142 0.149142 0.149142
0.150440 0.150440 0.150440
0.167700 0.167700 0.167700
0.225662 0.225662 0.225662
0.361515 0.361515 0.361515
0.571906 0.571906 0.571906
0.744352 0.744352 0.744352
0.818428 0.818428 0.818428
0.864195 0.864195 0.864195
0.151173 0.151173 0.151173
0.156467 0.156467 0.156467
0.177141 0.177141 0.177141
0.236635 0.236635 0.236635
0.375162 0.375162 0.375162
0.578495 0.578495 0.578495
0.743074 0.743074 0.743074
0.817311 0.817311 0.817311
0.863144 0.863144 0.863144
0.187619 0.187619 0.187619
0.195736 0.195736 0.195736
0.213782 0.213782 0.213782
0.292853 0.292853 0.292853
0.445666 0.445666 0.445666
0.625783 0.625783 0.625783
0.763139 0.763139 0.763139
0.823991 0.823991 0.823991
0.868541 0.868541 0.868541
0.316303 0.316303 0.316303
0.328691 0.328691 0.328691
0.343059 0.343059 0.343059
0.420830 0.420830 0.420830
0.579521 0.579521 0.579521
0.698560 0.698560 0.698560
0.787174 0.787174 0.787174
0.831975 0.831975 0.831975
0.875242 0.875242 0.875242
0.574796 0.574796 0.574796
0.582380 0.582380 0.582380
0.600361 0.600361 0.600361
0.602051 0.602051 0.602051
0.680733 0.680733 0.680733
0.767515 0.767515 0.767515
0.810959 0.810959 0.810959
0.842932 0.842932 0.842932
0.884714 0.884714 0.884714
0.749357 0.749357 0.749357
0.752189 0.752189 0.752189
0.760992 0.760992 0.760992
0.761552 0.761552 0.761552
0.768569 0.768569 0.768569
0.799421 0.799421 0.799421
0.830200 0.830200 0.830200
0.858696 0.858696 0.858696
0.896906 0.896906 0.896906
0.822670 0.822670 0.822670
0.823004 0.823004 0.823004
0.825367 0.825367 0.825367
0.827622 0.827622 0.827622
0.828175 0.828175 0.828175
0.834438 0.834438 0.834438
0.849284 0.849284 0.849284
0.875800 0.875800 0.875800
0.910446 0.910446 0.910446
0.866689 0.866689 0.866689
0.867491 0.867491 0.867491
0.869724 0.869724 0.869724
0.873565 0.873565 0.873565
0.874725 0.874725 0.874725
0.876153 0.876153 0.876153
0.885599 0.885599 0.885599
0.899256 0.899256 0.899256
0.922083 0.922083 0.922083
0.912150 0.912150 0.912150
0.913218 0.913218 0.913218
0.916343 0.916343 0.916343
0.919993 0.919993 0.919993
0.921937 0.921937 0.921937
0.924398 0.924398 0.924398
0.928075 0.928075 0.928075
0.937281 0.937281 0.937281
0.943897 0.943897 0.943897
0.149989 0.149989 0.149989
0.153124 0.153124 0.153124
0.167695 0.167695 0.167695
0.229541 0.229541 0.229541
0.399706 0.399706 0.399706
0.618083 0.618083 0.618083
0.761667 0.761667 0.761667
0.822972 0.822972 0.822972
0.867300 0.867300 0.867300
0.154630 0.154630 0.154630
0.161285 0.161285 0.161285
0.181010 0.181010 0.181010
0.252279 0.252279 0.252279
0.426143 0.426143 0.426143
0.624939 0.624939 0.624939
0.762343 0.762343 0.762343
0.823136 0.823136 0.823136
0.867441 0.867441 0.867441
0.177020 0.177020 0.177020
0.189476 0.189476 0.189476
0.236217 0.236217 0.236217
0.332975 0.332975 0.332975
0.499915 0.499915 0.499915
0.664433 0.664433 0.664433
0.776117 0.776117 0.776117
0.827628 0.827628 0.827628
0.870915 0.870915 0.870915
0.339473 0.339473 0.339473
0.353630 0.353630 0.353630
0.401121 0.401121 0.401121
0.465921 0.465921 0.465921
0.607471 0.607471 0.607471
0.721522 0.721522 0.721522
0.796269 0.796269 0.796269
0.835711 0.835711 0.835711
0.877933 0.877933 0.877933
0.589635 0.589635 0.589635
0.600600 0.600600 0.600600
0.633341 0.633341 0.633341
0.649935 0.649935 0.649935
0.706046 0.706046 0.706046
0.776154 0.776154 0.776154
0.814624 0.814624 0.814624
0.845760 0.845760 0.845760
0.886908 0.886908 0.886908
0.756749 0.756749 0.756749
0.760571 0.760571 0.760571
0.770091 0.770091 0.770091
0.777698 0.777698 0.777698
0.780112 0.780112 0.780112
0.804990 0.804990 0.804990
0.833057 0.833057 0.833057
0.860946 0.860946 0.860946
0.898113 0.898113 0.898113
0.824167 0.824167 0.824167
0.825029 0.825029 0.825029
0.827328 0.827328 0.827328
0.831096 0.831096 0.831096
0.831562 0.831562 0.831562
0.836077 0.836077 0.836077
0.851095 0.851095 0.851095
0.878580 0.878580 0.878580
0.912634 0.912634 0.912634
0.867489 0.867489 0.867489
0.867829 0.867829 0.867829
0.869767 0.869767 0.869767
0.874173 0.874173 0.874173
0.875987 0.875987 0.875987
0.877816 0.877816 0.877816
0.886745 0.886745 0.886745
0.900860 0.900860 0.900860
0.924336 0.924336 0.924336
0.913809 0.913809 0.913809
0.914099 0.914099 0.914099
0.915761 0.915761 0.915761
0.919172 0.919172 0.919172
0.922183 0.922183 0.922183
0.924651 0.924651 0.924651
0.928101 0.928101 0.928101
0.936977 0.936977 0.936977
0.944060 0.944060 0.944060
0.153624 0.153624 0.153624
0.158809 0.158809 0.158809
0.189373 0.189373 0.189373
0.229638 0.229638 0.229638
0.376613 0.376613 0.376613
0.609154 0.609154 0.609154
0.766595 0.766595 0.766595
0.825586 0.825586 0.825586
0.867998 0.867998 0.867998
0.163260 0.163260 0.163260
0.170150 0.170150 0.170150
0.206131 0.206131 0.206131
0.252523 0.252523 0.252523
0.409132 0.409132 0.409132
0.628732 0.628732 0.628732
0.771833 0.771833 0.771833
0.826424 0.826424 0.826424
0.868767 0.868767 0.868767
0.173056 0.173056 0.173056
0.187772 0.187772 0.187772
0.257378 0.257378 0.257378
0.342068 0.342068 0.342068
0.513972 0.513972 0.513972
0.689959 0.689959 0.689959
0.788456 0.788456 0.788456
0.831200 0.831200 0.831200
0.872659 0.872659 0.872659
0.266744 0.266744 0.266744
0.288614 0.288614 0.288614
0.374445 0.374445 0.374445
0.514914 0.514914 0.514914
0.642804 0.642804 0.642804
0.742571 0.742571 0.742571
0.803057 0.803057 0.803057
0.838665 0.838665 0.838665
0.879820 0.879820 0.879820
0.607385 0.607385 0.607385
0.619975 0.619975 0.619975
0.653369 0.653369 0.653369
0.696268 0.696268 0.696268
0.729167 0.729167 0.729167
0.783754 0.783754 0.783754
0.818831 0.818831 0.818831
0.849003 0.849003 0.849003
0.888899 0.888899 0.888899
0.764037 0.764037 0.764037
0.767248 0.767248 0.767248
0.775564 0.775564 0.775564
0.788639 0.788639 0.788639
0.793196 0.793196 0.793196
0.810001 0.810001 0.810001
0.835764 0.835764 0.835764
0.862944 0.862944 0.862944
0.899690 0.899690 0.899690
0.825866 0.825866 0.825866
0.826777 0.826777 0.826777
0.829432 0.829432 0.829432
0.834235 0.834235 0.834235
0.837667 0.837667 0.837667
0.839728 0.839728 0.839728
0.853634 0.853634 0.853634
0.880590 0.880590 0.880590
0.913483 0.913483 0.913483
0.868829 0.868829 0.868829
0.869367 0.869367 0.869367
0.871302 0.871302 0.871302
0.875298 0.875298 0.875298
0.879886 0.879886 0.879886
0.881414 0.881414 0.881414
0.888073 0.888073 0.888073
0.902094 0.902094 0.902094
0.926872 0.926872 0.926872
0.914794 0.914794 0.914794
0.915418 0.915418 0.915418
0.916406 0.916406 0.916406
0.919490 0.919490 0.919490
0.923520 0.923520 0.923520
0.925820 0.925820 0.925820
0.929146 0.929146 0.929146
0.937198 0.937198 0.937198
0.944400 0.944400 0.944400
0.164447 0.164447 0.164447
0.171950 0.171950 0.171950
0.209327 0.209327 0.209327
0.298747 0.298747 0.298747
0.387816 0.387816 0.387816
0.588087 0.588087 0.588087
0.758671 0.758671 0.758671
0.825328 0.825328 0.825328
0.871488 0.871488 0.871488
0.176852 0.176852 0.176852
0.185553 0.185553 0.185553
0.226846 0.226846 0.226846
0.326139 0.326139 0.326139
0.415018 0.415018 0.415018
0.607385 0.607385 0.607385
0.764862 0.764862 0.764862
0.826737 0.826737 0.826737
0.871954 0.871954 0.871954
0.214370 0.214370 0.214370
0.232376 0.232376 0.232376
0.289902 0.289902 0.289902
0.424699 0.424699 0.424699
0.513114 0.513114 0.513114
0.671309 0.671304 0.671304
0.785400 0.785400 0.785400
0.832849 0.832849 0.832849
0.875620 0.875620 0.875620
0.242376 0.242376 0.242376
0.261248 0.261248 0.261248
0.352791 0.352791 0.352791
0.556077 0.556077 0.556077
0.656155 0.656155 0.656155
0.750023 0.750023 0.750023
0.809177 0.809177 0.809177
0.842658 0.842658 0.842658
0.881617 0.881617 0.881617
0.475113 0.475113 0.475113
0.497922 0.497922 0.497922
0.568116 0.568116 0.568116
0.669250 0.669250 0.669250
0.749168 0.749168 0.749168
0.792686 0.792686 0.792686
0.823202 0.823202 0.823202
0.851632 0.851632 0.851632
0.890448 0.890448 0.890448
0.757126 0.757126 0.757126
0.764212 0.764212 0.764212
0.779497 0.779497 0.779497
0.795116 0.795116 0.795116
0.806541 0.806541 0.806541
0.816155 0.816155 0.816155
0.838428 0.838428 0.838428
0.865248 0.865248 0.865248
0.901513 0.901513 0.901513
0.828912 0.828912 0.828912
0.829669 0.829669 0.829669
0.831846 0.831846 0.831846
0.836053 0.836053 0.836053
0.842023 0.842023 0.842023
0.845003 0.845003 0.845003
0.856961 0.856961 0.856961
0.883743 0.883743 0.883743
0.914977 0.914977 0.914977
0.869600 0.869600 0.869600
0.869947 0.869947 0.869947
0.871848 0.871848 0.871848
0.875749 0.875749 0.875749
0.881143 0.881143 0.881143
0.885533 0.885533 0.885533
0.889339 0.889339 0.889339
0.903100 0.903100 0.903100
0.928750 0.928750 0.928750
0.915633 0.915633 0.915633
0.916273 0.916273 0.916273
0.917620 0.917620 0.917620
0.919981 0.919981 0.919981
0.923591 0.923591 0.923591
0.927867 0.927867 0.927867
0.930911 0.930911 0.930911
0.937539 0.937539 0.937539
0.944854 0.944854 0.944854
0.185759 0.185759 0.185759
0.196179 0.196179 0.196179
0.242998 0.242998 0.242998
0.371909 0.371909 0.371909
0.503374 0.503374 0.503374
0.598177 0.598177 0.598177
0.750082 0.750082 0.750082
0.821690 0.821690 0.821690
0.869299 0.869299 0.869299
0.201428 0.201428 0.201428
0.212712 0.212712 0.212712
0.263279 0.263279 0.263279
0.395055 0.395055 0.395055
0.525678 0.525678 0.525678
0.614396 0.614396 0.614396
0.754942 0.754942 0.754942
0.822490 0.822490 0.822490
0.869326 0.869326 0.869326
0.258039 0.258039 0.258039
0.273732 0.273732 0.273732
0.340317 0.340317 0.340317
0.477961 0.477961 0.477961
0.611688 0.611688 0.611688
0.676224 0.676224 0.676224
0.777454 0.777454 0.777454
0.829742 0.829742 0.829742
0.874738 0.874738 0.874738
0.281034 0.281034 0.281034
0.317587 0.317587 0.317587
0.455571 0.455571 0.455571
0.590338 0.590338 0.590338
0.709010 0.709010 0.709010
0.747877 0.747877 0.747877
0.803462 0.803462 0.803462
0.840443 0.840443 0.840443
0.883110 0.883110 0.883110
0.426295 0.426295 0.426295
0.447772 0.447772 0.447772
0.519542 0.519542 0.519542
0.636796 0.636796 0.636796
0.759870 0.759870 0.759870
0.793123 0.793123 0.793123
0.823361 0.823361 0.823361
0.853552 0.853552 0.853552
0.892336 0.892336 0.892336
0.685055 0.685055 0.685055
0.696521 0.696521 0.696521
0.728310 0.728310 0.728310
0.767289 0.767289 0.767289
0.799795 0.799795 0.799795
0.823949 0.823949 0.823949
0.843159 0.843159 0.843159
0.868847 0.868847 0.868847
0.903363 0.903363 0.903363
0.819019 0.819019 0.819019
0.820934 0.820934 0.820934
0.826826 0.826826 0.826826
0.836851 0.836851 0.836851
0.845056 0.845056 0.845056
0.853118 0.853118 0.853118
0.861719 0.861719 0.861719
0.886403 0.886403 0.886403
0.916879 0.916879 0.916879
0.872048 0.872048 0.872048
0.872668 0.872668 0.872668
0.874545 0.874545 0.874545
0.878264 0.878264 0.878264
0.883101 0.883101 0.883101
0.889648 0.889648 0.889648
0.893504 0.893504 0.893504
0.905298 0.905298 0.905298
0.931141 0.931141 0.931141
0.917887 0.917887 0.917887
0.917960 0.917960 0.917960
0.919155 0.919155 0.919155
0.921484 0.921484 0.921484
0.924784 0.924784 0.924784
0.929439 0.929439 0.929439
0.934007 0.934007 0.934007
0.938503 0.938503 0.938503
0.945564 0.945564 0.945564
0.232304 0.232304 0.232304
0.247901 0.247901 0.247901
0.315215 0.315215 0.315215
0.465667 0.465667 0.465667
0.648756 0.648756 0.648756
0.706854 0.706854 0.706854
0.760248 0.760248 0.760248
0.821123 0.821123 0.821123
0.867338 0.867338 0.867338
0.252064 0.252064 0.252064
0.268866 0.268866 0.268866
0.339825 0.339825 0.339825
0.485666 0.485666 0.485666
0.658262 0.658262 0.658262
0.715809 0.715809 0.715809
0.763681 0.763681 0.763681
0.821704 0.821704 0.821704
0.867567 0.867567 0.867567
0.321920 0.321920 0.321920
0.342242 0.342242 0.342242
0.417644 0.417644 0.417644
0.551584 0.551584 0.551584
0.695928 0.695928 0.695928
0.750112 0.750112 0.750112
0.782744 0.782744 0.782744
0.827801 0.827801 0.827801
0.872265 0.872265 0.872265
0.430905 0.430905 0.430905
0.457922 0.457922 0.457922
0.528279 0.528279 0.528279
0.637658 0.637658 0.637658
0.740611 0.740611 0.740611
0.787044 0.787044 0.787044
0.804289 0.804289 0.804289
0.837014 0.837014 0.837014
0.880053 0.880053 0.880053
0.385504 0.385504 0.385504
0.412693 0.412693 0.412693
0.519944 0.519944 0.519944
0.697034 0.697034 0.697034
0.773646 0.773646 0.773646
0.811927 0.811927 0.811927
0.822849 0.822849 0.822849
0.849653 0.849653 0.849653
0.890814 0.890814 0.890814
0.652151 0.652151 0.652151
0.664320 0.664320 0.664320
0.700022 0.700022 0.700022
0.744490 0.744490 0.744490
0.784397 0.784397 0.784397
0.827107 0.827107 0.827107
0.842543 0.842543 0.842543
0.868310 0.868310 0.868310
0.904702 0.904702 0.904702
0.796593 0.796593 0.796593
0.799142 0.799142 0.799142
0.806885 0.806885 0.806885
0.817743 0.817743 0.817743
0.830329 0.830329 0.830329
0.846428 0.846428 0.846428
0.867662 0.867662 0.867662
0.889750 0.889750 0.889750
0.918860 0.918860 0.918860
0.856149 0.856149 0.856149
0.857464 0.857464 0.857464
0.862105 0.862105 0.862105
0.870381 0.870381 0.870381
0.881881 0.881881 0.881881
0.891728 0.891728 0.891728
0.900293 0.900293 0.900293
0.908978 0.908978 0.908978
0.933484 0.933484 0.933484
0.918921 0.918921 0.918921
0.919316 0.919316 0.919316
0.920829 0.920829 0.920829
0.923179 0.923179 0.923179
0.926535 0.926535 0.926535
0.930846 0.930846 0.930846
0.936378 0.936378 0.936378
0.940633 0.940633 0.940633
0.946624 0.946624 0.946624
0.350221 0.350221 0.350221
0.375989 0.375989 0.375989
0.465977 0.465977 0.465977
0.609032 0.609032 0.609032
0.739513 0.739513 0.739513
0.800996 0.800996 0.800996
0.810080 0.810080 0.810080
0.827004 0.827004 0.827004
0.870371 0.870371 0.870371
0.374515 0.374515 0.374515
0.399465 0.399465 0.399465
0.486429 0.486429 0.486429
0.622182 0.622182 0.622182
0.744231 0.744231 0.744231
0.803289 0.803289 0.803289
0.811807 0.811807 0.811807
0.828032 0.828032 0.828032
0.871134 0.871134 0.871134
0.442906 0.442906 0.442906
0.466295 0.466295 0.466295
0.545007 0.545007 0.545007
0.663023 0.663023 0.663023
0.761206 0.761206 0.761206
0.810898 0.810898 0.810898
0.819980 0.819980 0.819980
0.833577 0.833577 0.833577
0.875273 0.875273 0.875273
0.527326 0.527326 0.527326
0.546812 0.546812 0.546812
0.614357 0.614357 0.614357
0.709252 0.709252 0.709252
0.780895 0.780895 0.780895
0.819692 0.819692 0.819692
0.830707 0.830707 0.830707
0.841909 0.841909 0.841909
0.882048 0.882048 0.882048
0.530257 0.530257 0.530257
0.567856 0.567856 0.567856
0.674033 0.674033 0.674033
0.744133 0.744133 0.744133
0.795207 0.795207 0.795207
0.826704 0.826704 0.826704
0.843521 0.843521 0.843521
0.853610 0.853610 0.853610
0.891402 0.891402 0.891402
0.582384 0.582384 0.582384
0.594489 0.594489 0.594489
0.631967 0.631967 0.631967
0.704115 0.704115 0.704115
0.804038 0.804038 0.804038
0.834727 0.834727 0.834727
0.860102 0.860102 0.860102
0.870155 0.870155 0.870155
0.903822 0.903822 0.903822
0.794464 0.794464 0.794464
0.796732 0.796732 0.796732
0.803490 0.803490 0.803490
0.813117 0.813117 0.813117
0.824526 0.824526 0.824526
0.838445 0.838445 0.838445
0.873521 0.873521 0.873521
0.891331 0.891331 0.891331
0.920008 0.920008 0.920008
0.846424 0.846424 0.846424
0.847362 0.847362 0.847362
0.850644 0.850644 0.850644
0.856811 0.856811 0.856811
0.866098 0.866098 0.866098
0.878854 0.878854 0.878854
0.895606 0.895606 0.895606
0.916112 0.916112 0.916112
0.936841 0.936841 0.936841
0.903841 0.903841 0.903841
0.904730 0.904730 0.904730
0.907842 0.907842 0.907842
0.913464 0.913464 0.913464
0.921302 0.921302 0.921302
0.931016 0.931016 0.931016
0.938769 0.938769 0.938769
0.944889 0.944889 0.944889
0.948413 0.948413 0.948413
0.626337 0.626337 0.626337
0.646032 0.646032 0.646032
0.707988 0.707988 0.707988
0.775055 0.775055 0.775055
0.816815 0.816815 0.816815
0.844327 0.844327 0.844327
0.862676 0.862676 0.862676
0.868532 0.868532 0.868532
0.884581 0.884581 0.884581
0.629691 0.629691 0.629691
0.650989 0.650989 0.650989
0.712934 0.712934 0.712934
0.777721 0.777721 0.777721
0.817765 0.817765 0.817765
0.844920 0.844920 0.844920
0.863802 0.863802 0.863802
0.869512 0.869512 0.869512
0.885343 0.885343 0.885343
0.650301 0.650301 0.650301
0.670887 0.670887 0.670887
0.725525 0.725525 0.725525
0.782203 0.782203 0.782203
0.819471 0.819471 0.819471
0.846196 0.846196 0.846196
0.867714 0.867714 0.867714
0.873392 0.873392 0.873392
0.888198 0.888198 0.888198
0.666758 0.666758 0.666758
0.685533 0.685533 0.685533
0.735937 0.735937 0.735937
0.788024 0.788024 0.788024
0.822538 0.822538 0.822538
0.849183 0.849183 0.849183
0.875403 0.875403 0.875403
0.880825 0.880825 0.880825
0.894007 0.894007 0.894007
0.725887 0.725887 0.725887
0.730365 0.730365 0.730365
0.743450 0.743450 0.743450
0.785710 0.785710 0.785710
0.822850 0.822850 0.822850
0.851163 0.851163 0.851163
0.880800 0.880800 0.880800
0.890700 0.890700 0.890700
0.902205 0.902205 0.902205
0.500009 0.500009 0.500009
0.531856 0.531856 0.531856
0.646515 0.646515 0.646515
0.782360 0.782360 0.782360
0.822740 0.822740 0.822740
0.851505 0.851505 0.851505
0.884336 0.884336 0.884336
0.902595 0.902595 0.902595
0.912227 0.912227 0.912227
0.777843 0.777843 0.777843
0.778631 0.778631 0.778631
0.781134 0.781134 0.781134
0.785262 0.785262 0.785262
0.793771 0.793771 0.793771
0.850542 0.850542 0.850542
0.886860 0.886860 0.886860
0.916740 0.916740 0.916740
0.924895 0.924895 0.924895
0.862860 0.862860 0.862860
0.863588 0.863588 0.863588
0.865399 0.865399 0.865399
0.868560 0.868560 0.868560
0.873182 0.873182 0.873182
0.879365 0.879365 0.879365
0.887558 0.887558 0.887558
0.924020 0.924020 0.924020
0.938506 0.938506 0.938506
0.911101 0.911101 0.911101
0.911475 0.911475 0.911475
0.912757 0.912757 0.912757
0.915130 0.915130 0.915130
0.918806 0.918806 0.918806
0.924025 0.924025 0.924025
0.931250 0.931250 0.931250
0.941005 0.941005 0.941005
0.951415 0.951415 0.951415
