ml_luts/cinematic_teal__lut3d_33.cube
# META ml: transfer aesthetic
# META author: jlxD
LUT_3D_SIZE 33
0.000000 0.000000 0.000000
0.001465 0.000000 0.000000
0.023590 0.000519 0.000000
0.054413 0.003052 0.000000
0.090088 0.005920 0.000000
0.128143 0.011993 0.000000
0.170685 0.021576 0.000000
0.216003 0.029999 0.000000
0.261139 0.033478 0.000000
0.315948 0.036102 0.000000
0.372772 0.036102 0.000000
0.430878 0.036835 0.000000
0.494202 0.037415 0.000000
0.556793 0.036102 0.000000
0.619507 0.034210 0.000000
0.683594 0.032196 0.000000
0.746246 0.032166 0.000000
0.812164 0.034210 0.000000
0.874359 0.036438 0.000000
0.936371 0.038818 0.000000
0.984070 0.040741 0.000000
1.000000 0.040344 0.000000
1.000000 0.040344 0.000000
1.000000 0.040344 0.000000
1.000000 0.040344 0.000000
1.000000 0.040344 0.000000
1.000000 0.040344 0.000000
1.000000 0.040344 0.000000
1.000000 0.040344 0.000000
1.000000 0.040344 0.000000
1.000000 0.040344 0.000000
1.000000 0.040344 0.000000
1.000000 0.040344 0.000000
0.000000 0.000000 0.000000
0.000000 0.000000 0.000000
0.017029 0.000000 0.000000
0.045593 0.003113 0.000000
0.082550 0.004852 0.000000
0.120636 0.010010 0.000000
0.161987 0.019867 0.000000
0.208679 0.029175 0.000000
0.252991 0.033051 0.000000
0.307190 0.035767 0.000000
0.364044 0.036194 0.000000
0.422729 0.036591 0.000000
0.485291 0.037537 0.000000
0.548828 0.036255 0.000000
0.611084 0.034454 0.000000
0.676086 0.032501 0.000000
0.738739 0.032135 0.000000
0.804779 0.034027 0.000000
0.867676 0.036072 0.000000
0.929504 0.038666 0.000000
0.981537 0.040649 0.000000
0.998779 0.040375 0.000000
1.000000 0.040344 0.000000
1.000000 0.040344 0.000000
1.000000 0.040344 0.000000
1.000000 0.040344 0.000000
1.000000 0.040344 0.000000
1.000000 0.040344 0.000000
1.000000 0.040344 0.000000
1.000000 0.040344 0.000000
1.000000 0.040344 0.000000
1.000000 0.040344 0.000000
1.000000 0.040344 0.000000
0.000000 0.010742 0.000000
0.000000 0.009308 0.000000
0.007935 0.007874 0.000000
0.037506 0.009430 0.000000
0.075165 0.008057 0.000000
0.113159 0.011078 0.000000
0.152924 0.018097 0.000000
0.201111 0.027740 0.000000
0.244812 0.032623 0.000000
0.298035 0.035400 0.000000
0.355469 0.036346 0.000000
0.414154 0.036316 0.000000
0.476379 0.037628 0.000000
0.540283 0.036469 0.000000
0.603119 0.034729 0.000000
0.668488 0.032837 0.000000
0.731476 0.032135 0.000000
0.796722 0.033844 0.000000
0.860809 0.035706 0.000000
0.922546 0.038483 0.000000
0.978638 0.040497 0.000000
0.997223 0.040405 0.000000
1.000000 0.040344 0.000000
1.000000 0.040344 0.000000
1.000000 0.040344 0.000000
1.000000 0.040344 0.000000
1.000000 0.040344 0.000000
1.000000 0.040344 0.000000
1.000000 0.040344 0.000000
1.000000 0.040344 0.000000
1.000000 0.040344 0.000000
1.000000 0.040344 0.000000
1.000000 0.040344 0.000000
0.000000 0.027313 0.000000
0.000000 0.026001 0.000000
0.003235 0.024323 0.000000
0.027313 0.024048 0.000000
0.064301 0.024841 0.000000
0.102966 0.025848 0.000000
0.139465 0.028076 0.000000
0.188171 0.034637 0.000000
0.233704 0.038300 0.000000
0.286224 0.039459 0.000000
0.342621 0.039154 0.000000
0.401581 0.035919 0.000000
0.462769 0.037506 0.000000
0.527374 0.036774 0.000000
0.590210 0.035217 0.000000
0.656097 0.033386 0.000000
0.719177 0.032104 0.000000
0.783936 0.033478 0.000000
0.848969 0.035248 0.000000
0.911041 0.038055 0.000000
0.971313 0.040131 0.000000
0.995117 0.040466 0.000000
1.000000 0.040344 0.000000
1.000000 0.040344 0.000000
1.000000 0.040344 0.000000
1.000000 0.040344 0.000000
1.000000 0.040344 0.000000
1.000000 0.040344 0.000000
1.000000 0.040344 0.000000
1.000000 0.040344 0.000000
1.000000 0.040344 0.000000
1.000000 0.040344 0.000000
1.000000 0.040344 0.000000
0.000000 0.048035 0.000000
0.000000 0.046509 0.000000
0.000000 0.044983 0.000000
0.013702 0.042389 0.000000
0.054504 0.046478 0.000000
0.092316 0.048218 0.000000
0.130829 0.047333 0.000000
0.175690 0.049896 0.000000
0.222046 0.052856 0.000000
0.273590 0.054291 0.000000
0.330048 0.055115 0.000000
0.388855 0.051941 0.000000
0.448730 0.050446 0.000000
0.513947 0.047058 0.000000
0.576904 0.041260 0.000000
0.642822 0.033783 0.000000
0.706177 0.032135 0.000000
0.770966 0.032928 0.000000
0.837036 0.034882 0.000000
0.899597 0.037598 0.000000
0.962036 0.039673 0.000000
0.992188 0.040527 0.000000
1.000000 0.040344 0.000000
1.000000 0.040344 0.000000
1.000000 0.040344 0.000000
1.000000 0.040344 0.000000
1.000000 0.040344 0.000000
1.000000 0.040344 0.000000
1.000000 0.040344 0.000000
1.000000 0.040344 0.000000
1.000000 0.040344 0.000000
1.000000 0.040344 0.000000
1.000000 0.040344 0.000000
0.000000 0.068390 0.001556
0.000000 0.067230 0.001465
0.000000 0.065918 0.001312
0.008423 0.065308 0.000336
0.036591 0.066772 0.000000
0.080414 0.070099 0.000000
0.121124 0.068420 0.000000
0.164154 0.070343 0.000000
0.209564 0.073029 0.000000
0.259918 0.074860 0.000000
0.315704 0.074707 0.000000
0.377228 0.073761 0.000000
0.435883 0.072754 0.000000
0.498718 0.071136 0.000000
0.562378 0.065796 0.000000
0.628052 0.061401 0.000000
0.691193 0.056335 0.000000
0.755310 0.051941 0.000000
0.822021 0.049286 0.000000
0.885773 0.045990 0.000000
0.948792 0.043671 0.000000
0.989136 0.040619 0.000000
1.000000 0.040344 0.000000
1.000000 0.040344 0.000000
1.000000 0.040344 0.000000
1.000000 0.040344 0.000000
1.000000 0.040344 0.000000
1.000000 0.040344 0.000000
1.000000 0.040344 0.000000
1.000000 0.040344 0.000000
1.000000 0.040344 0.000000
1.000000 0.040344 0.000000
1.000000 0.040344 0.000000
0.003052 0.091614 0.006104
0.002502 0.090149 0.005798
0.002319 0.088867 0.005554
0.002045 0.086609 0.005096
0.025177 0.088043 0.001221
0.065063 0.090149 0.000854
0.109314 0.092407 0.000000
0.154175 0.093079 0.000000
0.200867 0.095215 0.000000
0.249359 0.097412 0.000000
0.302368 0.097229 0.000000
0.362366 0.096283 0.000000
0.421417 0.094513 0.000000
0.483978 0.094482 0.000000
0.546509 0.090485 0.000000
0.613373 0.085785 0.000000
0.677826 0.083252 0.000000
0.740875 0.078888 0.000000
0.805939 0.076752 0.000000
0.871826 0.074554 0.000000
0.934998 0.072266 0.000000
0.984558 0.069641 0.000000
1.000000 0.064178 0.000000
1.000000 0.058563 0.000000
1.000000 0.052399 0.000000
1.000000 0.050079 0.000000
1.000000 0.047821 0.000000
1.000000 0.045898 0.000000
1.000000 0.043854 0.000000
1.000000 0.041565 0.000000
1.000000 0.040344 0.000000
1.000000 0.040344 0.000000
1.000000 0.040344 0.000000
0.011047 0.117126 0.012146
0.010956 0.115875 0.011719
0.010834 0.114380 0.011200
0.010651 0.111664 0.010284
0.018127 0.109344 0.009583
0.048767 0.109009 0.007477
0.091492 0.113892 0.003662
0.141022 0.118622 0.000000
0.189514 0.122406 0.000000
0.239502 0.124878 0.000000
0.288940 0.125671 0.000000
0.348541 0.124664 0.000000
0.407104 0.121643 0.000000
0.468719 0.120178 0.000000
0.532379 0.117798 0.000000
0.596741 0.114288 0.000000
0.662415 0.112122 0.000000
0.725952 0.108856 0.000000
0.788849 0.107239 0.000000
0.856415 0.106079 0.000000
0.919800 0.104980 0.000000
0.978516 0.103485 0.000000
1.000000 0.098389 0.000000
1.000000 0.091614 0.000000
1.000000 0.084747 0.000000
1.000000 0.079803 0.000000
1.000000 0.076691 0.000000
1.000000 0.073944 0.000000
1.000000 0.071136 0.000000
1.000000 0.068268 0.000000
1.000000 0.065369 0.000000
1.000000 0.065216 0.000000
1.000000 0.065063 0.000000
0.013458 0.147003 0.022278
0.013306 0.145721 0.021851
0.013184 0.144409 0.021423
0.012939 0.141663 0.020508
0.012634 0.138641 0.019531
0.036011 0.135345 0.018402
0.076019 0.137268 0.013062
0.122406 0.141174 0.007385
0.176056 0.149414 0.000671
0.228424 0.152313 0.000031
0.278076 0.153961 0.000305
0.335175 0.152924 0.000092
0.394714 0.151825 0.000000
0.455017 0.149750 0.000000
0.517365 0.146729 0.000000
0.580780 0.144531 0.000000
0.646149 0.142853 0.000000
0.710907 0.140411 0.000000
0.774719 0.137756 0.000000
0.840088 0.136993 0.000000
0.904297 0.136169 0.000000
0.964844 0.135468 0.000000
1.000000 0.133026 0.000000
1.000000 0.126526 0.000000
1.000000 0.120209 0.000000
1.000000 0.114655 0.000000
1.000000 0.111908 0.000000
1.000000 0.109314 0.000000
1.000000 0.106720 0.000000
1.000000 0.103790 0.000000
1.000000 0.101105 0.000000
1.000000 0.100952 0.000000
1.000000 0.100830 0.000000
0.018433 0.176331 0.033142
0.018188 0.175232 0.032684
0.017944 0.174103 0.032227
0.017426 0.171906 0.031342
0.016846 0.169342 0.030304
0.029327 0.166321 0.029144
0.059662 0.164246 0.024658
0.104126 0.165222 0.017822
0.154602 0.171753 0.010651
0.214081 0.182312 0.002716
0.268585 0.184540 0.000977
0.321198 0.184479 0.002930
0.379517 0.183990 0.002167
0.439667 0.183838 0.000275
0.501343 0.181030 0.000000
0.564911 0.178284 0.000000
0.629608 0.176025 0.000000
0.695007 0.174652 0.000000
0.759094 0.172485 0.000000
0.825165 0.170746 0.000000
0.888306 0.171753 0.000000
0.951965 0.170837 0.000000
0.996368 0.168823 0.000000
1.000000 0.162872 0.000000
1.000000 0.156738 0.000000
1.000000 0.150787 0.000000
1.000000 0.148010 0.000000
1.000000 0.145386 0.000000
1.000000 0.142487 0.000000
1.000000 0.139832 0.000000
1.000000 0.137177 0.000000
1.000000 0.137024 0.000000
1.000000 0.136902 0.000000
0.026184 0.206451 0.044006
0.026031 0.205109 0.043701
0.025757 0.203888 0.043304
0.025085 0.201477 0.042450
0.024414 0.198944 0.041534
0.027130 0.195801 0.040405
0.042603 0.196167 0.039185
0.086914 0.192780 0.027100
0.130951 0.191895 0.022675
0.192017 0.204102 0.014587
0.253723 0.215454 0.004944
0.310608 0.217438 0.002747
0.366516 0.217041 0.005646
0.424377 0.217682 0.004852
0.484497 0.218262 0.000519
0.548065 0.215576 0.000000
0.613190 0.213135 0.000000
0.678467 0.210907 0.000000
0.742706 0.209564 0.000000
0.808655 0.207489 0.000000
0.872314 0.207336 0.000000
0.935516 0.206665 0.000000
0.991333 0.205566 0.000000
1.000000 0.199890 0.000000
1.000000 0.193329 0.000000
1.000000 0.186859 0.000000
1.000000 0.184082 0.000000
1.000000 0.181427 0.000000
1.000000 0.178528 0.000000
1.000000 0.175873 0.000000
1.000000 0.173218 0.000000
1.000000 0.173065 0.000000
1.000000 0.172943 0.000000
0.029236 0.243683 0.052063
0.029236 0.242249 0.051727
0.029236 0.240814 0.051422
0.029236 0.238190 0.050812
0.029236 0.235229 0.050140
0.029114 0.231384 0.049255
0.039948 0.228180 0.047272
0.067627 0.225952 0.039246
0.112427 0.222168 0.033325
0.166595 0.225616 0.025757
0.230896 0.237701 0.015045
0.296722 0.251495 0.007294
0.356537 0.254486 0.005585
0.412537 0.254608 0.005157
0.471069 0.254944 0.004181
0.530579 0.254761 0.001343
0.594666 0.252930 0.000000
0.661987 0.250854 0.000000
0.725647 0.248993 0.000000
0.791534 0.247009 0.000000
0.856140 0.246582 0.000000
0.919098 0.245422 0.000000
0.981689 0.245178 0.000000
0.999237 0.240906 0.000000
1.000000 0.234589 0.000000
1.000000 0.227661 0.000000
1.000000 0.224243 0.000000
1.000000 0.221344 0.000000
1.000000 0.218475 0.000000
1.000000 0.215332 0.000000
1.000000 0.212433 0.000000
1.000000 0.212250 0.000000
1.000000 0.212097 0.000000
0.025146 0.280457 0.058624
0.025421 0.279175 0.058441
0.025726 0.277679 0.058258
0.026245 0.275299 0.057953
0.026764 0.272919 0.057648
0.027435 0.269745 0.057220
0.032471 0.266144 0.054932
0.053925 0.262360 0.048859
0.088379 0.258423 0.042389
0.144623 0.257111 0.035675
0.205658 0.263367 0.026215
0.273956 0.276398 0.017273
0.340210 0.291321 0.008423
0.401611 0.295197 0.005676
0.458954 0.293640 0.003235
0.518341 0.293762 0.003296
0.576996 0.293182 0.002289
0.643433 0.291321 0.000000
0.708954 0.289825 0.000000
0.774109 0.288055 0.000000
0.838562 0.287262 0.000000
0.902435 0.285400 0.000000
0.965576 0.284576 0.000000
0.996033 0.280945 0.000000
1.000000 0.274750 0.000000
1.000000 0.268188 0.000000
1.000000 0.263977 0.000000
1.000000 0.261169 0.000000
1.000000 0.258362 0.000000
1.000000 0.255341 0.000000
1.000000 0.252563 0.000000
1.000000 0.252380 0.000000
1.000000 0.252228 0.000000
0.017212 0.317780 0.062775
0.017548 0.316467 0.062561
0.017853 0.315155 0.062347
0.018311 0.312958 0.062103
0.018890 0.310272 0.061829
0.019562 0.307037 0.061523
0.021790 0.303528 0.061157
0.040558 0.299591 0.060242
0.072510 0.295563 0.054260
0.121674 0.292053 0.048065
0.182922 0.294617 0.041168
0.245392 0.303345 0.029572
0.315643 0.317841 0.018707
0.384460 0.334106 0.007477
0.445465 0.337494 0.002838
0.505981 0.335754 0.000580
0.563019 0.334930 0.002350
0.625946 0.333588 0.000916
0.690704 0.333435 0.000000
0.755341 0.331177 0.000000
0.820648 0.329956 0.000000
0.883636 0.327881 0.000000
0.947998 0.326691 0.000000
0.992645 0.323853 0.000000
0.999573 0.317871 0.000000
1.000000 0.310852 0.000000
1.000000 0.306274 0.000000
1.000000 0.303070 0.000000
1.000000 0.300140 0.000000
1.000000 0.297241 0.000000
1.000000 0.294342 0.000000
1.000000 0.294189 0.000000
1.000000 0.294067 0.000000
0.007477 0.355652 0.068542
0.007904 0.354187 0.068329
0.008362 0.352539 0.068085
0.009003 0.350250 0.067780
0.009644 0.347961 0.067444
0.010590 0.344604 0.066986
0.011597 0.340820 0.066437
0.023712 0.337097 0.065857
0.054352 0.333282 0.062622
0.095276 0.328979 0.059753
0.155670 0.326813 0.053070
0.219543 0.332855 0.048096
0.285095 0.344940 0.032928
0.358276 0.358826 0.016266
0.426819 0.377197 0.004761
0.490326 0.381714 0.000458
0.550476 0.380127 0.000000
0.610260 0.377838 0.000000
0.673553 0.376801 0.000000
0.736542 0.376282 0.000000
0.800781 0.373932 0.000000
0.865540 0.372772 0.000000
0.929688 0.370148 0.000000
0.988800 0.367920 0.000000
0.997894 0.361908 0.000000
1.000000 0.354980 0.000000
1.000000 0.349640 0.000000
1.000000 0.346497 0.000000
1.000000 0.343384 0.000000
1.000000 0.340088 0.000000
1.000000 0.337097 0.000000
1.000000 0.336945 0.000000
1.000000 0.336792 0.000000
0.000305 0.398743 0.072418
0.000488 0.397186 0.072327
0.000641 0.395691 0.072205
0.000885 0.393555 0.072083
0.001129 0.391052 0.071930
0.001556 0.387238 0.071686
0.001953 0.383331 0.071442
0.002411 0.379089 0.071167
0.030090 0.374359 0.070953
0.065674 0.369812 0.065979
0.124817 0.367767 0.062988
0.191315 0.366577 0.054688
0.252960 0.371887 0.046021
0.326416 0.385315 0.031036
0.402435 0.402313 0.012817
0.470184 0.422119 0.002075
0.534119 0.426727 0.000000
0.594910 0.424591 0.000000
0.655823 0.421936 0.000000
0.719116 0.421539 0.000000
0.781158 0.420288 0.000000
0.846710 0.418365 0.000000
0.910309 0.416077 0.000000
0.975677 0.413177 0.000000
0.995636 0.408081 0.000000
1.000000 0.401367 0.000000
1.000000 0.395386 0.000000
1.000000 0.391998 0.000000
1.000000 0.388885 0.000000
1.000000 0.385834 0.000000
1.000000 0.382782 0.000000
1.000000 0.382629 0.000000
1.000000 0.382477 0.000000
0.000000 0.443420 0.076508
0.000000 0.441742 0.076202
0.000000 0.440094 0.075897
0.000000 0.437775 0.075470
0.000000 0.435303 0.075012
0.000000 0.431519 0.074463
0.000000 0.427734 0.074219
0.000000 0.423309 0.073944
0.005493 0.419006 0.074768
0.040527 0.413666 0.072632
0.090668 0.409027 0.071503
0.160278 0.408569 0.065277
0.225830 0.409576 0.056976
0.293884 0.412506 0.044067
0.372559 0.431549 0.027405
0.449036 0.449799 0.008545
0.514709 0.468475 0.000000
0.578247 0.472168 0.000000
0.639252 0.469757 0.000000
0.702057 0.467255 0.000000
0.763855 0.466248 0.000000
0.827698 0.464050 0.000000
0.891022 0.462372 0.000000
0.956482 0.458832 0.000000
0.992676 0.453949 0.000000
1.000000 0.447784 0.000000
1.000000 0.441101 0.000000
1.000000 0.437958 0.000000
1.000000 0.434845 0.000000
1.000000 0.431732 0.000000
1.000000 0.428406 0.000000
1.000000 0.428253 0.000000
1.000000 0.428101 0.000000
0.000000 0.492767 0.086090
0.000000 0.491089 0.085754
0.000000 0.489319 0.085388
0.000000 0.487183 0.084961
0.000000 0.484558 0.084442
0.000000 0.480682 0.083649
0.000000 0.476562 0.082825
0.000000 0.471680 0.081818
0.000000 0.466858 0.080841
0.009216 0.460358 0.081146
0.054474 0.453094 0.077942
0.119232 0.452332 0.073456
0.194702 0.453217 0.068665
0.265533 0.455505 0.057220
0.338165 0.457275 0.043121
0.418610 0.477997 0.017944
0.494415 0.498108 0.002411
0.558838 0.514465 0.000000
0.620636 0.519897 0.000000
0.684235 0.516754 0.000000
0.746094 0.513824 0.000000
0.808655 0.511627 0.000000
0.871735 0.509338 0.000000
0.936707 0.506226 0.000000
0.987183 0.501099 0.000000
1.000000 0.495209 0.000000
1.000000 0.488129 0.000000
1.000000 0.484650 0.000000
1.000000 0.481476 0.000000
1.000000 0.478210 0.000000
1.000000 0.475128 0.000000
1.000000 0.474945 0.000000
1.000000 0.474792 0.000000
0.000000 0.544495 0.090546
0.000000 0.542786 0.090546
0.000000 0.541077 0.090546
0.000000 0.538818 0.090546
0.000000 0.536469 0.090546
0.000000 0.532532 0.090271
0.000000 0.528564 0.089935
0.000000 0.523499 0.089508
0.000000 0.518585 0.089111
0.000000 0.513306 0.088684
0.011566 0.504150 0.084015
0.072906 0.499420 0.081787
0.155426 0.500732 0.076721
0.233368 0.502716 0.067657
0.305023 0.502258 0.055603
0.386566 0.509949 0.034973
0.465485 0.529266 0.009613
0.540924 0.546509 0.000000
0.601715 0.561188 0.000000
0.664703 0.566925 0.000000
0.727112 0.562744 0.000000
0.789703 0.560181 0.000000
0.852783 0.556885 0.000000
0.917145 0.553314 0.000000
0.976196 0.548798 0.000000
1.000000 0.543335 0.000000
1.000000 0.536377 0.000000
1.000000 0.532288 0.000000
1.000000 0.528839 0.000000
1.000000 0.525726 0.000000
1.000000 0.522644 0.000000
1.000000 0.522491 0.000000
1.000000 0.522339 0.000000
0.000000 0.596771 0.090546
0.000000 0.594971 0.090546
0.000000 0.593140 0.090546
0.000000 0.590881 0.090546
0.000000 0.588318 0.090546
0.000000 0.584717 0.090546
0.000000 0.580780 0.090546
0.000000 0.575775 0.090546
0.000000 0.570953 0.090546
0.000000 0.565918 0.090546
0.000000 0.560425 0.086395
0.016052 0.556915 0.085175
0.098053 0.552032 0.081848
0.192596 0.553253 0.072266
0.270660 0.555084 0.063812
0.351990 0.555756 0.049927
0.432556 0.565643 0.024109
0.515198 0.584015 0.000000
0.586700 0.598877 0.000000
0.646362 0.610107 0.000000
0.706421 0.614044 0.000000
0.769379 0.609680 0.000000
0.833008 0.606201 0.000000
0.897461 0.601654 0.000000
0.961639 0.597076 0.000000
0.998108 0.591492 0.000000
1.000000 0.584686 0.000000
1.000000 0.580017 0.000000
1.000000 0.576630 0.000000
1.000000 0.573547 0.000000
1.000000 0.570465 0.000000
1.000000 0.570343 0.000000
1.000000 0.570190 0.000000
0.000000 0.649323 0.090546
0.000000 0.647400 0.090546
0.000000 0.645447 0.090546
0.000000 0.643005 0.090546
0.000000 0.640289 0.090546
0.000000 0.636871 0.090546
0.000000 0.633484 0.090546
0.000000 0.629089 0.090546
0.000000 0.624268 0.090546
0.000000 0.619293 0.090027
0.000000 0.615845 0.088531
0.000000 0.612366 0.081543
0.029144 0.607178 0.081787
0.140503 0.603729 0.076294
0.232147 0.605408 0.066772
0.316406 0.603119 0.056427
0.400665 0.605804 0.039062
0.483032 0.620056 0.011719
0.563232 0.636993 0.000000
0.632874 0.648499 0.000000
0.689087 0.657318 0.000000
0.748505 0.660919 0.000000
0.812469 0.656006 0.000000
0.877136 0.651398 0.000000
0.942047 0.645874 0.000000
0.994324 0.639984 0.000000
1.000000 0.633209 0.000000
1.000000 0.627930 0.000000
1.000000 0.624512 0.000000
1.000000 0.621429 0.000000
1.000000 0.618408 0.000000
1.000000 0.618286 0.000000
1.000000 0.618073 0.000000
0.000000 0.712494 0.091156
0.000000 0.710297 0.091125
0.000000 0.708069 0.091095
0.000000 0.705261 0.091034
0.000000 0.702484 0.090973
0.000000 0.698181 0.090881
0.000000 0.693817 0.090820
0.000000 0.688293 0.090698
0.000000 0.682098 0.090607
0.000000 0.676178 0.090546
0.000000 0.670593 0.086365
0.000000 0.667389 0.082275
0.000000 0.659729 0.081482
0.073700 0.655212 0.081299
0.186432 0.654938 0.071075
0.281006 0.655029 0.061493
0.369415 0.655121 0.047760
0.452972 0.658295 0.028076
0.536652 0.674072 0.001495
0.614349 0.688293 0.000000
0.677673 0.697754 0.000000
0.730835 0.704865 0.000000
0.790436 0.708252 0.000000
0.855591 0.702637 0.000000
0.921265 0.696838 0.000000
0.987579 0.690155 0.000000
0.999725 0.683228 0.000000
1.000000 0.677338 0.000000
1.000000 0.674103 0.000000
1.000000 0.670715 0.000000
1.000000 0.667603 0.000000
1.000000 0.667419 0.000000
1.000000 0.667267 0.000000
0.000000 0.770905 0.098663
0.000000 0.768799 0.098145
0.000000 0.766937 0.097687
0.000000 0.764618 0.097107
0.000000 0.762268 0.096527
0.000000 0.758972 0.095947
0.000000 0.755371 0.095490
0.000000 0.750824 0.094879
0.000000 0.745880 0.094238
0.000000 0.740326 0.093536
0.000000 0.734985 0.092834
0.000000 0.728912 0.088745
0.000000 0.723114 0.083557
0.015686 0.715973 0.082245
0.134491 0.712952 0.077850
0.243866 0.709961 0.066895
0.335938 0.709045 0.057068
0.424225 0.710510 0.041473
0.507507 0.711243 0.013062
0.589050 0.728394 0.000000
0.661682 0.736725 0.000000
0.720734 0.745422 0.000000
0.773590 0.751373 0.000000
0.834076 0.753326 0.000000
0.900085 0.746887 0.000000
0.967163 0.740051 0.000000
0.997345 0.733398 0.000000
1.000000 0.726685 0.000000
1.000000 0.723389 0.000000
1.000000 0.720032 0.000000
1.000000 0.716888 0.000000
1.000000 0.716736 0.000000
1.000000 0.716553 0.000000
0.006073 0.828461 0.115875
0.005707 0.826630 0.115234
0.005341 0.824768 0.114594
0.004822 0.822205 0.113708
0.004364 0.819794 0.112885
0.003754 0.816864 0.111877
0.003113 0.813507 0.110718
0.002167 0.808838 0.109100
0.001190 0.803986 0.107422
0.000153 0.798676 0.105591
0.000000 0.793091 0.104126
0.000000 0.784210 0.099335
0.000000 0.780548 0.096527
0.019470 0.775391 0.091309
0.098541 0.769653 0.086273
0.207031 0.767395 0.078156
0.305084 0.763824 0.070190
0.397675 0.762604 0.057831
0.480621 0.762329 0.037018
0.565796 0.769470 0.009857
0.639862 0.779175 0.000000
0.708527 0.786713 0.000000
0.765045 0.792297 0.000000
0.818420 0.796600 0.000000
0.878326 0.797577 0.000000
0.945557 0.791046 0.000000
0.993317 0.784241 0.000000
0.999756 0.777313 0.000000
1.000000 0.773743 0.000000
1.000000 0.770599 0.000000
1.000000 0.767456 0.000000
1.000000 0.767334 0.000000
1.000000 0.767120 0.000000
0.081940 0.886230 0.141296
0.077728 0.884338 0.139984
0.073517 0.882446 0.138702
0.068329 0.880127 0.137085
0.062927 0.877686 0.135437
0.055786 0.874481 0.133209
0.050049 0.871521 0.131439
0.044861 0.867065 0.129822
0.039062 0.862122 0.128021
0.032867 0.856842 0.126099
0.026520 0.851410 0.124115
0.023743 0.844940 0.121338
0.033417 0.836487 0.115753
0.056610 0.833405 0.109253
0.113831 0.827484 0.102844
0.193420 0.820862 0.095947
0.283508 0.816467 0.087433
0.380249 0.813049 0.074371
0.462891 0.812988 0.060883
0.547058 0.813904 0.041260
0.623108 0.817780 0.013306
0.693695 0.826233 0.000000
0.755920 0.833923 0.000000
0.812927 0.839142 0.000000
0.863708 0.841919 0.000000
0.923767 0.841919 0.000000
0.988525 0.835144 0.000000
0.998138 0.828461 0.000000
1.000000 0.824066 0.000000
1.000000 0.820892 0.000000
1.000000 0.817688 0.000000
1.000000 0.817566 0.000000
1.000000 0.817413 0.000000
0.220215 0.945007 0.181702
0.215759 0.943176 0.180450
0.211243 0.941315 0.179169
0.204773 0.938660 0.177368
0.199097 0.936340 0.175751
0.192719 0.933716 0.173950
0.185516 0.930756 0.171936
0.174164 0.926086 0.168732
0.162720 0.921387 0.165497
0.150299 0.916290 0.161987
0.136719 0.910706 0.158142
0.123932 0.905090 0.154266
0.128815 0.899231 0.150238
0.152069 0.893219 0.144409
0.183319 0.886902 0.136078
0.229858 0.880676 0.125549
0.290955 0.874054 0.113007
0.376434 0.873688 0.104980
0.459198 0.868439 0.093384
0.541718 0.866364 0.078552
0.617584 0.865417 0.057556
0.687744 0.866547 0.022369
0.751556 0.875336 0.000000
0.808594 0.880768 0.000000
0.862396 0.884583 0.000000
0.909302 0.887024 0.000000
0.968811 0.886963 0.000000
0.994904 0.880066 0.000000
1.000000 0.875275 0.000000
1.000000 0.872101 0.000000
1.000000 0.868713 0.000000
1.000000 0.868500 0.000000
1.000000 0.868347 0.000000
0.224030 0.946564 0.182800
0.223938 0.946533 0.182770
0.223938 0.946533 0.182770
0.223846 0.946503 0.182739
0.223846 0.946503 0.182739
0.223846 0.946503 0.182739
0.223755 0.946472 0.182709
0.222778 0.946075 0.182434
0.219666 0.944794 0.181549
0.215851 0.943237 0.180481
0.212921 0.942017 0.179657
0.206024 0.939178 0.177704
0.205444 0.936981 0.176208
0.220673 0.934753 0.177704
0.246796 0.931458 0.174683
0.276459 0.928162 0.163910
0.321625 0.924561 0.156433
0.388306 0.923157 0.149689
0.469299 0.924316 0.141174
0.541748 0.920013 0.126648
0.618835 0.918182 0.111389
0.690674 0.917084 0.088287
0.756134 0.919342 0.051910
0.811371 0.926331 0.007751
0.864838 0.929413 0.000488
0.912415 0.931946 0.000000
0.954102 0.931793 0.001587
0.991882 0.931580 0.000000
