ml_luts/cinematic_teal__lut3d_33.cube
# META ml: transfer aesthetic
# META author: jlxD
LUT_3D_SIZE 5
0.000000 0.000000 0.000000
0.261139 0.033478 0.000000
0.746246 0.032166 0.000000
1.000000 0.040344 0.000000
1.000000 0.040344 0.000000
0.013458 0.147003 0.022278
0.176056 0.149414 0.000671
0.646149 0.142853 0.000000
1.000000 0.120209 0.000000
1.000000 0.100830 0.000000
0.000000 0.443420 0.076508
0.005493 0.419006 0.074768
0.514709 0.468475 0.000000
0.992676 0.453949 0.000000
1.000000 0.428101 0.000000
0.081940 0.886230 0.141296
0.039062 0.862122 0.128021
0.283508 0.816467 0.087433
0.863708 0.841919 0.000000
1.000000 0.817413 0.000000
0.224731 0.946869 0.182983
0.224731 0.946869 0.182983
0.301605 0.946838 0.179749
0.835968 0.975067 0.078735
1.000000 1.000000 0.011108
0.000000 0.149139 0.299316
0.247589 0.086121 0.302429
0.739105 0.038116 0.224762
1.000000 0.041046 0.165436
1.000000 0.041077 0.140869
0.009644 0.180817 0.190063
0.151825 0.155151 0.172638
0.639130 0.137817 0.122620
1.000000 0.112671 0.058258
1.000000 0.093933 0.038605
0.000000 0.437958 0.099030
0.007507 0.411163 0.085327
0.506378 0.459839 0.000061
0.991180 0.446808 0.000000
1.000000 0.420898 0.000000
0.063568 0.877960 0.135620
0.029877 0.854309 0.125183
0.269592 0.809357 0.085663
0.857391 0.835602 0.000000
1.000000 0.811005 0.000000
0.224731 0.946869 0.182983
0.224731 0.946869 0.182983
0.298004 0.946838 0.180695
0.830719 0.974487 0.082489
1.000000 1.000000 0.011108
0.000000 0.498627 0.811462
0.000000 0.433014 0.800385
0.781403 0.329834 0.823669
1.000000 0.255127 0.734070
1.000000 0.227386 0.708954
0.000000 0.448425 0.724304
0.000000 0.407959 0.706635
0.672546 0.278931 0.740601
1.000000 0.192291 0.623718
1.000000 0.156952 0.595490
0.000519 0.552429 0.608490
0.000000 0.523285 0.584686
0.478973 0.485962 0.577545
0.986633 0.436768 0.445770
1.000000 0.409271 0.414429
0.098114 0.872375 0.437927
0.056274 0.847900 0.414337
0.233887 0.807190 0.349274
0.842224 0.822418 0.264099
1.000000 0.796875 0.224457
0.220276 0.946838 0.345734
0.220276 0.946838 0.323364
0.286346 0.946198 0.277985
0.812256 0.968872 0.181458
1.000000 1.000000 0.093872
0.335175 0.767578 0.976379
0.450500 0.766998 0.980255
0.729828 0.697601 0.994049
1.000000 0.729187 1.000000
1.000000 0.729187 1.000000
0.372040 0.784302 0.971985
0.404358 0.780396 0.973145
0.630310 0.703552 0.990631
1.000000 0.729187 1.000000
1.000000 0.728973 0.999969
0.369415 0.874176 0.976379
0.360443 0.865417 0.973633
0.574890 0.820312 0.970245
0.981384 0.750885 0.985596
1.000000 0.686157 0.972595
0.386200 0.950378 0.919403
0.356415 0.932709 0.903717
0.409149 0.889496 0.873566
0.829285 0.859222 0.876678
1.000000 0.801605 0.812256
0.418884 0.977386 0.840149
0.398682 0.976837 0.826050
0.383362 0.972626 0.787964
0.683624 0.971405 0.737793
1.000000 0.994080 0.687195
0.335175 0.767578 0.976379
0.448517 0.767883 0.980011
0.722443 0.696960 0.994049
1.000000 0.729187 1.000000
1.000000 0.729187 1.000000
0.370850 0.783356 0.971985
0.400635 0.779510 0.972015
0.622772 0.703552 0.990387
1.000000 0.729187 1.000000
1.000000 0.729187 1.000000
0.367737 0.871704 0.975891
0.363220 0.864136 0.974304
0.585480 0.830475 0.979248
0.972290 0.779694 0.998474
1.000000 0.778381 0.998474
0.513855 0.989624 0.989655
0.506104 0.984283 0.989655
0.535248 0.961487 0.985199
0.833038 0.926971 0.987732
0.994354 0.908295 0.998474
0.573456 1.000000 0.989655
0.573456 1.000000 0.989655
0.586060 1.000000 0.985260
0.794739 1.000000 0.994019
0.998993 0.998016 0.998474
