ml_luts/cinematic_teal__lut3d_33.cube
# META ml: transfer aesthetic
# META author: jlxD
LUT_3D_SIZE 9
0.000000 0.000000 0.000000
0.090088 0.005920 0.000000
0.261139 0.033478 0.000000
0.494202 0.037415 0.000000
0.746246 0.032166 0.000000
0.984070 0.040741 0.000000
1.000000 0.040344 0.000000
1.000000 0.040344 0.000000
1.000000 0.040344 0.000000
0.000000 0.048035 0.000000
0.054504 0.046478 0.000000
0.222046 0.052856 0.000000
0.448730 0.050446 0.000000
0.706177 0.032135 0.000000
0.962036 0.039673 0.000000
1.000000 0.040344 0.000000
1.000000 0.040344 0.000000
1.000000 0.040344 0.000000
0.013458 0.147003 0.022278
0.012634 0.138641 0.019531
0.176056 0.149414 0.000671
0.394714 0.151825 0.000000
0.646149 0.142853 0.000000
0.904297 0.136169 0.000000
1.000000 0.120209 0.000000
1.000000 0.106720 0.000000
1.000000 0.100830 0.000000
0.025146 0.280457 0.058624
0.026764 0.272919 0.057648
0.088379 0.258423 0.042389
0.340210 0.291321 0.008423
0.576996 0.293182 0.002289
0.838562 0.287262 0.000000
1.000000 0.274750 0.000000
1.000000 0.258362 0.000000
1.000000 0.252228 0.000000
0.000000 0.443420 0.076508
0.000000 0.435303 0.075012
0.005493 0.419006 0.074768
0.225830 0.409576 0.056976
0.514709 0.468475 0.000000
0.763855 0.466248 0.000000
0.992676 0.453949 0.000000
1.000000 0.434845 0.000000
1.000000 0.428101 0.000000
0.000000 0.649323 0.090546
0.000000 0.640289 0.090546
0.000000 0.624268 0.090546
0.029144 0.607178 0.081787
0.400665 0.605804 0.039062
0.689087 0.657318 0.000000
0.942047 0.645874 0.000000
1.000000 0.624512 0.000000
1.000000 0.618073 0.000000
0.081940 0.886230 0.141296
0.062927 0.877686 0.135437
0.039062 0.862122 0.128021
0.033417 0.836487 0.115753
0.283508 0.816467 0.087433
0.623108 0.817780 0.013306
0.863708 0.841919 0.000000
1.000000 0.824066 0.000000
1.000000 0.817413 0.000000
0.224731 0.946869 0.182983
0.224731 0.946869 0.182983
0.224731 0.946869 0.182983
0.224731 0.946869 0.182983
0.315765 0.946838 0.175842
0.592682 0.955414 0.154602
0.855988 0.977448 0.064240
1.000000 1.000000 0.011108
1.000000 0.997223 0.009735
0.224731 0.946869 0.182983
0.224731 0.946869 0.182983
0.224731 0.946869 0.182983
0.224731 0.946869 0.182983
0.301605 0.946838 0.179749
0.561920 0.955444 0.159882
0.835968 0.975067 0.078735
0.996826 0.999817 0.017365
1.000000 1.000000 0.011108
0.000000 0.050171 0.086456
0.082062 0.025452 0.089905
0.258972 0.031128 0.065186
0.491760 0.040009 0.043213
0.741760 0.032379 0.011536
0.982544 0.040680 0.000000
1.000000 0.040344 0.000000
1.000000 0.040344 0.000000
1.000000 0.040344 0.000000
0.000000 0.060608 0.056641
0.048737 0.050232 0.050385
0.220673 0.054169 0.029358
0.444550 0.048676 0.007446
0.702362 0.032135 0.000000
0.959045 0.039520 0.000000
1.000000 0.040344 0.000000
1.000000 0.040344 0.000000
1.000000 0.040344 0.000000
0.014618 0.144287 0.024139
0.012390 0.135986 0.018646
0.172485 0.146271 0.000580
0.390900 0.149323 0.000000
0.642456 0.140045 0.000000
0.901398 0.133331 0.000000
1.000000 0.117676 0.000000
1.000000 0.104126 0.000000
1.000000 0.098572 0.000000
0.025726 0.277679 0.058258
0.027252 0.270569 0.057343
0.085754 0.255798 0.042053
0.337158 0.288422 0.008453
0.574127 0.290680 0.002289
0.836151 0.284790 0.000000
1.000000 0.272644 0.000000
1.000000 0.256073 0.000000
1.000000 0.250000 0.000000
0.000000 0.440643 0.076019
0.000000 0.432678 0.074554
0.005005 0.416718 0.074280
0.223480 0.407104 0.056793
0.511932 0.465607 0.000000
0.761414 0.463470 0.000000
0.992157 0.451630 0.000000
1.000000 0.432343 0.000000
1.000000 0.425598 0.000000
0.000000 0.646423 0.090546
0.000000 0.637665 0.090546
0.000000 0.621796 0.090546
0.027954 0.604584 0.082001
0.397614 0.602722 0.039551
0.686798 0.654724 0.000000
0.939880 0.643463 0.000000
1.000000 0.622040 0.000000
1.000000 0.615601 0.000000
0.075531 0.883362 0.139313
0.055878 0.874512 0.133240
0.035583 0.859161 0.126953
0.027954 0.833527 0.114746
0.278351 0.813873 0.086792
0.620148 0.815277 0.013092
0.861053 0.839264 0.000000
1.000000 0.821594 0.000000
1.000000 0.814911 0.000000
0.224731 0.946869 0.182983
0.224731 0.946869 0.182983
0.224731 0.946869 0.182983
0.224731 0.946869 0.182983
0.314240 0.946838 0.176239
0.589355 0.955414 0.155182
0.853943 0.977173 0.065826
0.999817 0.999390 0.011017
1.000000 0.995636 0.008972
0.224731 0.946869 0.182983
0.224731 0.946869 0.182983
0.224731 0.946869 0.182983
0.224731 0.946869 0.182983
0.300140 0.946838 0.180115
0.558594 0.955444 0.160461
0.833557 0.974792 0.080475
0.996460 0.999786 0.018097
1.000000 1.000000 0.011108
0.000000 0.149139 0.299316
0.000000 0.119995 0.292816
0.247589 0.086121 0.302429
0.496277 0.058411 0.257538
0.739105 0.038116 0.224762
0.981232 0.042175 0.198761
1.000000 0.041046 0.165436
1.000000 0.041046 0.149414
1.000000 0.041077 0.140869
0.000000 0.145142 0.245880
0.000000 0.132050 0.233154
0.209595 0.084869 0.244293
0.449493 0.055450 0.209839
0.700256 0.037537 0.184265
0.954834 0.041138 0.158905
1.000000 0.041138 0.125916
1.000000 0.041229 0.110199
1.000000 0.041260 0.103027
0.009644 0.180817 0.190063
0.008911 0.171143 0.178223
0.151825 0.155151 0.172638
0.388641 0.150604 0.150391
0.639130 0.137817 0.122620
0.895538 0.128998 0.089294
1.000000 0.112671 0.058258
1.000000 0.099304 0.044250
1.000000 0.093933 0.038605
0.062531 0.283844 0.144440
0.059326 0.275421 0.134766
0.095795 0.258728 0.113525
0.328735 0.284210 0.088074
0.571167 0.285706 0.063934
0.830627 0.278809 0.019104
0.999756 0.267212 0.002136
1.000000 0.250763 0.000000
1.000000 0.245026 0.000000
0.000000 0.437958 0.099030
0.000000 0.429779 0.095123
0.007507 0.411163 0.085327
0.217712 0.401367 0.057800
0.506378 0.459839 0.000061
0.756470 0.458008 0.000000
0.991180 0.446808 0.000000
1.000000 0.427277 0.000000
1.000000 0.420898 0.000000
0.000000 0.639862 0.090546
0.000000 0.632263 0.090546
0.000000 0.616669 0.090546
0.025360 0.599304 0.082458
0.391327 0.597198 0.040680
0.682617 0.649963 0.000000
0.935547 0.639160 0.000000
1.000000 0.617889 0.000000
1.000000 0.611298 0.000000
0.063568 0.877960 0.135620
0.047546 0.869354 0.130646
0.029877 0.854309 0.125183
0.021729 0.828278 0.112946
0.269592 0.809357 0.085663
0.615204 0.811096 0.012726
0.857391 0.835602 0.000000
1.000000 0.817871 0.000000
1.000000 0.811005 0.000000
0.224731 0.946869 0.182983
0.224731 0.946869 0.182983
0.224731 0.946869 0.182983
0.224731 0.946869 0.182983
0.311859 0.946838 0.176910
0.584442 0.955414 0.156036
0.850922 0.976776 0.068085
0.999207 0.997437 0.010681
1.000000 0.993896 0.008118
0.224731 0.946869 0.182983
0.224731 0.946869 0.182983
0.224731 0.946869 0.182983
0.224731 0.946869 0.182983
0.298004 0.946838 0.180695
0.554138 0.955261 0.161285
0.830719 0.974487 0.082489
0.995972 0.999756 0.019043
1.000000 1.000000 0.011108
0.000000 0.285126 0.574005
0.000000 0.271545 0.568542
0.009979 0.207916 0.573273
0.502167 0.168182 0.600494
0.754364 0.137848 0.531036
0.977051 0.065033 0.458984
1.000000 0.057526 0.425446
1.000000 0.054596 0.408691
1.000000 0.053375 0.400299
0.000000 0.271240 0.526642
0.000000 0.258453 0.519135
0.000153 0.195312 0.522217
0.448853 0.149292 0.549652
0.714935 0.116852 0.487030
0.949768 0.055389 0.417023
1.000000 0.051392 0.386749
1.000000 0.049133 0.370819
1.000000 0.048370 0.363007
0.000000 0.287689 0.455658
0.000000 0.277832 0.443604
0.015625 0.247589 0.439667
0.371765 0.192078 0.464813
0.646973 0.160889 0.401917
0.891388 0.128662 0.351532
1.000000 0.108429 0.320465
1.000000 0.093811 0.302734
1.000000 0.088135 0.295532
0.000000 0.338684 0.397308
0.000000 0.328522 0.385223
0.064636 0.313232 0.366577
0.297882 0.294678 0.367523
0.569489 0.288055 0.315613
0.824860 0.277191 0.278351
0.999634 0.262726 0.246704
1.000000 0.245789 0.225983
1.000000 0.239655 0.218567
0.107819 0.475586 0.337860
0.105469 0.466736 0.327606
0.105286 0.445526 0.302216
0.214874 0.424835 0.272919
0.499115 0.455017 0.232971
0.749786 0.453888 0.204132
0.989594 0.440338 0.167572
1.000000 0.420563 0.141754
1.000000 0.413971 0.133636
0.000000 0.652374 0.238647
0.000000 0.643555 0.230255
0.000000 0.626038 0.212158
0.059570 0.601166 0.187073
0.374023 0.594482 0.147919
0.676025 0.643219 0.106750
0.929108 0.632355 0.077332
1.000000 0.611084 0.049500
1.000000 0.604736 0.042358
0.054901 0.872528 0.187439
0.043854 0.862915 0.180115
0.025024 0.846619 0.166351
0.016785 0.824585 0.143616
0.252319 0.802643 0.100891
0.605560 0.803497 0.022583
0.850830 0.829041 0.000000
1.000000 0.811279 0.000000
1.000000 0.804626 0.000000
0.224731 0.946838 0.193237
0.224731 0.946838 0.190277
0.224731 0.946869 0.184937
0.224731 0.946869 0.182983
0.307953 0.946838 0.177979
0.576294 0.955414 0.157410
0.845703 0.976196 0.071777
0.998444 0.994904 0.010223
1.000000 0.991730 0.007050
0.224731 0.946869 0.183136
0.224731 0.946869 0.182983
0.224731 0.946869 0.182983
0.224731 0.946869 0.182983
0.294281 0.946838 0.181671
0.546570 0.954834 0.162781
0.825531 0.973694 0.085999
0.995300 0.999725 0.020386
1.000000 1.000000 0.011108
0.000000 0.498627 0.811462
0.000000 0.483215 0.806976
0.000000 0.433014 0.800385
0.338196 0.350464 0.810699
0.781403 0.329834 0.823669
0.963257 0.297394 0.765533
1.000000 0.255127 0.734070
1.000000 0.237305 0.718018
1.000000 0.227386 0.708954
0.000000 0.462158 0.783081
0.000000 0.448059 0.770508
0.000000 0.407959 0.763367
0.256897 0.320496 0.776459
0.742035 0.292572 0.793091
0.939362 0.270172 0.734009
1.000000 0.213043 0.695831
1.000000 0.195343 0.678619
1.000000 0.187134 0.670044
0.000000 0.448425 0.724304
0.000000 0.436035 0.715332
0.000000 0.407959 0.706635
0.150574 0.321259 0.717743
0.672546 0.278931 0.740601
0.890045 0.273499 0.675354
1.000000 0.192291 0.623718
1.000000 0.166718 0.603607
1.000000 0.156952 0.595490
0.000000 0.475159 0.652924
0.000000 0.465271 0.644440
0.000000 0.445679 0.633240
0.205353 0.412750 0.636169
0.578857 0.351654 0.667175
0.824768 0.330566 0.590393
0.999298 0.272247 0.532135
1.000000 0.251495 0.509766
1.000000 0.244629 0.502167
0.000519 0.552429 0.608490
0.000336 0.543762 0.601440
0.000000 0.523285 0.584686
0.195496 0.500885 0.573090
0.478973 0.485962 0.577545
0.744019 0.457703 0.494385
0.986633 0.436768 0.445770
1.000000 0.416107 0.421844
1.000000 0.409271 0.414429
0.081299 0.696411 0.527985
0.078949 0.688477 0.520691
0.074860 0.671967 0.505615
0.165161 0.647827 0.490875
0.355042 0.622955 0.463287
0.668610 0.639038 0.402191
0.920929 0.626160 0.357483
1.000000 0.604309 0.330994
1.000000 0.597748 0.324554
0.098114 0.872375 0.437927
0.082855 0.863434 0.429382
0.056274 0.847900 0.414337
0.035492 0.830444 0.389893
0.233887 0.807190 0.349274
0.570709 0.795166 0.312317
0.842224 0.822418 0.264099
1.000000 0.803711 0.231506
1.000000 0.796875 0.224457
0.221375 0.947876 0.373810
0.220520 0.947052 0.365082
0.220276 0.946838 0.350922
0.220276 0.946838 0.327423
0.302734 0.947113 0.301971
0.546600 0.954956 0.263000
0.830872 0.971588 0.198212
0.997589 0.992065 0.136688
1.000000 0.988983 0.124268
0.220276 0.946838 0.345734
0.220276 0.946838 0.336212
0.220276 0.946838 0.323364
0.220276 0.946838 0.302734
0.286346 0.946198 0.277985
0.517395 0.953949 0.243896
0.812256 0.968872 0.181458
0.993896 0.999451 0.111145
1.000000 1.000000 0.093872
0.317749 0.763306 0.973938
0.343750 0.763855 0.973846
0.416901 0.747925 0.972015
0.491913 0.683838 0.973450
0.730530 0.647217 0.979309
0.983246 0.654724 0.985168
1.000000 0.553070 0.964722
1.000000 0.526917 0.955536
1.000000 0.515259 0.949646
0.291351 0.756836 0.969727
0.276031 0.745941 0.964722
0.360077 0.732269 0.960114
0.434692 0.665436 0.959778
0.682007 0.605499 0.965637
0.963898 0.606293 0.966522
1.000000 0.499451 0.941620
1.000000 0.476929 0.930115
1.000000 0.468170 0.923737
0.167114 0.727478 0.940491
0.127197 0.714264 0.935455
0.159882 0.681610 0.920380
0.311554 0.615265 0.916290
0.584259 0.529266 0.919891
0.917114 0.532349 0.928680
0.998444 0.446625 0.891785
0.997650 0.423523 0.877014
0.997406 0.414398 0.871002
0.013977 0.694519 0.878723
0.000000 0.682648 0.872650
0.000000 0.654388 0.860443
0.226227 0.621277 0.853210
0.475800 0.525238 0.862244
0.845215 0.515991 0.878235
0.993469 0.465515 0.830170
0.997498 0.442596 0.815186
0.997955 0.434418 0.809296
0.000000 0.705353 0.819122
0.000000 0.695892 0.812378
0.000000 0.674469 0.797119
0.098114 0.648132 0.784393
0.433441 0.615051 0.787323
0.756195 0.575562 0.814850
0.973083 0.520935 0.754181
1.000000 0.481079 0.727264
1.000000 0.471924 0.719910
0.098694 0.760315 0.774292
0.082855 0.752960 0.768829
0.060822 0.738281 0.757507
0.145020 0.720825 0.737457
0.393494 0.699188 0.732483
0.659210 0.690186 0.747498
0.905396 0.634430 0.654114
1.000000 0.606018 0.618286
1.000000 0.598969 0.611237
0.240845 0.891541 0.700714
0.233185 0.883026 0.693542
0.219635 0.869629 0.681244
0.206848 0.851593 0.663391
0.341064 0.831024 0.652252
0.523987 0.804749 0.624146
0.835083 0.814423 0.568176
1.000000 0.795776 0.523468
1.000000 0.789154 0.515991
0.266785 0.959656 0.641876
0.265533 0.959656 0.633423
0.263672 0.959656 0.621033
0.258209 0.958740 0.599243
0.309357 0.957123 0.568726
0.479462 0.959564 0.524170
0.794373 0.967133 0.490845
0.996643 0.988434 0.429108
1.000000 0.985199 0.416138
0.262970 0.959656 0.616364
0.260529 0.959229 0.606964
0.256531 0.958405 0.593658
0.249207 0.957001 0.571106
0.285004 0.955414 0.541504
0.457611 0.958008 0.498016
0.771729 0.968231 0.463898
0.989746 0.999329 0.402802
1.000000 1.000000 0.385803
0.335175 0.767578 0.976379
0.366455 0.771545 0.979858
0.450500 0.766998 0.980255
0.527527 0.724426 0.985657
0.729828 0.697601 0.994049
0.974792 0.708862 1.000000
1.000000 0.729187 1.000000
1.000000 0.729187 1.000000
1.000000 0.729187 1.000000
0.349396 0.772247 0.977020
0.346893 0.767548 0.976349
0.434235 0.771332 0.976990
0.511047 0.735077 0.985229
0.693573 0.695496 0.994049
0.938416 0.707733 1.000000
1.000000 0.729187 1.000000
1.000000 0.729187 1.000000
1.000000 0.729187 1.000000
0.372040 0.784302 0.971985
0.370056 0.783020 0.971985
0.404358 0.780396 0.973145
0.502533 0.758087 0.980865
0.630310 0.703552 0.990631
0.886566 0.706421 0.998474
1.000000 0.729187 1.000000
1.000000 0.729187 1.000000
1.000000 0.728973 0.999969
0.372528 0.822235 0.971985
0.373199 0.820831 0.971985
0.389801 0.812347 0.973602
0.495544 0.802734 0.976379
0.596954 0.754242 0.985962
0.813507 0.729736 0.998169
0.998779 0.746246 0.998627
1.000000 0.727386 0.996735
1.000000 0.721771 0.996063
0.369415 0.874176 0.976379
0.367706 0.871918 0.975922
0.360443 0.865417 0.973633
0.414520 0.845947 0.971710
0.574890 0.820312 0.970245
0.729828 0.757721 0.981049
0.981384 0.750885 0.985596
1.000000 0.695587 0.974640
1.000000 0.686157 0.972595
0.387268 0.910187 0.964355
0.374237 0.904602 0.959930
0.349762 0.894012 0.951843
0.337402 0.877136 0.943756
0.430054 0.848022 0.928528
0.641022 0.807953 0.922913
0.914520 0.776245 0.941864
0.992310 0.725769 0.915955
0.992737 0.718262 0.910706
0.386200 0.950378 0.919403
0.375214 0.943756 0.912354
0.356415 0.932709 0.903717
0.332977 0.911591 0.886719
0.409149 0.889496 0.873566
0.587036 0.870789 0.864410
0.829285 0.859222 0.876678
1.000000 0.808716 0.819031
1.000000 0.801605 0.812256
0.437408 0.980225 0.857941
0.431915 0.979095 0.852081
0.423767 0.977509 0.843536
0.404022 0.976959 0.829773
0.414124 0.975403 0.808655
0.523743 0.973297 0.791809
0.709595 0.971893 0.763885
0.996582 0.976074 0.728485
1.000000 0.972473 0.717590
0.418884 0.977386 0.840149
0.410370 0.977142 0.834167
0.398682 0.976837 0.826050
0.379608 0.975159 0.810883
0.383362 0.972626 0.787964
0.491547 0.972382 0.769409
0.683624 0.971405 0.737793
0.988525 0.991730 0.702850
1.000000 0.994080 0.687195
0.335175 0.767578 0.976379
0.364471 0.771484 0.980469
0.449188 0.767578 0.980103
0.525421 0.726196 0.985352
0.724976 0.697174 0.994049
0.970276 0.708527 1.000000
1.000000 0.729187 1.000000
1.000000 0.729187 1.000000
1.000000 0.729187 1.000000
0.347473 0.771606 0.976410
0.344482 0.767548 0.976349
0.432373 0.771729 0.976562
0.509125 0.735931 0.985229
0.689117 0.695343 0.994049
0.934174 0.707214 1.000000
1.000000 0.729187 1.000000
1.000000 0.729187 1.000000
1.000000 0.729187 1.000000
0.371368 0.783600 0.971985
0.369049 0.782562 0.971985
0.401581 0.779785 0.972107
0.499939 0.758667 0.980865
0.625122 0.703552 0.990448
0.881989 0.705627 0.998474
1.000000 0.729187 1.000000
1.000000 0.729187 1.000000
1.000000 0.729187 1.000000
0.372955 0.821381 0.971985
0.373535 0.819824 0.972046
0.387665 0.811005 0.974335
0.491577 0.801483 0.976379
0.592590 0.753998 0.985596
0.807373 0.729095 0.998352
0.997375 0.748962 1.000000
1.000000 0.747955 1.000000
1.000000 0.747070 1.000000
0.368164 0.872406 0.976044
0.366760 0.870056 0.975555
0.363617 0.864807 0.974457
0.424438 0.849335 0.975708
0.586639 0.830780 0.979095
0.731842 0.780640 0.993622
0.973389 0.780457 0.998474
1.000000 0.780701 0.998474
1.000000 0.778961 0.998474
0.430359 0.921783 0.980194
0.428131 0.919830 0.979462
0.423950 0.916168 0.978088
0.431519 0.906860 0.972992
0.514435 0.894592 0.977051
0.705566 0.869171 0.984436
0.901489 0.839386 0.998444
0.998993 0.839081 0.998932
0.998993 0.837341 0.999115
0.514709 0.990204 0.989655
0.511871 0.988251 0.989655
0.506989 0.984924 0.989655
0.499512 0.978882 0.988678
0.536896 0.962280 0.985260
0.652771 0.949036 0.982880
0.835419 0.928040 0.987976
0.994110 0.911743 0.998444
0.994293 0.909149 0.998474
0.573456 1.000000 0.989655
0.573456 1.000000 0.989655
0.573456 1.000000 0.989655
0.573456 1.000000 0.989655
0.590424 1.000000 0.985229
0.678375 1.000000 0.989655
0.805511 0.997162 0.987213
0.979340 0.988190 0.984985
0.999756 0.980011 0.985504
0.573456 1.000000 0.989655
0.573456 1.000000 0.989655
0.573456 1.000000 0.989655
0.573456 1.000000 0.989655
0.578430 0.999603 0.979706
0.651825 0.998901 0.975128
0.786957 0.997589 0.968170
0.955414 0.994995 0.968475
1.000000 0.996155 0.965240
0.335175 0.767578 0.976379
0.363312 0.771332 0.980469
0.448517 0.767883 0.980011
0.524231 0.727051 0.985260
0.722443 0.696960 0.994049
0.967529 0.708466 1.000000
1.000000 0.729187 1.000000
1.000000 0.729187 1.000000
1.000000 0.729187 1.000000
0.346497 0.771271 0.976410
0.343140 0.767548 0.976379
0.431213 0.771881 0.976410
0.507996 0.736389 0.985229
0.686859 0.695251 0.994049
0.932129 0.706940 1.000000
1.000000 0.729187 1.000000
1.000000 0.729187 1.000000
1.000000 0.729187 1.000000
0.370850 0.783356 0.971985
0.368561 0.782318 0.971985
0.400635 0.779510 0.972015
0.498688 0.758820 0.980804
0.622772 0.703552 0.990387
0.880035 0.705353 0.998474
1.000000 0.729187 1.000000
1.000000 0.729187 1.000000
1.000000 0.729187 1.000000
0.373138 0.820984 0.971985
0.373535 0.819275 0.972137
0.386902 0.810486 0.974579
0.490112 0.801025 0.976379
0.590942 0.753693 0.985474
0.805450 0.728516 0.998199
0.997131 0.748505 1.000000
1.000000 0.747650 1.000000
1.000000 0.746765 1.000000
0.367737 0.871704 0.975891
0.366272 0.869263 0.975403
0.363220 0.864136 0.974304
0.423767 0.848785 0.975708
0.585480 0.830475 0.979248
0.729736 0.779999 0.993622
0.972290 0.779694 0.998474
1.000000 0.780151 0.998474
1.000000 0.778381 0.998474
0.429718 0.921234 0.979980
0.427490 0.919281 0.979279
0.423340 0.915619 0.977905
0.430115 0.906250 0.972748
0.513092 0.893890 0.976746
0.703857 0.868591 0.984131
0.899658 0.838531 0.998444
0.998993 0.838501 0.998993
0.998993 0.836761 0.999176
0.513855 0.989624 0.989655
0.510895 0.987579 0.989655
0.506104 0.984283 0.989655
0.498688 0.978088 0.988434
0.535248 0.961487 0.985199
0.650848 0.948151 0.982635
0.833038 0.926971 0.987732
0.994171 0.910858 0.998444
0.994354 0.908295 0.998474
0.573456 1.000000 0.989655
0.573456 1.000000 0.989655
0.573456 1.000000 0.989655
0.573456 1.000000 0.989655
0.589783 1.000000 0.985229
0.676849 1.000000 0.989655
0.807953 0.999664 0.994049
0.977112 0.990662 0.994690
0.998444 0.987976 0.998474
0.573456 1.000000 0.989655
0.573456 1.000000 0.989655
0.573456 1.000000 0.989655
0.573456 1.000000 0.989655
0.586060 1.000000 0.985260
0.666718 1.000000 0.989655
0.794739 1.000000 0.994019
0.956055 0.999084 0.998474
0.998993 0.998016 0.998474
