ml_luts/colour_pop__lut3d_33.cube
TITLE "colour_pop"
DOMAIN_MIN 0.000000 0.000000 0.000000
DOMAIN_MAX 1.000000 1.000000 1.000000
LUT_3D_SIZE 5
0.000000 0.000000 0.000000
0.437294 0.000000 0.000000
0.749726 0.000000 0.000000
0.937310 0.000000 0.000000
1.000000 0.000000 0.000000
0.000000 0.437294 0.000000
0.254479 0.254479 0.000000
0.624745 0.249993 0.000000
0.874821 0.249993 0.000000
1.000000 0.249993 0.000000
0.000000 0.749726 0.000000
0.249993 0.624745 0.000000
0.503906 0.503906 0.000000
0.812302 0.500000 0.000000
1.000000 0.500000 0.000000
0.000000 0.937310 0.000000
0.249993 0.874821 0.000000
0.500000 0.812302 0.000000
0.751375 0.751375 0.000000
1.000000 0.750007 0.000000
0.000000 1.000000 0.000000
0.249993 1.000000 0.000000
0.500000 1.000000 0.000000
0.750007 1.000000 0.000000
1.000000 1.000000 0.000000
0.000000 0.000000 0.437294
0.254479 0.000000 0.254479
0.624745 0.000000 0.249993
0.874821 0.000000 0.249993
1.000000 0.000000 0.249993
0.000000 0.254479 0.254479
0.250089 0.250089 0.250089
0.621721 0.248625 0.248625
0.873307 0.248625 0.248625
1.000000 0.248625 0.248625
0.000000 0.624745 0.249993
0.248625 0.621721 0.248625
0.503906 0.503906 0.189717
0.812302 0.500000 0.187698
1.000000 0.500000 0.187698
0.000000 0.874821 0.249993
0.248625 0.873307 0.248625
0.500000 0.812302 0.187698
0.751375 0.751375 0.126693
1.000000 0.750007 0.125179
0.000000 1.000000 0.249993
0.248625 1.000000 0.248625
0.500000 1.000000 0.187698
0.750007 1.000000 0.125179
1.000000 1.000000 0.062690
0.000000 0.000000 0.749726
0.249993 0.000000 0.624745
0.503906 0.000000 0.503906
0.812302 0.000000 0.500000
1.000000 0.000000 0.500000
0.000000 0.249993 0.624745
0.248625 0.248625 0.621721
0.503906 0.189717 0.503906
0.812302 0.187698 0.500000
1.000000 0.187698 0.500000
0.000000 0.503906 0.503906
0.189717 0.503906 0.503906
0.500000 0.500000 0.500000
0.810283 0.496094 0.496094
1.000000 0.496094 0.496094
0.000000 0.812302 0.500000
0.187698 0.812302 0.500000
0.496094 0.810283 0.496094
0.751375 0.751375 0.382390
1.000000 0.750007 0.379474
0.000000 1.000000 0.500000
0.187698 1.000000 0.500000
0.496094 1.000000 0.496094
0.750007 1.000000 0.379474
1.000000 1.000000 0.258987
0.000000 0.000000 0.937310
0.249993 0.000000 0.874821
0.500000 0.000000 0.812302
0.751375 0.000000 0.751375
1.000000 0.000000 0.750007
0.000000 0.249993 0.874821
0.248625 0.248625 0.873307
0.500000 0.187698 0.812302
0.751375 0.126693 0.751375
1.000000 0.125179 0.750007
0.000000 0.500000 0.812302
0.187698 0.500000 0.812302
0.496094 0.496094 0.810283
0.751375 0.382390 0.751375
1.000000 0.379474 0.750007
0.000000 0.751375 0.751375
0.126693 0.751375 0.751375
0.382390 0.751375 0.751375
0.750645 0.750645 0.750645
1.000000 0.748457 0.748457
0.000000 1.000000 0.750007
0.125179 1.000000 0.750007
0.379474 1.000000 0.750007
0.748457 1.000000 0.748457
1.000000 1.000000 0.687805
0.000000 0.000000 1.000000
0.249993 0.000000 1.000000
0.500000 0.000000 1.000000
0.750007 0.000000 1.000000
1.000000 0.000000 1.000000
0.000000 0.249993 1.000000
0.248625 0.248625 1.000000
0.500000 0.187698 1.000000
0.750007 0.125179 1.000000
1.000000 0.062690 1.000000
0.000000 0.500000 1.000000
0.187698 0.500000 1.000000
0.496094 0.496094 1.000000
0.750007 0.379474 1.000000
1.000000 0.258987 1.000000
0.000000 0.750007 1.000000
0.125179 0.750007 1.000000
0.379474 0.750007 1.000000
0.748457 0.748457 1.000000
1.000000 0.687805 1.000000
0.000000 1.000000 1.000000
0.062690 1.000000 1.000000
0.258987 1.000000 1.000000
0.687805 1.000000 1.000000
1.000000 1.000000 1.000000
