ml_luts/colour_pop__lut3d_33.cube
TITLE "colour_pop"
DOMAIN_MIN 0.000000 0.000000 0.000000
DOMAIN_MAX 1.000000 1.000000 1.000000
LUT_3D_SIZE 9
0.000000 0.000000 0.000000
0.234241 0.000000 0.000000
0.437294 0.000000 0.000000
0.609108 0.000000 0.000000
0.749726 0.000000 0.000000
0.859131 0.000000 0.000000
0.937310 0.000000 0.000000
0.984249 0.000000 0.000000
1.000000 0.000000 0.000000
0.000000 0.234241 0.000000
0.128070 0.128070 0.000000
0.343546 0.124996 0.000000
0.531001 0.124996 0.000000
0.687243 0.124996 0.000000
0.812272 0.124996 0.000000
0.906068 0.124996 0.000000
0.968638 0.124996 0.000000
1.000000 0.124996 0.000000
0.000000 0.437294 0.000000
0.124996 0.343546 0.000000
0.254479 0.254479 0.000000
0.452864 0.249993 0.000000
0.624745 0.249993 0.000000
0.765394 0.249993 0.000000
0.874821 0.249993 0.000000
0.953008 0.249993 0.000000
1.000000 0.249993 0.000000
0.000000 0.609108 0.000000
0.124996 0.531001 0.000000
0.249993 0.452864 0.000000
0.379623 0.379623 0.000000
0.562246 0.374989 0.000000
0.718523 0.374989 0.000000
0.843564 0.374989 0.000000
0.937391 0.374989 0.000000
1.000000 0.374989 0.000000
0.000000 0.749726 0.000000
0.124996 0.687243 0.000000
0.249993 0.624745 0.000000
0.374989 0.562246 0.000000
0.503906 0.503906 0.000000
0.671642 0.500000 0.000000
0.812302 0.500000 0.000000
0.921764 0.500000 0.000000
1.000000 0.500000 0.000000
0.000000 0.859131 0.000000
0.124996 0.812272 0.000000
0.249993 0.765394 0.000000
0.374989 0.718523 0.000000
0.500000 0.671642 0.000000
0.627694 0.627694 0.000000
0.781057 0.625011 0.000000
0.906141 0.625011 0.000000
1.000000 0.625011 0.000000
0.000000 0.937310 0.000000
0.124996 0.906068 0.000000
0.249993 0.874821 0.000000
0.374989 0.843564 0.000000
0.500000 0.812302 0.000000
0.625011 0.781057 0.000000
0.751375 0.751375 0.000000
0.890521 0.750007 0.000000
1.000000 0.750007 0.000000
0.000000 0.984249 0.000000
0.124996 0.968638 0.000000
0.249993 0.953008 0.000000
0.374989 0.937390 0.000000
0.500000 0.921764 0.000000
0.625011 0.906141 0.000000
0.750007 0.890521 0.000000
0.875345 0.875345 0.000000
1.000000 0.875004 0.000000
0.000000 1.000000 0.000000
0.124996 1.000000 0.000000
0.249993 1.000000 0.000000
0.374989 1.000000 0.000000
0.500000 1.000000 0.000000
0.625011 1.000000 0.000000
0.750007 1.000000 0.000000
0.875004 1.000000 0.000000
1.000000 1.000000 0.000000
0.000000 0.000000 0.234241
0.128070 0.000000 0.128070
0.343546 0.000000 0.124996
0.531001 0.000000 0.124996
0.687243 0.000000 0.124996
0.812272 0.000000 0.124996
0.906068 0.000000 0.124996
0.968638 0.000000 0.124996
1.000000 0.000000 0.124996
0.000000 0.128070 0.128070
0.125082 0.125082 0.125082
0.340900 0.124655 0.124655
0.528796 0.124655 0.124655
0.685478 0.124655 0.124655
0.810949 0.124655 0.124655
0.905186 0.124655 0.124655
0.968198 0.124655 0.124655
1.000000 0.124655 0.124655
0.000000 0.343546 0.124996
0.124655 0.340900 0.124655
0.254479 0.254479 0.110238
0.452864 0.249993 0.109479
0.624745 0.249993 0.109479
0.765394 0.249993 0.109479
0.874821 0.249993 0.109479
0.953008 0.249993 0.109479
1.000000 0.249993 0.109479
0.000000 0.531001 0.124996
0.124655 0.528796 0.124655
0.249993 0.452864 0.109479
0.379623 0.379623 0.094803
0.562246 0.374989 0.093859
0.718523 0.374989 0.093859
0.843564 0.374989 0.093859
0.937391 0.374989 0.093859
1.000000 0.374989 0.093859
0.000000 0.687243 0.124996
0.124655 0.685479 0.124655
0.249993 0.624745 0.109479
0.374989 0.562246 0.093859
0.503906 0.503906 0.079248
0.671642 0.500000 0.078236
0.812302 0.500000 0.078236
0.921764 0.500000 0.078236
1.000000 0.500000 0.078236
0.000000 0.812272 0.124996
0.124655 0.810949 0.124655
0.249993 0.765394 0.109479
0.374989 0.718523 0.093859
0.500000 0.671642 0.078236
0.627694 0.627694 0.063552
0.781057 0.625011 0.062609
0.906141 0.625011 0.062609
1.000000 0.625011 0.062609
0.000000 0.906068 0.124996
0.124655 0.905186 0.124655
0.249993 0.874821 0.109479
0.374989 0.843564 0.093859
0.500000 0.812302 0.078236
0.625011 0.781057 0.062609
0.751375 0.751375 0.047751
0.890521 0.750007 0.046992
1.000000 0.750007 0.046992
0.000000 0.968638 0.124996
0.124655 0.968198 0.124655
0.249993 0.953008 0.109479
0.374989 0.937390 0.093859
0.500000 0.921764 0.078236
0.625011 0.906141 0.062609
0.750007 0.890521 0.046992
0.875345 0.875345 0.031802
1.000000 0.875004 0.031362
0.000000 1.000000 0.124996
0.124655 1.000000 0.124655
0.249993 1.000000 0.109479
0.374989 1.000000 0.093859
0.500000 1.000000 0.078236
0.625011 1.000000 0.062609
0.750007 1.000000 0.046992
0.875004 1.000000 0.031362
1.000000 1.000000 0.015751
0.000000 0.000000 0.437294
0.124996 0.000000 0.343546
0.254479 0.000000 0.254479
0.452864 0.000000 0.249993
0.624745 0.000000 0.249993
0.765394 0.000000 0.249993
0.874821 0.000000 0.249993
0.953008 0.000000 0.249993
1.000000 0.000000 0.249993
0.000000 0.124996 0.343546
0.124655 0.124655 0.340900
0.254479 0.110238 0.254479
0.452864 0.109479 0.249993
0.624745 0.109479 0.249993
0.765394 0.109479 0.249993
0.874821 0.109479 0.249993
0.953008 0.109479 0.249993
1.000000 0.109479 0.249993
0.000000 0.254479 0.254479
0.110238 0.254479 0.254479
0.250089 0.250089 0.250089
0.449083 0.248625 0.248625
0.621721 0.248625 0.248625
0.763127 0.248625 0.248625
0.873307 0.248625 0.248625
0.952249 0.248625 0.248625
1.000000 0.248625 0.248625
0.000000 0.452864 0.249993
0.109479 0.452864 0.249993
0.248625 0.449083 0.248625
0.379623 0.379623 0.220833
0.562246 0.374989 0.218943
0.718523 0.374989 0.218944
0.843564 0.374989 0.218943
0.937391 0.374989 0.218943
1.000000 0.374989 0.218943
0.000000 0.624745 0.249993
0.109479 0.624745 0.249993
0.248625 0.621721 0.248625
0.374989 0.562246 0.218943
0.503906 0.503906 0.189717
0.671642 0.500000 0.187698
0.812302 0.500000 0.187698
0.921764 0.500000 0.187698
1.000000 0.500000 0.187698
0.000000 0.765394 0.249993
0.109479 0.765394 0.249993
0.248625 0.763127 0.248625
0.374989 0.718523 0.218943
0.500000 0.671642 0.187698
0.627694 0.627694 0.158322
0.781057 0.625011 0.156436
0.906141 0.625011 0.156436
1.000000 0.625011 0.156436
0.000000 0.874821 0.249993
0.109479 0.874821 0.249993
0.248625 0.873307 0.248625
0.374989 0.843564 0.218943
0.500000 0.812302 0.187698
0.625011 0.781057 0.156436
0.751375 0.751375 0.126693
0.890521 0.750007 0.125179
1.000000 0.750007 0.125179
0.000000 0.953008 0.249993
0.109479 0.953008 0.249993
0.248625 0.952249 0.248625
0.374989 0.937390 0.218943
0.500000 0.921764 0.187698
0.625011 0.906141 0.156436
0.750007 0.890521 0.125179
0.875345 0.875345 0.094814
1.000000 0.875004 0.093932
0.000000 1.000000 0.249993
0.109479 1.000000 0.249993
0.248625 1.000000 0.248625
0.374989 1.000000 0.218943
0.500000 1.000000 0.187698
0.625011 1.000000 0.156436
0.750007 1.000000 0.125179
0.875004 1.000000 0.093932
1.000000 1.000000 0.062690
0.000000 0.000000 0.609108
0.124996 0.000000 0.531001
0.249993 0.000000 0.452864
0.379623 0.000000 0.379623
0.562246 0.000000 0.374989
0.718523 0.000000 0.374989
0.843564 0.000000 0.374989
0.937391 0.000000 0.374989
1.000000 0.000000 0.374989
0.000000 0.124996 0.531001
0.124655 0.124655 0.528796
0.249993 0.109479 0.452864
0.379623 0.094803 0.379623
0.562246 0.093859 0.374989
0.718523 0.093859 0.374989
0.843564 0.093859 0.374989
0.937391 0.093859 0.374989
1.000000 0.093859 0.374989
0.000000 0.249993 0.452864
0.109479 0.249993 0.452864
0.248625 0.248625 0.449083
0.379623 0.220833 0.379623
0.562246 0.218943 0.374989
0.718523 0.218944 0.374989
0.843564 0.218943 0.374989
0.937391 0.218943 0.374989
1.000000 0.218943 0.374989
0.000000 0.379623 0.379623
0.094803 0.379623 0.379623
0.220833 0.379623 0.379623
0.375050 0.375050 0.375050
0.558466 0.372306 0.372306
0.715685 0.372306 0.372306
0.841678 0.372306 0.372306
0.936448 0.372306 0.372306
1.000000 0.372306 0.372306
0.000000 0.562246 0.374989
0.093859 0.562246 0.374989
0.218943 0.562246 0.374989
0.372306 0.558466 0.372306
0.503906 0.503906 0.331389
0.671642 0.500000 0.328358
0.812302 0.500000 0.328358
0.921764 0.500000 0.328358
1.000000 0.500000 0.328358
0.000000 0.718523 0.374989
0.093859 0.718523 0.374989
0.218943 0.718523 0.374989
0.372306 0.715685 0.372306
0.500000 0.671642 0.328358
0.627694 0.627694 0.284315
0.781057 0.625011 0.281477
0.906141 0.625011 0.281477
1.000000 0.625011 0.281477
0.000000 0.843564 0.374989
0.093859 0.843564 0.374989
0.218943 0.843564 0.374989
0.372306 0.841678 0.372306
0.500000 0.812302 0.328358
0.625011 0.781057 0.281477
0.751375 0.751375 0.236873
0.890521 0.750007 0.234606
1.000000 0.750007 0.234606
0.000000 0.937391 0.374989
0.093859 0.937391 0.374989
0.218943 0.937391 0.374989
0.372306 0.936448 0.372306
0.500000 0.921764 0.328358
0.625011 0.906141 0.281477
0.750007 0.890521 0.234606
0.875345 0.875345 0.189051
1.000000 0.875004 0.187728
0.000000 1.000000 0.374989
0.093859 1.000000 0.374989
0.218943 1.000000 0.374989
0.372306 1.000000 0.372306
0.500000 1.000000 0.328358
0.625011 1.000000 0.281477
0.750007 1.000000 0.234606
0.875004 1.000000 0.187728
1.000000 1.000000 0.140869
0.000000 0.000000 0.749726
0.124996 0.000000 0.687243
0.249993 0.000000 0.624745
0.374989 0.000000 0.562246
0.503906 0.000000 0.503906
0.671642 0.000000 0.500000
0.812302 0.000000 0.500000
0.921764 0.000000 0.500000
1.000000 0.000000 0.500000
0.000000 0.124996 0.687243
0.124655 0.124655 0.685479
0.249993 0.109479 0.624745
0.374989 0.093859 0.562246
0.503906 0.079248 0.503906
0.671642 0.078236 0.500000
0.812302 0.078236 0.500000
0.921764 0.078236 0.500000
1.000000 0.078236 0.500000
0.000000 0.249993 0.624745
0.109479 0.249993 0.624745
0.248625 0.248625 0.621721
0.374989 0.218943 0.562246
0.503906 0.189717 0.503906
0.671642 0.187698 0.500000
0.812302 0.187698 0.500000
0.921764 0.187698 0.500000
1.000000 0.187698 0.500000
0.000000 0.374989 0.562246
0.093859 0.374989 0.562246
0.218943 0.374989 0.562246
0.372306 0.372306 0.558466
0.503906 0.331389 0.503906
0.671642 0.328358 0.500000
0.812301 0.328358 0.500000
0.921764 0.328358 0.500000
1.000000 0.328358 0.500000
0.000000 0.503906 0.503906
0.079248 0.503906 0.503906
0.189717 0.503906 0.503906
0.331389 0.503906 0.503906
0.500000 0.500000 0.500000
0.668611 0.496094 0.496094
0.810283 0.496094 0.496094
0.920752 0.496094 0.496094
1.000000 0.496094 0.496094
0.000000 0.671642 0.500000
0.078236 0.671642 0.500000
0.187698 0.671642 0.500000
0.328358 0.671642 0.500000
0.496094 0.668611 0.496094
0.627694 0.627694 0.443368
0.781057 0.625011 0.439720
0.906141 0.625011 0.439720
1.000000 0.625011 0.439720
0.000000 0.812302 0.500000
0.078236 0.812302 0.500000
0.187698 0.812302 0.500000
0.328358 0.812302 0.500000
0.496094 0.810283 0.496094
0.625011 0.781057 0.439720
0.751375 0.751375 0.382390
0.890521 0.750007 0.379474
1.000000 0.750007 0.379474
0.000000 0.921764 0.500000
0.078236 0.921764 0.500000
0.187698 0.921764 0.500000
0.328358 0.921764 0.500000
0.496094 0.920752 0.496094
0.625011 0.906141 0.439720
0.750007 0.890521 0.379474
0.875345 0.875345 0.320924
1.000000 0.875004 0.319223
0.000000 1.000000 0.500000
0.078236 1.000000 0.500000
0.187698 1.000000 0.500000
0.328358 1.000000 0.500000
0.496094 1.000000 0.496094
0.625011 1.000000 0.439720
0.750007 1.000000 0.379474
0.875004 1.000000 0.319223
1.000000 1.000000 0.258987
0.000000 0.000000 0.859131
0.124996 0.000000 0.812272
0.249993 0.000000 0.765394
0.374989 0.000000 0.718523
0.500000 0.000000 0.671642
0.627694 0.000000 0.627694
0.781057 0.000000 0.625011
0.906141 0.000000 0.625011
1.000000 0.000000 0.625011
0.000000 0.124996 0.812272
0.124655 0.124655 0.810949
0.249993 0.109479 0.765394
0.374989 0.093859 0.718523
0.500000 0.078236 0.671642
0.627694 0.063552 0.627694
0.781057 0.062609 0.625011
0.906141 0.062609 0.625011
1.000000 0.062609 0.625011
0.000000 0.249993 0.765394
0.109479 0.249993 0.765394
0.248625 0.248625 0.763127
0.374989 0.218943 0.718523
0.500000 0.187698 0.671642
0.627694 0.158322 0.627694
0.781057 0.156436 0.625011
0.906141 0.156436 0.625011
1.000000 0.156436 0.625011
0.000000 0.374989 0.718523
0.093859 0.374989 0.718523
0.218943 0.374989 0.718523
0.372306 0.372306 0.715685
0.500000 0.328358 0.671642
0.627694 0.284315 0.627694
0.781057 0.281477 0.625011
0.906141 0.281477 0.625011
1.000000 0.281477 0.625011
0.000000 0.500000 0.671642
0.078236 0.500000 0.671642
0.187698 0.500000 0.671642
0.328358 0.500000 0.671642
0.496094 0.496094 0.668611
0.627694 0.443368 0.627694
0.781057 0.439720 0.625011
0.906141 0.439720 0.625011
1.000000 0.439720 0.625011
0.000000 0.627694 0.627694
0.063552 0.627694 0.627694
0.158322 0.627694 0.627694
0.284315 0.627694 0.627694
0.443368 0.627694 0.627694
0.625599 0.625599 0.625599
0.779167 0.622107 0.622108
0.905197 0.622107 0.622108
1.000000 0.622107 0.622108
0.000000 0.781057 0.625011
0.062609 0.781057 0.625011
0.156436 0.781057 0.625011
0.281477 0.781057 0.625011
0.439720 0.781057 0.625011
0.622107 0.779166 0.622108
0.751375 0.751375 0.580514
0.890521 0.750007 0.578261
1.000000 0.750007 0.578261
0.000000 0.906141 0.625011
0.062609 0.906141 0.625011
0.156436 0.906141 0.625011
0.281477 0.906141 0.625011
0.439720 0.906141 0.625011
0.622107 0.905197 0.622108
0.750007 0.890521 0.578261
0.875345 0.875345 0.533062
1.000000 0.875004 0.531749
0.000000 1.000000 0.625011
0.062609 1.000000 0.625011
0.156436 1.000000 0.625011
0.281477 1.000000 0.625011
0.439720 1.000000 0.625011
0.622107 1.000000 0.622108
0.750007 1.000000 0.578261
0.875004 1.000000 0.531749
1.000000 1.000000 0.485252
0.000000 0.000000 0.937310
0.124996 0.000000 0.906068
0.249993 0.000000 0.874821
0.374989 0.000000 0.843564
0.500000 0.000000 0.812302
0.625011 0.000000 0.781057
0.751375 0.000000 0.751375
0.890521 0.000000 0.750007
1.000000 0.000000 0.750007
0.000000 0.124996 0.906068
0.124655 0.124655 0.905186
0.249993 0.109479 0.874821
0.374989 0.093859 0.843564
0.500000 0.078236 0.812302
0.625011 0.062609 0.781057
0.751375 0.047751 0.751375
0.890521 0.046992 0.750007
1.000000 0.046992 0.750007
0.000000 0.249993 0.874821
0.109479 0.249993 0.874821
0.248625 0.248625 0.873307
0.374989 0.218943 0.843564
0.500000 0.187698 0.812302
0.625011 0.156436 0.781057
0.751375 0.126693 0.751375
0.890521 0.125179 0.750007
1.000000 0.125179 0.750007
0.000000 0.374989 0.843564
0.093859 0.374989 0.843564
0.218943 0.374989 0.843564
0.372306 0.372306 0.841678
0.500000 0.328358 0.812302
0.625011 0.281477 0.781057
0.751375 0.236873 0.751375
0.890521 0.234606 0.750007
1.000000 0.234606 0.750007
0.000000 0.500000 0.812302
0.078236 0.500000 0.812302
0.187698 0.500000 0.812302
0.328358 0.500000 0.812302
0.496094 0.496094 0.810283
0.625011 0.439720 0.781057
0.751375 0.382390 0.751375
0.890521 0.379474 0.750007
1.000000 0.379474 0.750007
0.000000 0.625011 0.781057
0.062609 0.625011 0.781057
0.156436 0.625011 0.781057
0.281477 0.625011 0.781057
0.439720 0.625011 0.781057
0.622107 0.622108 0.779166
0.751375 0.580514 0.751375
0.890521 0.578261 0.750007
1.000000 0.578261 0.750007
0.000000 0.751375 0.751375
0.047751 0.751375 0.751375
0.126693 0.751375 0.751375
0.236873 0.751375 0.751375
0.382390 0.751375 0.751375
0.580514 0.751375 0.751375
0.750645 0.750645 0.750645
0.889762 0.748457 0.748457
1.000000 0.748457 0.748457
0.000000 0.890521 0.750007
0.046992 0.890521 0.750007
0.125179 0.890521 0.750007
0.234606 0.890521 0.750007
0.379474 0.890521 0.750007
0.578261 0.890521 0.750007
0.748457 0.889762 0.748457
0.875345 0.875345 0.719678
1.000000 0.875004 0.718804
0.000000 1.000000 0.750007
0.046992 1.000000 0.750007
0.125179 1.000000 0.750007
0.234606 1.000000 0.750007
0.379474 1.000000 0.750007
0.578261 1.000000 0.750007
0.748457 1.000000 0.748457
0.875004 1.000000 0.718804
1.000000 1.000000 0.687805
0.000000 0.000000 0.984249
0.124996 0.000000 0.968638
0.249993 0.000000 0.953008
0.374989 0.000000 0.937390
0.500000 0.000000 0.921764
0.625011 0.000000 0.906141
0.750007 0.000000 0.890521
0.875345 0.000000 0.875345
1.000000 0.000000 0.875004
0.000000 0.124996 0.968638
0.124655 0.124655 0.968198
0.249993 0.109479 0.953008
0.374989 0.093859 0.937390
0.500000 0.078236 0.921764
0.625011 0.062609 0.906141
0.750007 0.046992 0.890521
0.875345 0.031802 0.875345
1.000000 0.031362 0.875004
0.000000 0.249993 0.953008
0.109479 0.249993 0.953008
0.248625 0.248625 0.952249
0.374989 0.218943 0.937390
0.500000 0.187698 0.921764
0.625011 0.156436 0.906141
0.750007 0.125179 0.890521
0.875345 0.094814 0.875345
1.000000 0.093932 0.875004
0.000000 0.374989 0.937390
0.093859 0.374989 0.937390
0.218943 0.374989 0.937390
0.372306 0.372306 0.936448
0.500000 0.328358 0.921764
0.625011 0.281477 0.906141
0.750007 0.234606 0.890521
0.875345 0.189051 0.875345
1.000000 0.187728 0.875004
0.000000 0.500000 0.921764
0.078236 0.500000 0.921764
0.187698 0.500000 0.921764
0.328358 0.500000 0.921764
0.496094 0.496094 0.920752
0.625011 0.439720 0.906141
0.750007 0.379474 0.890521
0.875345 0.320924 0.875345
1.000000 0.319223 0.875004
0.000000 0.625011 0.906141
0.062609 0.625011 0.906141
0.156436 0.625011 0.906141
0.281477 0.625011 0.906141
0.439720 0.625011 0.906141
0.622107 0.622108 0.905197
0.750007 0.578261 0.890521
0.875345 0.533062 0.875345
1.000000 0.531749 0.875004
0.000000 0.750007 0.890521
0.046992 0.750007 0.890521
0.125179 0.750007 0.890521
0.234606 0.750007 0.890521
0.379474 0.750007 0.890521
0.578261 0.750007 0.890521
0.748457 0.748457 0.889762
0.875345 0.719678 0.875345
1.000000 0.718804 0.875004
0.000000 0.875345 0.875345
0.031802 0.875345 0.875345
0.094814 0.875345 0.875345
0.189051 0.875345 0.875345
0.320924 0.875345 0.875345
0.533062 0.875345 0.875345
0.719678 0.875345 0.875345
0.875246 0.875246 0.875246
1.000000 0.874553 0.874553
0.000000 1.000000 0.875004
0.031362 1.000000 0.875004
0.093932 1.000000 0.875004
0.187728 1.000000 0.875004
0.319223 1.000000 0.875004
0.531749 1.000000 0.875004
0.718804 1.000000 0.875004
0.874553 1.000000 0.874553
1.000000 1.000000 0.859398
0.000000 0.000000 1.000000
0.124996 0.000000 1.000000
0.249993 0.000000 1.000000
0.374989 0.000000 1.000000
0.500000 0.000000 1.000000
0.625011 0.000000 1.000000
0.750007 0.000000 1.000000
0.875004 0.000000 1.000000
1.000000 0.000000 1.000000
0.000000 0.124996 1.000000
0.124655 0.124655 1.000000
0.249993 0.109479 1.000000
0.374989 0.093859 1.000000
0.500000 0.078236 1.000000
0.625011 0.062609 1.000000
0.750007 0.046992 1.000000
0.875004 0.031362 1.000000
1.000000 0.015751 1.000000
0.000000 0.249993 1.000000
0.109479 0.249993 1.000000
0.248625 0.248625 1.000000
0.374989 0.218943 1.000000
0.500000 0.187698 1.000000
0.625011 0.156436 1.000000
0.750007 0.125179 1.000000
0.875004 0.093932 1.000000
1.000000 0.062690 1.000000
0.000000 0.374989 1.000000
0.093859 0.374989 1.000000
0.218943 0.374989 1.000000
0.372306 0.372306 1.000000
0.500000 0.328358 1.000000
0.625011 0.281477 1.000000
0.750007 0.234606 1.000000
0.875004 0.187728 1.000000
1.000000 0.140869 1.000000
0.000000 0.500000 1.000000
0.078236 0.500000 1.000000
0.187698 0.500000 1.000000
0.328358 0.500000 1.000000
0.496094 0.496094 1.000000
0.625011 0.439720 1.000000
0.750007 0.379474 1.000000
0.875004 0.319223 1.000000
1.000000 0.258987 1.000000
0.000000 0.625011 1.000000
0.062609 0.625011 1.000000
0.156436 0.625011 1.000000
0.281477 0.625011 1.000000
0.439720 0.625011 1.000000
0.622107 0.622108 1.000000
0.750007 0.578261 1.000000
0.875004 0.531749 1.000000
1.000000 0.485252 1.000000
0.000000 0.750007 1.000000
0.046992 0.750007 1.000000
0.125179 0.750007 1.000000
0.234606 0.750007 1.000000
0.379474 0.750007 1.000000
0.578261 0.750007 1.000000
0.748457 0.748457 1.000000
0.875004 0.718804 1.000000
1.000000 0.687805 1.000000
0.000000 0.875004 1.000000
0.031362 0.875004 1.000000
0.093932 0.875004 1.000000
0.187728 0.875004 1.000000
0.319223 0.875004 1.000000
0.531749 0.875004 1.000000
0.718804 0.875004 1.000000
0.874553 0.874553 1.000000
1.000000 0.859398 1.000000
0.000000 1.000000 1.000000
0.015751 1.000000 1.000000
0.062690 1.000000 1.000000
0.140869 1.000000 1.000000
0.258987 1.000000 1.000000
0.485252 1.000000 1.000000
0.687805 1.000000 1.000000
0.859398 1.000000 1.000000
1.000000 1.000000 1.000000
