ml_luts/colour_pop__lut3d_33.cube
TITLE "colour_pop"
DOMAIN_MIN 0.000000 0.000000 0.000000
DOMAIN_MAX 1.000000 1.000000 1.000000
LUT_3D_SIZE 33
0.000000 0.000000 0.000000
0.061493 0.000000 0.000000
0.121040 0.000000 0.000000
0.178615 0.000000 0.000000
0.234241 0.000000 0.000000
0.287949 0.000000 0.000000
0.339689 0.000000 0.000000
0.389456 0.000000 0.000000
0.437294 0.000000 0.000000
0.483172 0.000000 0.000000
0.527096 0.000000 0.000000
0.569075 0.000000 0.000000
0.609108 0.000000 0.000000
0.647196 0.000000 0.000000
0.683321 0.000000 0.000000
0.717488 0.000000 0.000000
0.749726 0.000000 0.000000
0.780017 0.000000 0.000000
0.808348 0.000000 0.000000
0.834721 0.000000 0.000000
0.859131 0.000000 0.000000
0.881595 0.000000 0.000000
0.902115 0.000000 0.000000
0.920688 0.000000 0.000000
0.937310 0.000000 0.000000
0.951969 0.000000 0.000000
0.964701 0.000000 0.000000
0.975458 0.000000 0.000000
0.984249 0.000000 0.000000
0.991120 0.000000 0.000000
0.996045 0.000000 0.000000
0.998994 0.000000 0.000000
1.000000 0.000000 0.000000
0.000000 0.061493 0.000000
0.032194 0.032194 0.000000
0.091739 0.031249 0.000000
0.150287 0.031249 0.000000
0.206913 0.031249 0.000000
0.261573 0.031249 0.000000
0.314283 0.031249 0.000000
0.365046 0.031249 0.000000
0.413865 0.031249 0.000000
0.460716 0.031249 0.000000
0.505614 0.031249 0.000000
0.548566 0.031249 0.000000
0.589573 0.031249 0.000000
0.628635 0.031249 0.000000
0.665751 0.031249 0.000000
0.700905 0.031249 0.000000
0.734116 0.031249 0.000000
0.765381 0.031249 0.000000
0.794685 0.031249 0.000000
0.822032 0.031249 0.000000
0.847416 0.031249 0.000000
0.870855 0.031249 0.000000
0.892348 0.031249 0.000000
0.911895 0.031249 0.000000
0.929497 0.031249 0.000000
0.945146 0.031249 0.000000
0.958829 0.031249 0.000000
0.970565 0.031249 0.000000
0.980354 0.031249 0.000000
0.988196 0.031249 0.000000
0.994069 0.031249 0.000000
0.998021 0.031249 0.000000
1.000000 0.031249 0.000000
0.000000 0.121040 0.000000
0.031249 0.091739 0.000000
0.064266 0.064266 0.000000
0.121985 0.062498 0.000000
0.179564 0.062498 0.000000
0.235217 0.062498 0.000000
0.288905 0.062498 0.000000
0.340642 0.062498 0.000000
0.390414 0.062498 0.000000
0.438253 0.062498 0.000000
0.484132 0.062498 0.000000
0.528077 0.062498 0.000000
0.570068 0.062498 0.000000
0.610086 0.062498 0.000000
0.648164 0.062498 0.000000
0.684293 0.062498 0.000000
0.718492 0.062498 0.000000
0.750745 0.062498 0.000000
0.781011 0.062498 0.000000
0.809327 0.062498 0.000000
0.835701 0.062498 0.000000
0.860124 0.062498 0.000000
0.882609 0.062498 0.000000
0.903122 0.062498 0.000000
0.921677 0.062498 0.000000
0.938301 0.062498 0.000000
0.952962 0.062498 0.000000
0.965695 0.062498 0.000000
0.976459 0.062498 0.000000
0.985275 0.062498 0.000000
0.992121 0.062498 0.000000
0.997047 0.062498 0.000000
1.000000 0.062498 0.000000
0.000000 0.178615 0.000000
0.031249 0.150287 0.000000
0.062498 0.121985 0.000000
0.096223 0.096223 0.000000
0.152234 0.093747 0.000000
0.208843 0.093747 0.000000
0.263500 0.093747 0.000000
0.316212 0.093747 0.000000
0.366976 0.093747 0.000000
0.415796 0.093747 0.000000
0.462650 0.093747 0.000000
0.507571 0.093747 0.000000
0.550536 0.093747 0.000000
0.591543 0.093747 0.000000
0.630590 0.093747 0.000000
0.667694 0.093747 0.000000
0.702867 0.093747 0.000000
0.736081 0.093747 0.000000
0.767332 0.093747 0.000000
0.796637 0.093747 0.000000
0.823987 0.093747 0.000000
0.849383 0.093747 0.000000
0.872844 0.093747 0.000000
0.894338 0.093747 0.000000
0.913879 0.093747 0.000000
0.931462 0.093747 0.000000
0.947112 0.093747 0.000000
0.960798 0.093747 0.000000
0.972537 0.093747 0.000000
0.982329 0.093747 0.000000
0.990173 0.093747 0.000000
0.996074 0.093747 0.000000
1.000000 0.093747 0.000000
0.000000 0.234241 0.000000
0.031249 0.206913 0.000000
0.062498 0.179564 0.000000
0.093747 0.152234 0.000000
0.128070 0.128070 0.000000
0.182485 0.124996 0.000000
0.238121 0.124996 0.000000
0.291806 0.124996 0.000000
0.343546 0.124996 0.000000
0.393340 0.124996 0.000000
0.441168 0.124996 0.000000
0.487062 0.124996 0.000000
0.531001 0.124996 0.000000
0.572984 0.124996 0.000000
0.613019 0.124996 0.000000
0.651095 0.124996 0.000000
0.687243 0.124996 0.000000
0.721443 0.124996 0.000000
0.753668 0.124996 0.000000
0.783949 0.124996 0.000000
0.812272 0.124996 0.000000
0.838642 0.124996 0.000000
0.863077 0.124996 0.000000
0.885545 0.124996 0.000000
0.906068 0.124996 0.000000
0.924637 0.124996 0.000000
0.941248 0.124996 0.000000
0.955927 0.124996 0.000000
0.968638 0.124996 0.000000
0.979404 0.124996 0.000000
0.988225 0.124996 0.000000
0.995100 0.124996 0.000000
1.000000 0.124996 0.000000
0.000000 0.287949 0.000000
0.031249 0.261573 0.000000
0.062498 0.235217 0.000000
0.093747 0.208843 0.000000
0.124996 0.182485 0.000000
0.159814 0.159814 0.000000
0.212718 0.156245 0.000000
0.267397 0.156245 0.000000
0.320117 0.156245 0.000000
0.370885 0.156245 0.000000
0.419687 0.156245 0.000000
0.466554 0.156245 0.000000
0.511467 0.156245 0.000000
0.554423 0.156245 0.000000
0.595434 0.156245 0.000000
0.634498 0.156245 0.000000
0.671618 0.156245 0.000000
0.706793 0.156245 0.000000
0.740006 0.156245 0.000000
0.771250 0.156245 0.000000
0.800541 0.156245 0.000000
0.827901 0.156245 0.000000
0.853309 0.156245 0.000000
0.876752 0.156245 0.000000
0.898249 0.156245 0.000000
0.917800 0.156245 0.000000
0.935397 0.156245 0.000000
0.951036 0.156245 0.000000
0.964743 0.156245 0.000000
0.976484 0.156245 0.000000
0.986276 0.156245 0.000000
0.994101 0.156245 0.000000
1.000000 0.156245 0.000000
0.000000 0.339689 0.000000
0.031249 0.314283 0.000000
0.062498 0.288905 0.000000
0.093747 0.263500 0.000000
0.124996 0.238120 0.000000
0.156245 0.212718 0.000000
0.191455 0.191455 0.000000
0.242974 0.187494 0.000000
0.296662 0.187494 0.000000
0.348404 0.187494 0.000000
0.398197 0.187494 0.000000
0.446046 0.187494 0.000000
0.491933 0.187494 0.000000
0.535863 0.187494 0.000000
0.577848 0.187494 0.000000
0.617887 0.187494 0.000000
0.655994 0.187494 0.000000
0.692143 0.187494 0.000000
0.726319 0.187494 0.000000
0.758545 0.187494 0.000000
0.788824 0.187494 0.000000
0.817161 0.187494 0.000000
0.843543 0.187494 0.000000
0.867959 0.187494 0.000000
0.890429 0.187494 0.000000
0.910955 0.187494 0.000000
0.929533 0.187494 0.000000
0.946160 0.187494 0.000000
0.960824 0.187494 0.000000
0.973537 0.187494 0.000000
0.984305 0.187494 0.000000
0.993122 0.187494 0.000000
1.000000 0.187494 0.000000
0.000000 0.389456 0.000000
0.031249 0.365046 0.000000
0.062498 0.340642 0.000000
0.093747 0.316212 0.000000
0.124996 0.291806 0.000000
0.156245 0.267397 0.000000
0.187494 0.242974 0.000000
0.223010 0.223010 0.000000
0.273227 0.218744 0.000000
0.325943 0.218744 0.000000
0.376713 0.218744 0.000000
0.425538 0.218744 0.000000
0.472398 0.218744 0.000000
0.517316 0.218744 0.000000
0.560284 0.218744 0.000000
0.601298 0.218744 0.000000
0.640369 0.218744 0.000000
0.677491 0.218744 0.000000
0.712651 0.218744 0.000000
0.745853 0.218744 0.000000
0.777109 0.218744 0.000000
0.806420 0.218744 0.000000
0.833775 0.218744 0.000000
0.859172 0.218744 0.000000
0.882634 0.218744 0.000000
0.904133 0.218744 0.000000
0.923682 0.218744 0.000000
0.941270 0.218744 0.000000
0.956923 0.218744 0.000000
0.970611 0.218744 0.000000
0.982352 0.218744 0.000000
0.992149 0.218744 0.000000
1.000000 0.218744 0.000000
0.000000 0.437294 0.000000
0.031249 0.413865 0.000000
0.062498 0.390414 0.000000
0.093747 0.366976 0.000000
0.124996 0.343546 0.000000
0.156245 0.320117 0.000000
0.187494 0.296662 0.000000
0.218744 0.273227 0.000000
0.254479 0.254479 0.000000
0.303487 0.249993 0.000000
0.355231 0.249993 0.000000
0.405030 0.249993 0.000000
0.452864 0.249993 0.000000
0.498759 0.249993 0.000000
0.542704 0.249993 0.000000
0.584691 0.249993 0.000000
0.624745 0.249993 0.000000
0.662852 0.249993 0.000000
0.698989 0.249993 0.000000
0.733164 0.249993 0.000000
0.765394 0.249993 0.000000
0.795679 0.249993 0.000000
0.824008 0.249993 0.000000
0.850381 0.249993 0.000000
0.874821 0.249993 0.000000
0.897294 0.249993 0.000000
0.917820 0.249993 0.000000
0.936392 0.249993 0.000000
0.953008 0.249993 0.000000
0.967689 0.249993 0.000000
0.980405 0.249993 0.000000
0.991175 0.249993 0.000000
1.000000 0.249993 0.000000
0.000000 0.483172 0.000000
0.031249 0.460716 0.000000
0.062498 0.438253 0.000000
0.093747 0.415796 0.000000
0.124996 0.393340 0.000000
0.156245 0.370885 0.000000
0.187494 0.348404 0.000000
0.218744 0.325943 0.000000
0.249993 0.303487 0.000000
0.285868 0.285868 0.000000
0.333749 0.281242 0.000000
0.384522 0.281242 0.000000
0.433343 0.281242 0.000000
0.480208 0.281242 0.000000
0.525118 0.281242 0.000000
0.568078 0.281242 0.000000
0.609120 0.281242 0.000000
0.648206 0.281242 0.000000
0.685314 0.281242 0.000000
0.720476 0.281242 0.000000
0.753680 0.281242 0.000000
0.784938 0.281242 0.000000
0.814241 0.281242 0.000000
0.841587 0.281242 0.000000
0.867001 0.281242 0.000000
0.890448 0.281242 0.000000
0.911949 0.281242 0.000000
0.931503 0.281242 0.000000
0.949106 0.281242 0.000000
0.964768 0.281242 0.000000
0.978457 0.281242 0.000000
0.990202 0.281242 0.000000
1.000000 0.281242 0.000000
0.000000 0.527096 0.000000
0.031249 0.505614 0.000000
0.062498 0.484132 0.000000
0.093747 0.462650 0.000000
0.124996 0.441168 0.000000
0.156245 0.419687 0.000000
0.187494 0.398197 0.000000
0.218744 0.376713 0.000000
0.249993 0.355231 0.000000
0.281242 0.333749 0.000000
0.317185 0.317185 0.000000
0.364014 0.312491 0.000000
0.413814 0.312491 0.000000
0.461651 0.312491 0.000000
0.507543 0.312491 0.000000
0.551486 0.312491 0.000000
0.593495 0.312491 0.000000
0.633554 0.312491 0.000000
0.671638 0.312491 0.000000
0.707775 0.312491 0.000000
0.741965 0.312491 0.000000
0.774197 0.312491 0.000000
0.804480 0.312491 0.000000
0.832809 0.312491 0.000000
0.859187 0.312491 0.000000
0.883623 0.312491 0.000000
0.906098 0.312491 0.000000
0.926627 0.312491 0.000000
0.945208 0.312491 0.000000
0.961828 0.312491 0.000000
0.976510 0.312491 0.000000
0.989228 0.312491 0.000000
1.000000 0.312491 0.000000
0.000000 0.569075 0.000000
0.031249 0.548566 0.000000
0.062498 0.528077 0.000000
0.093747 0.507571 0.000000
0.124996 0.487062 0.000000
0.156245 0.466554 0.000000
0.187494 0.446046 0.000000
0.218744 0.425538 0.000000
0.249993 0.405030 0.000000
0.281242 0.384522 0.000000
0.312491 0.364014 0.000000
0.348435 0.348435 0.000000
0.394280 0.343740 0.000000
0.443102 0.343740 0.000000
0.489970 0.343740 0.000000
0.534883 0.343740 0.000000
0.577871 0.343740 0.000000
0.618904 0.343740 0.000000
0.657960 0.343740 0.000000
0.695081 0.343740 0.000000
0.730250 0.343740 0.000000
0.763456 0.343740 0.000000
0.794716 0.343740 0.000000
0.824022 0.343740 0.000000
0.851369 0.343740 0.000000
0.876786 0.343740 0.000000
0.900235 0.343740 0.000000
0.921738 0.343740 0.000000
0.941295 0.343740 0.000000
0.958898 0.343740 0.000000
0.974562 0.343740 0.000000
0.988254 0.343740 0.000000
1.000000 0.343740 0.000000
0.000000 0.609108 0.000000
0.031249 0.589573 0.000000
0.062498 0.570068 0.000000
0.093747 0.550536 0.000000
0.124996 0.531001 0.000000
0.156245 0.511467 0.000000
0.187494 0.491933 0.000000
0.218744 0.472398 0.000000
0.249993 0.452864 0.000000
0.281242 0.433343 0.000000
0.312491 0.413814 0.000000
0.343740 0.394280 0.000000
0.379623 0.379623 0.000000
0.424548 0.374989 0.000000
0.472388 0.374989 0.000000
0.518280 0.374989 0.000000
0.562246 0.374989 0.000000
0.604253 0.374989 0.000000
0.644292 0.374989 0.000000
0.682385 0.374989 0.000000
0.718523 0.374989 0.000000
0.752715 0.374989 0.000000
0.784949 0.374989 0.000000
0.815234 0.374989 0.000000
0.843564 0.374989 0.000000
0.869945 0.374989 0.000000
0.894382 0.374989 0.000000
0.916859 0.374989 0.000000
0.937391 0.374989 0.000000
0.955974 0.374989 0.000000
0.972597 0.374989 0.000000
0.987280 0.374989 0.000000
1.000000 0.374989 0.000000
0.000000 0.647196 0.000000
0.031249 0.628635 0.000000
0.062498 0.610086 0.000000
0.093747 0.591543 0.000000
0.124996 0.572984 0.000000
0.156245 0.554423 0.000000
0.187494 0.535863 0.000000
0.218744 0.517316 0.000000
0.249993 0.498759 0.000000
0.281242 0.480208 0.000000
0.312491 0.461651 0.000000
0.343740 0.443102 0.000000
0.374989 0.424548 0.000000
0.410757 0.410757 0.000000
0.454811 0.406238 0.000000
0.501681 0.406238 0.000000
0.546622 0.406238 0.000000
0.589611 0.406238 0.000000
0.630630 0.406238 0.000000
0.669691 0.406238 0.000000
0.706802 0.406238 0.000000
0.741974 0.406238 0.000000
0.775182 0.406238 0.000000
0.806444 0.406238 0.000000
0.835758 0.406238 0.000000
0.863116 0.406238 0.000000
0.888521 0.406238 0.000000
0.911972 0.406238 0.000000
0.933477 0.406238 0.000000
0.953036 0.406238 0.000000
0.970639 0.406238 0.000000
0.986306 0.406238 0.000000
1.000000 0.406238 0.000000
0.000000 0.683321 0.000000
0.031249 0.665751 0.000000
0.062498 0.648164 0.000000
0.093747 0.630590 0.000000
0.124996 0.613019 0.000000
0.156245 0.595434 0.000000
0.187494 0.577848 0.000000
0.218744 0.560284 0.000000
0.249993 0.542704 0.000000
0.281242 0.525118 0.000000
0.312491 0.507543 0.000000
0.343740 0.489970 0.000000
0.374989 0.472388 0.000000
0.406238 0.454811 0.000000
0.441842 0.441842 0.000000
0.485083 0.437487 0.000000
0.530997 0.437487 0.000000
0.574957 0.437487 0.000000
0.616951 0.437487 0.000000
0.656993 0.437487 0.000000
0.695087 0.437487 0.000000
0.731233 0.437487 0.000000
0.765415 0.437487 0.000000
0.797650 0.437487 0.000000
0.827941 0.437487 0.000000
0.856283 0.437487 0.000000
0.882667 0.437487 0.000000
0.907091 0.437487 0.000000
0.929570 0.437487 0.000000
0.950103 0.437487 0.000000
0.968691 0.437487 0.000000
0.985333 0.437487 0.000000
1.000000 0.437487 0.000000
0.000000 0.717488 0.000000
0.031249 0.700905 0.000000
0.062498 0.684293 0.000000
0.093747 0.667694 0.000000
0.124996 0.651095 0.000000
0.156245 0.634498 0.000000
0.187494 0.617887 0.000000
0.218744 0.601298 0.000000
0.249993 0.584691 0.000000
0.281242 0.568078 0.000000
0.312491 0.551486 0.000000
0.343740 0.534883 0.000000
0.374989 0.518280 0.000000
0.406238 0.501681 0.000000
0.437487 0.485083 0.000000
0.472885 0.472885 0.000000
0.515373 0.468736 0.000000
0.560308 0.468736 0.000000
0.603275 0.468736 0.000000
0.644296 0.468736 0.000000
0.683372 0.468736 0.000000
0.720492 0.468736 0.000000
0.755647 0.468736 0.000000
0.788857 0.468736 0.000000
0.820121 0.468736 0.000000
0.849440 0.468736 0.000000
0.876808 0.468736 0.000000
0.902208 0.468736 0.000000
0.925675 0.468736 0.000000
0.947182 0.468736 0.000000
0.966742 0.468736 0.000000
0.984343 0.468736 0.000000
1.000000 0.468736 0.000000
0.000000 0.749726 0.000000
0.031249 0.734116 0.000000
0.062498 0.718492 0.000000
0.093747 0.702867 0.000000
0.124996 0.687243 0.000000
0.156245 0.671618 0.000000
0.187494 0.655994 0.000000
0.218744 0.640369 0.000000
0.249993 0.624745 0.000000
0.281242 0.609120 0.000000
0.312491 0.593495 0.000000
0.343740 0.577871 0.000000
0.374989 0.562246 0.000000
0.406238 0.546622 0.000000
0.437487 0.530997 0.000000
0.468736 0.515373 0.000000
0.503906 0.503906 0.000000
0.545657 0.500000 0.000000
0.589598 0.500000 0.000000
0.631593 0.500000 0.000000
0.671642 0.500000 0.000000
0.709741 0.500000 0.000000
0.745880 0.500000 0.000000
0.780064 0.500000 0.000000
0.812302 0.500000 0.000000
0.842594 0.500000 0.000000
0.870938 0.500000 0.000000
0.897325 0.500000 0.000000
0.921764 0.500000 0.000000
0.944245 0.500000 0.000000
0.964780 0.500000 0.000000
0.983355 0.500000 0.000000
1.000000 0.500000 0.000000
0.000000 0.780017 0.000000
0.031249 0.765381 0.000000
0.062498 0.750745 0.000000
0.093747 0.736081 0.000000
0.124996 0.721443 0.000000
0.156245 0.706793 0.000000
0.187494 0.692143 0.000000
0.218744 0.677491 0.000000
0.249993 0.662852 0.000000
0.281242 0.648206 0.000000
0.312491 0.633554 0.000000
0.343740 0.618904 0.000000
0.374989 0.604253 0.000000
0.406238 0.589611 0.000000
0.437487 0.574957 0.000000
0.468736 0.560308 0.000000
0.500000 0.545657 0.000000
0.534889 0.534889 0.000000
0.575920 0.531264 0.000000
0.618889 0.531264 0.000000
0.659912 0.531264 0.000000
0.698990 0.531264 0.000000
0.736113 0.531264 0.000000
0.771274 0.531264 0.000000
0.804496 0.531264 0.000000
0.835762 0.531264 0.000000
0.865081 0.531264 0.000000
0.892442 0.531264 0.000000
0.917854 0.531264 0.000000
0.941309 0.531264 0.000000
0.962818 0.531264 0.000000
0.982382 0.531264 0.000000
1.000000 0.531264 0.000000
0.000000 0.808348 0.000000
0.031249 0.794685 0.000000
0.062498 0.781011 0.000000
0.093747 0.767332 0.000000
0.124996 0.753668 0.000000
0.156245 0.740006 0.000000
0.187494 0.726319 0.000000
0.218744 0.712651 0.000000
0.249993 0.698989 0.000000
0.281242 0.685315 0.000000
0.312491 0.671638 0.000000
0.343740 0.657960 0.000000
0.374989 0.644292 0.000000
0.406238 0.630630 0.000000
0.437487 0.616951 0.000000
0.468736 0.603275 0.000000
0.500000 0.589598 0.000000
0.531264 0.575920 0.000000
0.565840 0.565840 0.000000
0.606200 0.562513 0.000000
0.648197 0.562513 0.000000
0.688249 0.562513 0.000000
0.726346 0.562513 0.000000
0.762485 0.562513 0.000000
0.796693 0.562513 0.000000
0.828933 0.562513 0.000000
0.859224 0.562513 0.000000
0.887558 0.562513 0.000000
0.913948 0.562513 0.000000
0.938387 0.562513 0.000000
0.960870 0.562513 0.000000
0.981408 0.562513 0.000000
1.000000 0.562513 0.000000
0.000000 0.834721 0.000000
0.031249 0.822032 0.000000
0.062498 0.809327 0.000000
0.093747 0.796637 0.000000
0.124996 0.783949 0.000000
0.156245 0.771250 0.000000
0.187494 0.758545 0.000000
0.218744 0.745853 0.000000
0.249993 0.733164 0.000000
0.281242 0.720476 0.000000
0.312491 0.707775 0.000000
0.343740 0.695081 0.000000
0.374989 0.682385 0.000000
0.406238 0.669691 0.000000
0.437487 0.656993 0.000000
0.468736 0.644296 0.000000
0.500000 0.631593 0.000000
0.531264 0.618889 0.000000
0.562513 0.606200 0.000000
0.596773 0.596773 0.000000
0.636483 0.593762 0.000000
0.677508 0.593762 0.000000
0.716583 0.593762 0.000000
0.753701 0.593762 0.000000
0.788873 0.593762 0.000000
0.822087 0.593762 0.000000
0.853356 0.593762 0.000000
0.882675 0.593762 0.000000
0.910037 0.593762 0.000000
0.935466 0.593762 0.000000
0.958923 0.593762 0.000000
0.980434 0.593762 0.000000
1.000000 0.593762 0.000000
0.000000 0.859131 0.000000
0.031249 0.847416 0.000000
0.062498 0.835701 0.000000
0.093747 0.823987 0.000000
0.124996 0.812272 0.000000
0.156245 0.800541 0.000000
0.187494 0.788824 0.000000
0.218744 0.777109 0.000000
0.249993 0.765394 0.000000
0.281242 0.753680 0.000000
0.312491 0.741965 0.000000
0.343740 0.730250 0.000000
0.374989 0.718523 0.000000
0.406238 0.706802 0.000000
0.437487 0.695087 0.000000
0.468736 0.683372 0.000000
0.500000 0.671642 0.000000
0.531264 0.659912 0.000000
0.562513 0.648197 0.000000
0.593762 0.636483 0.000000
0.627694 0.627694 0.000000
0.666767 0.625011 0.000000
0.706821 0.625011 0.000000
0.744920 0.625011 0.000000
0.781057 0.625011 0.000000
0.815253 0.625011 0.000000
0.847495 0.625011 0.000000
0.877791 0.625011 0.000000
0.906141 0.625011 0.000000
0.932534 0.625011 0.000000
0.956976 0.625011 0.000000
0.979460 0.625011 0.000000
1.000000 0.625011 0.000000
0.000000 0.881595 0.000000
0.031249 0.870855 0.000000
0.062498 0.860124 0.000000
0.093747 0.849383 0.000000
0.124996 0.838642 0.000000
0.156245 0.827901 0.000000
0.187494 0.817161 0.000000
0.218744 0.806420 0.000000
0.249993 0.795679 0.000000
0.281242 0.784938 0.000000
0.312491 0.774197 0.000000
0.343740 0.763456 0.000000
0.374989 0.752715 0.000000
0.406238 0.741974 0.000000
0.437487 0.731233 0.000000
0.468736 0.720492 0.000000
0.500000 0.709741 0.000000
0.531264 0.698990 0.000000
0.562513 0.688249 0.000000
0.593762 0.677508 0.000000
0.625011 0.666767 0.000000
0.658608 0.658608 0.000000
0.697054 0.656260 0.000000
0.736130 0.656260 0.000000
0.773250 0.656260 0.000000
0.808426 0.656260 0.000000
0.841642 0.656260 0.000000
0.872912 0.656260 0.000000
0.902234 0.656260 0.000000
0.929596 0.656260 0.000000
0.955028 0.656260 0.000000
0.978486 0.656260 0.000000
1.000000 0.656260 0.000000
0.000000 0.902115 0.000000
0.031249 0.892348 0.000000
0.062498 0.882609 0.000000
0.093747 0.872844 0.000000
0.124996 0.863077 0.000000
0.156245 0.853309 0.000000
0.187494 0.843543 0.000000
0.218744 0.833775 0.000000
0.249993 0.824008 0.000000
0.281242 0.814241 0.000000
0.312491 0.804480 0.000000
0.343740 0.794716 0.000000
0.374989 0.784949 0.000000
0.406238 0.775182 0.000000
0.437487 0.765415 0.000000
0.468736 0.755647 0.000000
0.500000 0.745880 0.000000
0.531264 0.736113 0.000000
0.562513 0.726346 0.000000
0.593762 0.716582 0.000000
0.625011 0.706821 0.000000
0.656260 0.697054 0.000000
0.689522 0.689522 0.000000
0.727342 0.687509 0.000000
0.765445 0.687509 0.000000
0.801582 0.687509 0.000000
0.835779 0.687509 0.000000
0.868023 0.687509 0.000000
0.898322 0.687509 0.000000
0.926674 0.687509 0.000000
0.953071 0.687509 0.000000
0.977513 0.687509 0.000000
1.000000 0.687509 0.000000
0.000000 0.920688 0.000000
0.031249 0.911895 0.000000
0.062498 0.903122 0.000000
0.093747 0.894338 0.000000
0.124996 0.885545 0.000000
0.156245 0.876752 0.000000
0.187494 0.867959 0.000000
0.218744 0.859172 0.000000
0.249993 0.850381 0.000000
0.281242 0.841587 0.000000
0.312491 0.832809 0.000000
0.343740 0.824022 0.000000
0.374989 0.815234 0.000000
0.406238 0.806444 0.000000
0.437487 0.797650 0.000000
0.468736 0.788857 0.000000
0.500000 0.780064 0.000000
0.531264 0.771274 0.000000
0.562513 0.762485 0.000000
0.593762 0.753701 0.000000
0.625011 0.744920 0.000000
0.656260 0.736130 0.000000
0.687509 0.727342 0.000000
0.720443 0.720443 0.000000
0.757627 0.718758 0.000000
0.794747 0.718758 0.000000
0.829928 0.718758 0.000000
0.863147 0.718758 0.000000
0.894426 0.718758 0.000000
0.923743 0.718758 0.000000
0.951105 0.718758 0.000000
0.976539 0.718758 0.000000
1.000000 0.718758 0.000000
0.000000 0.937310 0.000000
0.031249 0.929497 0.000000
0.062498 0.921677 0.000000
0.093747 0.913879 0.000000
0.124996 0.906068 0.000000
0.156245 0.898249 0.000000
0.187494 0.890429 0.000000
0.218744 0.882634 0.000000
0.249993 0.874821 0.000000
0.281242 0.867001 0.000000
0.312491 0.859187 0.000000
0.343740 0.851369 0.000000
0.374989 0.843564 0.000000
0.406238 0.835758 0.000000
0.437487 0.827941 0.000000
0.468736 0.820121 0.000000
0.500000 0.812302 0.000000
0.531264 0.804496 0.000000
0.562513 0.796693 0.000000
0.593762 0.788873 0.000000
0.625011 0.781057 0.000000
0.656260 0.773250 0.000000
0.687509 0.765445 0.000000
0.718758 0.757627 0.000000
0.751375 0.751375 0.000000
0.787920 0.750007 0.000000
0.824063 0.750007 0.000000
0.858258 0.750007 0.000000
0.890521 0.750007 0.000000
0.920801 0.750007 0.000000
0.949157 0.750007 0.000000
0.975566 0.750007 0.000000
1.000000 0.750007 0.000000
0.000000 0.951969 0.000000
0.031249 0.945146 0.000000
0.062498 0.938301 0.000000
0.093747 0.931462 0.000000
0.124996 0.924637 0.000000
0.156245 0.917800 0.000000
0.187494 0.910955 0.000000
0.218744 0.904133 0.000000
0.249993 0.897294 0.000000
0.281242 0.890448 0.000000
0.312491 0.883623 0.000000
0.343740 0.876786 0.000000
0.374989 0.869945 0.000000
0.406238 0.863116 0.000000
0.437487 0.856283 0.000000
0.468736 0.849440 0.000000
0.500000 0.842594 0.000000
0.531264 0.835762 0.000000
0.562513 0.828933 0.000000
0.593762 0.822087 0.000000
0.625011 0.815253 0.000000
0.656260 0.808426 0.000000
0.687509 0.801582 0.000000
0.718758 0.794747 0.000000
0.750007 0.787920 0.000000
0.782326 0.782326 0.000000
0.818214 0.781257 0.000000
0.853380 0.781256 0.000000
0.886606 0.781256 0.000000
0.917880 0.781256 0.000000
0.947208 0.781256 0.000000
0.974585 0.781256 0.000000
1.000000 0.781256 0.000000
0.000000 0.964701 0.000000
0.031249 0.958829 0.000000
0.062498 0.952962 0.000000
0.093747 0.947112 0.000000
0.124996 0.941248 0.000000
0.156245 0.935397 0.000000
0.187494 0.929533 0.000000
0.218744 0.923682 0.000000
0.249993 0.917820 0.000000
0.281242 0.911949 0.000000
0.312491 0.906098 0.000000
0.343740 0.900235 0.000000
0.374989 0.894382 0.000000
0.406238 0.888521 0.000000
0.437487 0.882667 0.000000
0.468736 0.876808 0.000000
0.500000 0.870938 0.000000
0.531264 0.865081 0.000000
0.562513 0.859224 0.000000
0.593762 0.853356 0.000000
0.625011 0.847495 0.000000
0.656260 0.841642 0.000000
0.687509 0.835779 0.000000
0.718758 0.829928 0.000000
0.750007 0.824063 0.000000
0.781256 0.818214 0.000000
