ml_luts/parasitic_vlog__lut3d_33.cube
TITLE "Generated by Resolve"
# META ml: transfer aesthetic
# META author: jlxD
LUT_3D_SIZE 33
0 0 0
0 0 0
0 0 0
0.00782788 0 0
0.0454414 0 0
0.0771344 0 0
0.105898 0 0
0.137789 0 0
0.175372 0 0
0.22005 0 0
0.271214 0 0
0.328206 0 0
0.39115 0 0
0.457633 0 0
0.525612 0 0
0.594247 0 0
0.661143 0 0
0.72253 0 0
0.775723 0 0
0.841611 0 0
0.918303 0 0
0.989059 0 0
1 0 0
1 0 0
1 0 0
1 0 0
1 0 0
1 0 0
1 0 0
1 0 0
1 0 0
1 0 0
1 0 0
0 0 0
0 0 0
0 0 0
0.00259403 0 0
0.0407111 0 0
0.073106 0 0
0.102068 0 0
0.13434 0 0
0.17203 0 0
0.216953 0 0
0.26804 0 0
0.3252 0 0
0.388174 0 0
0.454963 0 0
0.523171 0 0
0.592096 0 0
0.659159 0 0
0.720974 0 0
0.774655 0 0
0.838453 0 0
0.914855 0 0
0.985351 0 0
1 0 0
1 0 0
1 0 0
1 0 0
1 0 0
1 0 0
1 0 0
1 0 0
1 0 0
1 0 0
1 0 0
0 0.00677501 0
0 0.00619516 0
0 0.00440986 0
0 0.000946059 0
0.0260319 0 0
0.0594339 0 0
0.0895857 0 0
0.122454 0 0
0.161364 0 0
0.206897 0 0
0.258686 0 0
0.316518 0 0
0.38027 0 0
0.448005 0 0
0.51693 0 0
0.58648 0 0
0.654398 0 0
0.717159 0 0
0.772076 0 0
0.829358 0 0
0.904723 0 0
0.97409 0 0
1 0 0
1 0 0
1 0 0
1 0 0
1 0 0
1 0 0
1 0 0
1 0 0
1 0 0
1 0 0
1 0 0
0 0.0210117 0
0 0.0202945 0
0 0.0182345 0
0 0.01561 0
0.0115663 0.00982681 0
0.044892 0.00370794 0
0.0756695 0 0
0.109422 0 0
0.149218 0 0
0.195911 0 0
0.248768 0 0
0.307622 0 0
0.371969 0 0
0.440482 0 0
0.510353 0 0
0.58056 0 0
0.649042 0 0
0.71284 0 0
0.769238 0 0
0.819608 0 0
0.893751 0 0
0.961929 0 0
1 0 0
1 0 0
1 0 0
1 0 0
1 0 0
1 0 0
1 0 0
1 0 0
1 0 0
1 0 0
1 0 0
0 0.0360723 0
0 0.0352331 0
0 0.0332189 0
0 0.0310521 0
0 0.0270695 0
0.0287785 0.0212406 0
0.0592355 0.0158083 0
0.0940108 0.00961318 0
0.135378 0.00195315 0
0.183398 0 0
0.237552 0 0
0.297368 0 0
0.362509 0 0
0.43183 0 0
0.50251 0 0
0.573602 0 0
0.642878 0 0
0.707561 0 0
0.76527 0 0
0.813947 0 0
0.88159 0 0
0.948577 0 0
1 0 0
1 0 0
1 0 0
1 0 0
1 0 0
1 0 0
1 0 0
1 0 0
1 0 0
1 0 0
1 0 0
0 0.0512551 0
0 0.0503243 0
0 0.0485695 0
0 0.0469062 0
0 0.0442512 0
0.0134585 0.0391852 0
0.0428931 0.034226 0
0.0770581 0.0282292 0
0.119127 0.0208286 0
0.168338 0.0119326 0
0.224323 0.00177005 0
0.286168 0 0
0.352514 0 0
0.422324 0 0
0.493965 0 0
0.565728 0 0
0.63563 0 0
0.701244 0 0
0.760327 0 0
0.810437 0 0
0.868971 0 0
0.93492 0 0
0.993683 0 0
1 0 0
1 0 0
1 0 0
1 0 0
1 0 0
1 0 0
1 0 0
1 0 0
1 0 0
1 0 0
0 0.0657054 0
0 0.0648203 0
0 0.0632639 0
0 0.0618906 0
0 0.0597543 0
0 0.0558022 0
0.0283665 0.0512093 0
0.0619516 0.0459144 0
0.103578 0.038819 0
0.153262 0.0300145 0
0.210361 0.0197299 0
0.273747 0.00842298 0
0.341756 0 0
0.413123 0 0
0.485557 0 0
0.557778 0 0
0.628351 0 0
0.694621 0 0
0.754879 0 0
0.806653 0 0
0.857359 0 0
0.922637 0 0
0.980957 0 0
1 0 0
1 0 0
1 0 0
1 0 0
1 0 0
1 0 0
1 0 0
1 0 0
1 0 0
1 0 0
0 0.0822919 0
0 0.0814069 0
0 0.0800641 0
0 0.079118 0
0 0.0775616 0
0 0.0750134 0
0.0129091 0.0704356 0
0.045182 0.0655222 0
0.0859388 0.0590982 0
0.135576 0.0507973 0
0.193652 0.0408179 0
0.258396 0.0294652 0
0.32781 0.0173648 0
0.400702 0.00500496 0
0.475059 0 0
0.548745 0 0
0.619669 0 0
0.686717 0 0
0.748272 0 0
0.801526 0 0
0.846052 0 0
0.909712 0 0
0.968032 0 0
1 0 0
1 0 0
1 0 0
1 0 0
1 0 0
1 0 0
1 0 0
1 0 0
1 0 0
1 0 0
0 0.102892 0
0 0.10222 0
0 0.100969 0
0 0.100359 0
0 0.0992905 0
0 0.0974441 0
0 0.0940871 0
0.0267033 0.0895857 0
0.0658732 0.0838483 0
0.114427 0.0763409 0
0.172396 0.0667735 0
0.238315 0.0557107 0
0.309468 0.0437629 0
0.384054 0.0312963 0
0.460136 0.0189822 0
0.53579 0.00743114 0
0.608881 0 0
0.677226 0 0
0.740017 0 0
0.795361 0 0
0.84213 0 0
0.896208 0 0
0.954833 0 0
1 0 0
1 0 0
1 0 0
1 0 0
1 0 0
1 0 0
1 0 0
1 0 0
1 0 0
1 0 0
0 0.127932 0
0 0.127245 0
0 0.126589 0
0 0.126299 0
0 0.125582 0
0 0.124361 0
0 0.122362 0
0.00640879 0.11809 0
0.0443732 0.113207 0
0.0909743 0.106645 0
0.147662 0.0979629 0
0.21355 0.0873426 0
0.285954 0.0756085 0
0.362524 0.0633555 0
0.440726 0.0510109 0
0.518502 0.0392462 0
0.593866 0.0287785 0
0.664744 0.0199741 0
0.730526 0.0127718 0
0.788861 0.00793469 0
0.838483 0.00553903 0
0.884215 0.00450141 0
0.943221 0.000198367 0
0.996414 0 0
1 0 0
1 0 0
1 0 0
1 0 0
1 0 0
1 0 0
1 0.000518807 0
1 0.00190738 0
1 0.00288396 0
0 0.157824 0
0 0.157244 0
0 0.15697 0
0 0.157092 0
0 0.156832 0
0 0.156161 0
0 0.154803 0
0 0.152041 0
0.0214389 0.147341 0
0.0662699 0.141741 0
0.12079 0.134356 0
0.185382 0.124834 0
0.257877 0.113664 0
0.335897 0.10164 0
0.41648 0.0894789 0
0.497047 0.0776379 0
0.575219 0.0668803 0
0.649073 0.0579232 0
0.718059 0.05066 0
0.779889 0.0453498 0
0.833265 0.0426184 0
0.878599 0.0421759 0
0.934157 0.0393835 0
0.988876 0.0366217 0
1 0.0352178 0
1 0.0348974 0
1 0.0356451 0
1 0.0365148 0
1 0.037705 0
1 0.039353 0
1 0.0406806 0
1 0.0421454 0
1 0.0434424 0
0 0.192676 0
0 0.192355 0
0 0.19234 0
0 0.192905 0
0 0.193057 0
0 0.192706 0
0 0.192065 0
0 0.190402 0
0 0.186496 0
0.0419471 0.181735 0
0.0937514 0.175662 0
0.155779 0.167666 0
0.22707 0.157687 0
0.305455 0.146304 0
0.388022 0.134401 0
0.471656 0.122652 0
0.553307 0.111696 0
0.630716 0.102373 0
0.703395 0.0948196 0
0.769039 0.0890516 0
0.826383 0.0859236 0
0.875578 0.0851606 0
0.92578 0.0843824 0
0.982193 0.0818952 0
1 0.0806287 0
1 0.0804456 0
1 0.0811017 0
1 0.0825666 0
1 0.0839704 0
1 0.0855726 0
1 0.0872969 0
1 0.0889296 0
1 0.0900282 0
0 0.231998 0
0 0.23209 0
0 0.232822 0
0 0.23357 0
0 0.234089 0
0 0.234318 0
0 0.233997 0
0 0.233265 0
0 0.231006 0
0.018555 0.226535 0
0.0682994 0.221836 0
0.127092 0.215442 0
0.196185 0.207019 0
0.273548 0.196841 0
0.357 0.18558 0
0.443275 0.17406 0
0.528328 0.162768 0
0.609689 0.153094 0
0.686473 0.145144 0
0.756573 0.1393 0
0.818082 0.13576 0
0.871168 0.134508 0
0.918883 0.134844 0
0.976776 0.132769 0
1 0.131853 0
1 0.132006 0
1 0.133028 0
1 0.134524 0
1 0.136614 0
1 0.138354 0
1 0.140368 0
1 0.141787 0
1 0.143343 0
0 0.276127 0
0 0.276982 0
0 0.278233 0
0 0.279454 0
0 0.280598 0
0 0.281041 0
0 0.281346 0
0 0.281132 0
0 0.280079 0
0 0.276799 0
0.0441749 0.272923 0
0.100191 0.267933 0
0.166217 0.261204 0
0.241382 0.252613 0
0.324361 0.242435 0
0.412146 0.231464 0
0.500618 0.2206 0
0.585977 0.210712 0
0.667033 0.202319 0
0.741222 0.195804 0
0.80679 0.191775 0
0.863523 0.190097 0
0.911467 0.190707 0
0.968902 0.189364 0
1 0.188891 0
1 0.18941 0
1 0.190997 0
1 0.192874 0
1 0.194873 0
1 0.197223 0
1 0.199039 0
1 0.200961 0
1 0.202228 0
0 0.325582 0
0 0.327337 0
0 0.329259 0
0 0.331044 0
0 0.332586 0
0 0.333486 0
0 0.334249 0
0 0.334585 0
0 0.3346 0
0 0.333089 0
0.0210727 0.329442 0
0.0747387 0.325658 0
0.137392 0.320562 0
0.210239 0.313497 0
0.291554 0.304692 0
0.379446 0.294652 0
0.469505 0.284337 0
0.558587 0.274342 0
0.643381 0.265629 0
0.721584 0.25893 0
0.790997 0.254582 0
0.851194 0.252247 0
0.90251 0.252445 0
0.958129 0.251743 0
1 0.251682 0
1 0.25272 0
1 0.254292 0
1 0.256275 0
1 0.258503 0
1 0.260945 0
1 0.262898 0
1 0.264912 0
1 0.266636 0
0 0.381064 0
0 0.383795 0
0 0.386511 0
0 0.388708 0
0 0.390646 0
0 0.391852 0
0 0.393042 0
0 0.393774 0
0 0.394491 0
0 0.394156 0
0 0.391577 0
0.0500954 0.388815 0
0.110811 0.385016 0
0.180575 0.379446 0
0.259876 0.37174 0
0.346456 0.36289 0
0.436912 0.353063 0
0.527916 0.343313 0
0.615595 0.334493 0
0.696925 0.327474 0
0.770031 0.322591 0
0.833936 0.319905 0
0.888487 0.319448 0
0.944533 0.319097 0
0.997192 0.319219 0
1 0.320256 0
1 0.321981 0
1 0.324086 0
1 0.326726 0
1 0.328923 0
1 0.331319 0
1 0.333013 0
1 0.334768 0
0 0.443122 0
0 0.446479 0
0 0.449714 0
0 0.452186 0
0 0.454337 0
0 0.455833 0
0 0.457267 0
0 0.458244 0
0 0.459358 0
0 0.459709 0
0 0.458762 0
0.0283207 0.45594 0
0.0869764 0.452903 0
0.154864 0.448264 0
0.231479 0.442008 0
0.316106 0.43418 0
0.405722 0.425132 0
0.497032 0.415763 0
0.586328 0.407065 0
0.669871 0.399878 0
0.746059 0.394507 0
0.813046 0.391287 0
0.870604 0.390204 0
0.928801 0.389609 0
0.981888 0.389807 0
1 0.390921 0
1 0.392691 0
1 0.394995 0
1 0.397452 0
1 0.399634 0
1 0.402014 0
1 0.403723 0
1 0.405463 0
0 0.511376 0
0 0.515343 0
0 0.51812 0
0 0.520714 0
0 0.522469 0
0 0.524178 0
0 0.5252 0
0 0.526558 0
0 0.527611 0
0 0.528359 0
0 0.528161 0
0.0103609 0.525673 0
0.0679332 0.52314 0
0.133242 0.519326 0
0.207553 0.513909 0
0.289586 0.507088 0
0.377447 0.499123 0
0.467689 0.490181 0
0.55729 0.481758 0
0.64213 0.474495 0
0.720287 0.468772 0
0.789654 0.465019 0
0.850767 0.463218 0
0.911192 0.462318 0
0.964614 0.46244 0
1 0.463493 0
1 0.465202 0
1 0.467597 0
1 0.469764 0
1 0.471855 0
1 0.474159 0
1 0.476158 0
1 0.477485 0
0 0.583673 0
0 0.586633 0
0 0.589334 0
0 0.591226 0
0 0.593088 0
0 0.594385 0
0 0.595544 0
0 0.596765 0
0 0.59765 0
0 0.598642 0
0 0.598642 0
0 0.596613 0
0.0546578 0.594324 0
0.117891 0.590967 0
0.189136 0.586328 0
0.268513 0.580224 0
0.353948 0.572961 0
0.442618 0.564736 0
0.530877 0.556588 0
0.616281 0.549203 0
0.695384 0.543191 0
0.766262 0.538994 0
0.832258 0.536599 0
0.892958 0.535485 0
0.946593 0.535409 0
0.992889 0.536248 0
1 0.537758 0
1 0.539956 0
1 0.541924 0
1 0.544137 0
1 0.545998 0
1 0.547875 0
1 0.549111 0
0 0.656229 0
0 0.658824 0
0 0.66067 0
0 0.66247 0
0 0.663691 0
0 0.664927 0
0 0.665995 0
0 0.666712 0
0 0.667735 0
0 0.668345 0
0 0.66865 0
0 0.667063 0
0.0491493 0.664515 0
0.10985 0.661677 0
0.178485 0.657359 0
0.25452 0.651835 0
0.33695 0.645106 0
0.423346 0.637522 0
0.510201 0.629374 0
0.594766 0.622003 0
0.673793 0.615717 0
0.746838 0.611383 0
0.814664 0.608774 0
0.875441 0.607324 0
0.929137 0.606882 0
0.975464 0.607385 0
1 0.608789 0
1 0.610529 0
1 0.612222 0
1 0.614282 0
1 0.615869 0
1 0.617578 0
1 0.618952 0
0 0.727794 0
0 0.72961 0
0 0.731273 0
0 0.732219 0
0 0.733394 0
0 0.734371 0
0 0.734783 0
0 0.735592 0
0 0.7364 0
0 0.736629 0
0 0.736873 0
0.000167849 0.735424 0
0.0518044 0.732677 0
0.109407 0.730053 0
0.174701 0.725963 0
0.247364 0.720729 0
0.32697 0.714168 0
0.410452 0.706859 0
0.495308 0.699229 0
0.578317 0.691829 0
0.65687 0.685817 0
0.730541 0.681437 0
0.798184 0.678431 0
0.858854 0.676555 0
0.912413 0.675669 0
0.958846 0.676005 0
0.998077 0.676951 0
1 0.678187 0
1 0.679545 0
1 0.681331 0
1 0.682673 0
1 0.684169 0
1 0.685481 0
0 0.800015 0
0 0.800565 0
0 0.801389 0
0 0.802075 0
0 0.802472 0
0 0.802579 0
0 0.802884 0
0 0.803067 0
0 0.802899 0
0 0.802716 0
0 0.801953 0
0.0164492 0.799634 0
0.0631876 0.797177 0
0.117418 0.794476 0
0.179004 0.790463 0
0.248371 0.785229 0
0.323888 0.778912 0
0.403998 0.771725 0
0.485435 0.764767 0
0.566003 0.758404 0
0.643992 0.752621 0
0.717189 0.747906 0
0.78439 0.744411 0
0.844678 0.742046 0
0.897917 0.740658 0
0.943725 0.740276 0
0.982727 0.740627 0
1 0.741512 0
1 0.74287 0
1 0.743969 0
1 0.745388 0
1 0.746319 0
1 0.747448 0
0 0.867109 0
0 0.867552 0
0 0.867933 0
0 0.867826 0
0 0.867979 0
0 0.868055 0
0 0.868116 0
0 0.868055 0
0 0.867384 0
0 0.86685 0
0 0.865599 0
0.0330205 0.862562 0
0.0772412 0.859434 0
0.128145 0.856321 0
0.186801 0.851881 0
0.252445 0.846632 0
0.323934 0.840589 0
0.400519 0.833814 0
0.479194 0.826993 0
0.557916 0.82034 0
0.634195 0.814237 0
0.706188 0.809033 0
0.772793 0.804959 0
0.832593 0.802075 0
0.885206 0.800198 0
0.930556 0.799283 0
0.969345 0.799115 0
1 0.799908 0
1 0.800595 0
1 0.801694 0
1 0.802518 0
1 0.80354 0
1 0.80415 0
0 0.928313 0
0 0.928374 0
0 0.928023 0
0 0.927977 0
0 0.927855 0
0 0.927626 0
0 0.927352 0
0 0.926757 0
0 0.92604 0
0 0.924987 0
0.021912 0.922774 0
0.0556191 0.920089 0
0.0958419 0.917357 0
0.142901 0.913634 0
0.19733 0.909178 0
0.259388 0.903777 0
0.327901 0.897856 0
0.401282 0.890929 0
0.477134 0.883818 0
0.553887 0.876631 0
0.628443 0.870283 0
0.698909 0.8645 0
0.76405 0.859831 0
0.82324 0.856367 0
0.875242 0.854261 0
0.92018 0.852796 0
0.95848 0.852094 0
0.990097 0.852125 0
1 0.852781 0
1 0.853254 0
1 0.854139 0
1 0.854643 0
1 0.855375 0
0 0.98201 0
0 0.981521 0
0 0.981125 0
0 0.980819 0
0 0.980362 0
0 0.979934 0
0 0.979431 0
0 0.978653 0
0.00918593 0.977081 0
0.0297398 0.975387 0
0.0542306 0.973587 0
0.0835431 0.971084 0
0.120089 0.968246 0
0.163043 0.964431 0
0.214069 0.960098 0
0.271916 0.954635 0
0.336492 0.948272 0
0.406302 0.941176 0
0.479393 0.933684 0
0.553094 0.926436 0
0.625452 0.919676 0
0.694697 0.913497 0
0.758526 0.9084 0
0.81651 0.904463 0
0.867689 0.901686 0
0.912169 0.899947 0
0.949889 0.898939 0
0.98117 0.898451 0
1 0.898436 0
1 0.898909 0
1 0.899275 0
1 0.899886 0
1 0.90045 0
0 1 0
0 1 0
0 1 0
0 1 0
0.00944533 1 0
0.0192111 1 0
0.0277714 1 0
0.0383307 1 0
0.0514229 1 0
0.0679026 1 0
0.0887617 1 0
0.115724 1 0
0.148226 1 0
0.18761 1 0
0.234257 1 0
0.28864 0.99855 0
0.349157 0.992172 0
0.415229 0.985031 0
0.484901 0.977417 0
0.556008 0.969772 0
0.62591 0.962722 0
0.692927 0.956374 0
0.755611 0.95079 0
0.8121 0.946365 0
0.862486 0.943053 0
0.906157 0.940795 0
0.943389 0.939605 0
0.974304 0.938704 0
0.999527 0.938293 0
1 0.938415 0
1 0.938552 0
1 0.938979 0
1 0.939406 0
0.0262455 1 0
0.0347448 1 0
0.0425422 1 0
0.0504768 1 0
0.0577554 1 0
0.0652628 1 0
0.0722515 1 0
0.0811627 1 0
0.0921492 1 0
0.106874 1 0
0.125704 1 0
0.149279 1 0
0.178592 1 0
0.214801 1 0
0.257862 1 0
0.308156 1 0
0.364752 1 0
0.426963 1 0
0.493202 1 0
0.561242 1 0
0.62858 0.999313 0
0.693797 0.992569 0
0.754559 0.986877 0
0.810132 0.982055 0
0.859556 0.978424 0
0.90248 0.975814 0
0.938903 0.974029 0
0.969406 0.972885 0
0.994507 0.972473 0
1 0.972045 0
1 0.972152 0
1 0.972091 0
1 0.972351 0
0.0750591 1 0
0.0821088 1 0
0.0887312 1 0
0.0955825 1 0
0.101884 1 0
0.108461 1 0
0.114519 1 0
0.122301 1 0
0.131807 1 0
