ml_luts/parasitic_vlog__lut3d_33.cube
TITLE "Generated by Resolve"
# META ml: transfer aesthetic
# META author: jlxD
LUT_3D_SIZE 5
0 0 0
0.175372 0 0
0.661143 0 0
1 0 0
1 0 0
0 0.102892 0
0.0658732 0.0838483 0
0.608881 0 0
1 0 0
1 0 0
0 0.443122 0
0 0.459358 0
0.405722 0.425132 0
0.981888 0.389807 0
1 0.405463 0
0 0.98201 0
0.00918593 0.977081 0
0.336492 0.948272 0
0.867689 0.901686 0
1 0.90045 0
0.240375 1 0
0.276539 1 0
0.455497 1 0
0.861738 1 0
1 1 0
0 0 0.158877
0.135332 0 0.144686
0.668162 0 0.0144503
1 0 0
1 0 0
0 0.0938735 0.0806287
0.0448615 0.0856794 0.0724193
0.620356 0 0
1 0 0
1 0 0
0 0.447578 0
0 0.465873 0
0.413657 0.435676 0
0.996918 0.399069 0
1 0.416358 0
0 0.987533 0
0.0143893 0.982513 0
0.339574 0.953216 0
0.870741 0.905257 0
1 0.903151 0
0.240299 1 0
0.276463 1 0
0.455467 1 0
0.861738 1 0
1 1 0
0 0 0.778088
0.0485389 0 0.759243
0.576211 0 0.652827
1 0 0.468559
1 0 0.443168
0 0.0846418 0.671992
0.00791943 0.0813611 0.656214
0.535943 0.0142977 0.59649
1 0 0.467475
1 0 0.467048
0 0.435767 0.43917
0 0.454444 0.457847
0.364569 0.441123 0.444541
1 0.380606 0.377295
1 0.403647 0.400626
0 0.985031 0.307774
0 0.982925 0.300328
0.296681 0.959396 0.247868
0.863325 0.900954 0.148302
1 0.890639 0.158175
0.211185 1 0.209018
0.245609 1 0.201831
0.420478 1 0.162936
0.84036 1 0.0949264
1 1 0.0973831
0 0.113893 1
0 0.122621 1
0.430365 0.0917067 1
1 0.0497902 1
1 0.061387 1
0 0.187243 1
0 0.200198 1
0.418067 0.174197 1
1 0.134249 1
1 0.151308 1
0 0.463172 1
0 0.487587 1
0.33724 0.475105 1
1 0.418387 1
1 0.426963 1
0 0.972534 0.992584
0 0.968948 0.989029
0.272892 0.939727 0.959899
0.81976 0.877958 0.898268
1 0.850019 0.876402
0.162844 1 0.947173
0.197986 1 0.941695
0.373602 1 0.913588
0.786435 1 0.835966
0.984512 1 0.77145
0 0.3346 1
0 0.35137 1
0.365667 0.345052 1
1 0.302953 1
1 0.318822 1
0 0.371817 1
0 0.391028 1
0.355093 0.385367 1
1 0.340749 1
1 0.354116 1
0 0.550637 1
0 0.578561 1
0.302953 0.571344 1
0.965484 0.515282 1
1 0.515908 1
0 0.987381 1
0 0.983413 1
0.262043 0.952041 1
0.81294 0.884901 1
1 0.859083 1
0.148714 1 1
0.184833 1 1
0.364889 1 1
0.786557 1 1
0.977172 1 1
