ml_luts/parasitic_vlog__lut3d_33.cube
TITLE "Generated by Resolve"
# META ml: transfer aesthetic
# META author: jlxD
LUT_3D_SIZE 9
0 0 0
0.0454414 0 0
0.175372 0 0
0.39115 0 0
0.661143 0 0
0.918303 0 0
1 0 0
1 0 0
1 0 0
0 0.0360723 0
0 0.0270695 0
0.135378 0.00195315 0
0.362509 0 0
0.642878 0 0
0.88159 0 0
1 0 0
1 0 0
1 0 0
0 0.102892 0
0 0.0992905 0
0.0658732 0.0838483 0
0.309468 0.0437629 0
0.608881 0 0
0.84213 0 0
1 0 0
1 0 0
1 0 0
0 0.231998 0
0 0.234089 0
0 0.231006 0
0.196185 0.207019 0
0.528328 0.162768 0
0.818082 0.13576 0
1 0.131853 0
1 0.136614 0
1 0.143343 0
0 0.443122 0
0 0.454337 0
0 0.459358 0
0.0869764 0.452903 0
0.405722 0.425132 0
0.746059 0.394507 0
0.981888 0.389807 0
1 0.397452 0
1 0.405463 0
0 0.727794 0
0 0.733394 0
0 0.7364 0
0.0518044 0.732677 0
0.32697 0.714168 0
0.65687 0.685817 0
0.912413 0.675669 0
1 0.679545 0
1 0.685481 0
0 0.98201 0
0 0.980362 0
0.00918593 0.977081 0
0.120089 0.968246 0
0.336492 0.948272 0
0.625452 0.919676 0
0.867689 0.901686 0
1 0.898436 0
1 0.90045 0
0.118822 1 0
0.142672 1 0
0.169726 1 0
0.239948 1 0
0.399527 1 0
0.638788 1 0
0.857725 1 0
0.988266 1 0
1 1 0
0.240375 1 0
0.257069 1 0
0.276539 1 0
0.329244 1 0
0.455497 1 0
0.661463 1 0
0.861738 1 0
0.985382 1 0
1 1 0
0 0 0.0463569
0.0289158 0 0.0415198
0.166018 0 0.0179141
0.389471 0 0
0.665904 0 0
0.914534 0 0
1 0 0
1 0 0
1 0 0
0 0.0313573 0.0190433
0 0.0246586 0.0121004
0.135348 0 0
0.363317 0 0
0.647654 0 0
0.876204 0 0
1 0 0
1 0 0
1 0 0
0 0.0990463 0
0 0.0965591 0
0.0612039 0.0845197 0
0.313405 0.0432441 0
0.614908 0 0
0.853437 0 0
1 0 0
1 0 0
1 0 0
0 0.230686 0
0 0.233875 0
0 0.23183 0
0.19704 0.209796 0
0.537011 0.165179 0
0.831113 0.138033 0
1 0.137163 0
1 0.142245 0
1 0.149203 0
0 0.445792 0
0 0.457679 0
0 0.462928 0
0.088304 0.457588 0
0.409812 0.430259 0
0.756008 0.398505 0
0.98587 0.394736 0
1 0.402426 0
1 0.410437 0
0 0.731319 0
0 0.736996 0
0 0.739727 0
0.0522774 0.736568 0
0.327214 0.717861 0
0.659205 0.68864 0
0.914702 0.678309 0
1 0.682033 0
1 0.687556 0
0 0.982055 0
0 0.980407 0
0.00907912 0.977127 0
0.120043 0.968292 0
0.336461 0.948333 0
0.625437 0.919722 0
0.867674 0.901717 0
1 0.898482 0
1 0.900496 0
0.118776 1 0
0.142626 1 0
0.16968 1 0
0.239918 1 0
0.399496 1 0
0.638773 1 0
0.857725 1 0
0.988266 1 0
1 1 0
0.24033 1 0
0.257053 1 0
0.276493 1 0
0.329229 1 0
0.455482 1 0
0.661448 1 0
0.861738 1 0
0.985382 1 0
1 1 0
0 0 0.158877
0.0157015 0 0.155703
0.135332 0 0.144686
0.376837 0 0.0915694
0.668162 0 0.0144503
0.909102 0 0
1 0 0
1 0 0
1 0 0
0 0.0289311 0.124437
0 0.0227665 0.119936
0.100679 0.00480659 0.112184
0.354284 0 0.0631418
0.650278 0 0.000579843
0.87837 0 0
1 0 0
1 0 0
1 0 0
0 0.0938735 0.0806287
0 0.0911116 0.0780041
0.0448615 0.0856794 0.0724193
0.315984 0.0409552 0.0215763
0.620356 0 0
0.866453 0 0
1 0 0
1 0 0
1 0 0
0 0.226627 0
0 0.230518 0.00494392
0 0.230304 0.0010071
0.1953 0.211917 0
0.548058 0.16556 0
0.847745 0.138674 0
1 0.142245 0
1 0.147631 0
1 0.154849 0
0 0.447578 0
0 0.460166 0
0 0.465873 0
0.0884108 0.46247 0
0.413657 0.435676 0
0.770718 0.402075 0
0.996918 0.399069 0
1 0.407996 0
1 0.416358 0
0 0.73904 0
0 0.744625 0
0 0.747662 0
0.0521401 0.745129 0
0.32697 0.727047 0
0.665965 0.696788 0
0.919615 0.683726 0
1 0.686992 0
1 0.692393 0
0 0.987533 0
0 0.985809 0
0.0143893 0.982513 0
0.12343 0.973571 0
0.339574 0.953216 0
0.628672 0.923888 0
0.870741 0.905257 0
1 0.901534 0
1 0.903151 0
0.118715 1 0
0.14258 1 0
0.169635 1 0
0.239887 1 0
0.399481 1 0
0.638758 1 0
0.857725 1 0
0.988266 1 0
1 1 0
0.240299 1 0
0.257023 1 0
0.276463 1 0
0.329198 1 0
0.455467 1 0
0.661433 1 0
0.861738 1 0
0.985382 1 0
1 1 0
0 0 0.398444
0 0 0.395575
0.0963912 0 0.388128
0.323308 0 0.354437
0.653056 0 0.257527
0.898024 0 0.160388
1 0 0.119265
1 0 0.105592
1 0 0.103593
0 0.023621 0.357275
0 0.0176242 0.353506
0.0668345 0.00552377 0.348089
0.295949 0 0.323568
0.635111 0 0.237964
0.891722 0 0.15903
1 0 0.128099
1 0 0.123171
1 0 0.125383
0 0.0890059 0.303731
0 0.0869917 0.300328
0.0340429 0.0815595 0.296254
0.257923 0.0487526 0.282414
0.611124 0 0.213107
0.881071 0 0.153384
1 0 0.137179
1 0 0.138079
1 0 0.142931
0 0.218204 0.2094
0 0.22211 0.213489
0 0.223529 0.21503
0.159777 0.216251 0.207767
0.560983 0.160388 0.143252
0.871763 0.135164 0.121019
1 0.140414 0.128145
1 0.15317 0.141344
1 0.160876 0.148943
0 0.444129 0.100511
0 0.45658 0.110552
0 0.463035 0.113359
0.085481 0.463096 0.0985733
0.411673 0.439078 0.0334173
0.794293 0.40116 0.0148165
1 0.396353 0.045655
1 0.41004 0.0792706
1 0.420386 0.0949416
0 0.742519 0.0125429
0 0.748394 0.0145876
0 0.751766 0.0133822
0.0450904 0.750683 0
0.316564 0.734646 0
0.669139 0.702617 0
0.934188 0.685374 0
1 0.687678 0
1 0.693141 0
0 0.991241 0
0 0.989456 0
0.0133364 0.986389 0
0.116808 0.979324 0
0.328771 0.960342 0
0.624964 0.927947 0
0.870222 0.904936 0
1 0.900298 0
1 0.901198 0
0.118135 1 0
0.141802 1 0
0.168582 1 0
0.238834 1 0
0.398322 1 0
0.638437 1 0
0.857359 1 0
0.987121 1 0
1 1 0
0.23975 1 0
0.256275 1 0
0.275624 1 0
0.328237 1 0
0.454978 1 0
0.660807 1 0
0.860899 1 0
0.984283 1 0
1 1 0
0 0 0.778088
0 0 0.770642
0.0485389 0 0.759243
0.245075 0 0.72932
0.576211 0 0.652827
0.876051 0 0.530846
1 0 0.468559
1 0 0.448035
1 0 0.443168
0 0.0214237 0.729992
0 0.0179904 0.722805
0.0287785 0.0104372 0.712642
0.223926 0 0.687434
0.556405 0 0.624338
0.86804 0 0.522637
1 0 0.459968
1 0 0.452293
1 0 0.454047
0 0.0846418 0.671992
0 0.0845808 0.664851
0.00791943 0.0813611 0.656214
0.19823 0.0619211 0.637919
0.535943 0.0142977 0.59649
0.865324 0 0.516045
1 0 0.467475
1 0 0.461433
1 0 0.467048
0 0.212222 0.555413
0 0.218372 0.555749
0 0.221225 0.555856
0.148577 0.213519 0.552789
0.49279 0.171206 0.547616
0.869886 0.131121 0.495384
1 0.132753 0.465415
1 0.150484 0.465156
1 0.164263 0.471458
0 0.435767 0.43917
0 0.448478 0.451896
0 0.454444 0.457847
0.0829938 0.455817 0.459236
0.364569 0.441123 0.444541
0.820798 0.386099 0.382406
1 0.380606 0.377295
1 0.392966 0.389853
1 0.403647 0.400626
0 0.736034 0.360586
0 0.741176 0.364523
0 0.74406 0.365927
0.037232 0.74377 0.360189
0.295583 0.730541 0.325978
0.659602 0.699458 0.241978
0.957748 0.67509 0.224598
1 0.674159 0.241245
1 0.678492 0.253361
0 0.985031 0.307774
0 0.984573 0.304997
0 0.982925 0.300328
0.0894331 0.976898 0.285893
0.296681 0.959396 0.247868
0.596582 0.928206 0.182269
0.863325 0.900954 0.148302
1 0.891478 0.151095
1 0.890639 0.158175
0.0929274 1 0.251575
0.114961 1 0.247532
0.140154 1 0.242817
0.206546 1 0.229465
0.36141 1 0.196185
0.606348 1 0.144549
0.838865 1 0.113893
0.975189 1 0.112367
1 1 0.116854
0.211185 1 0.209018
0.227161 1 0.205676
0.245609 1 0.201831
0.29633 1 0.190646
0.420478 1 0.162936
0.630564 1 0.120653
0.84036 1 0.0949264
0.967803 1 0.0933547
1 1 0.0973831
0 3.0518e-05 1
0 0 1
0 0 1
0.181613 0 1
0.484062 0 0.989761
0.803388 0 0.89543
1 0 0.839521
1 0 0.828717
1 0 0.830152
0 0.0542763 1
0 0.0550088 1
0 0.0548104 1
0.169467 0.0404974 1
0.472679 0.00541695 0.962875
0.805112 0 0.893904
1 0 0.837201
1 0 0.836606
1 0 0.841856
0 0.10808 1
0 0.111162 1
0 0.113069 0.995102
0.156359 0.102358 0.973953
0.461097 0.0695811 0.944015
0.809598 0.0327459 0.897581
1 0.0276188 0.853346
1 0.0383612 0.843381
1 0.0452277 0.850401
0 0.223026 0.913893
0 0.23154 0.914122
0 0.236744 0.916075
0.124575 0.232563 0.916701
0.430762 0.204608 0.914946
0.807813 0.164904 0.896117
1 0.156985 0.865095
1 0.17026 0.854978
1 0.182162 0.85594
0 0.43743 0.811337
0 0.451301 0.825498
0 0.458457 0.833082
0.0656901 0.460395 0.837049
0.35378 0.443565 0.832792
0.753552 0.399512 0.839643
1 0.37966 0.820233
1 0.387518 0.813657
1 0.396429 0.816007
0 0.729992 0.746014
0 0.735149 0.751186
0 0.737591 0.753643
0.0297398 0.736568 0.752651
0.287968 0.721126 0.73727
0.618097 0.693492 0.709728
0.976287 0.652415 0.668711
1 0.649042 0.664347
1 0.652445 0.66743
0 0.974273 0.708415
0 0.972885 0.706645
0 0.970764 0.704067
0.0745251 0.96408 0.69601
0.280552 0.944396 0.672465
0.568765 0.913573 0.623819
0.843427 0.8869 0.545937
1 0.872282 0.522683
1 0.869154 0.522271
0.0665904 1 0.673732
0.0884108 1 0.670542
0.113619 1 0.667079
0.180087 1 0.657084
0.332891 1 0.630716
0.570367 1 0.577188
0.805432 1 0.50782
0.956405 0.994888 0.474586
1 0.989563 0.467323
0.177005 1 0.648081
0.19292 1 0.645289
0.211368 1 0.642008
0.261402 1 0.632456
0.383597 1 0.607187
0.58819 1 0.555062
0.801266 1 0.49073
0.941329 1 0.457557
1 1 0.448569
0 0.113893 1
0 0.116899 1
0 0.122621 1
0.133364 0.11667 1
0.430365 0.0917067 1
0.77113 0.060029 1
1 0.0497902 1
1 0.0543984 1
1 0.061387 1
0 0.149142 1
0 0.153414 1
0 0.160037 1
0.126284 0.155764 1
0.425223 0.131624 1
0.772793 0.0992599 1
1 0.0925002 1
1 0.0979477 1
1 0.105226 1
0 0.187243 1
0 0.192493 1
0 0.200198 1
0.117937 0.197513 1
0.418067 0.174197 1
0.771984 0.141543 1
1 0.134249 1
1 0.143862 1
1 0.151308 1
0 0.277211 1
0 0.286458 1
0 0.295949 1
0.0941176 0.296223 1
0.394903 0.276066 1
0.760342 0.242512 1
1 0.231159 1
1 0.240818 1
1 0.250843 1
0 0.463172 1
0 0.479026 1
0 0.487587 1
0.0467384 0.490455 1
0.33724 0.475105 1
0.707088 0.44065 1
1 0.418387 1
1 0.420157 1
1 0.426963 1
0 0.737881 1
0 0.743725 1
0 0.74638 1
0.0165866 0.745357 1
0.276753 0.729107 1
0.610788 0.698299 0.998245
0.923461 0.66363 1
1 0.651499 1
1 0.651972 1
0 0.972534 0.992584
0 0.970962 0.991028
0 0.968948 0.989029
0.0631418 0.961227 0.981338
0.272892 0.939727 0.959899
0.564691 0.905165 0.925399
0.81976 0.877958 0.898268
1 0.854826 0.881865
1 0.850019 0.876402
0.0527199 1 0.965759
0.0749676 1 0.963226
0.100435 1 0.959899
0.168124 1 0.951003
0.323995 1 0.928985
0.56524 1 0.89279
0.791867 0.993744 0.854948
0.937499 0.979889 0.810162
1 0.973068 0.792172
0.162844 1 0.947173
0.179095 1 0.944778
0.197986 1 0.941695
0.249119 1 0.933959
0.373602 1 0.913588
0.580591 1 0.878035
0.786435 1 0.835966
0.919692 1 0.792126
0.984512 1 0.77145
0 0.24625 1
0 0.249241 1
0 0.262104 1
0.0848402 0.264866 1
0.394018 0.246509 1
0.752209 0.216602 1
1 0.208209 1
1 0.216358 1
1 0.223774 1
0 0.269154 1
0 0.272587 1
0 0.285969 1
0.0791943 0.289616 1
0.388174 0.27158 1
0.749233 0.241703 1
1 0.232197 1
1 0.241794 1
1 0.249775 1
0 0.294774 1
0 0.298985 1
0 0.313054 1
0.0727703 0.317342 1
0.381674 0.30016 1
0.744762 0.269551 1
1 0.258824 1
1 0.267613 1
1 0.277043 1
0 0.361379 1
0 0.368658 1
0 0.383124 1
0.055848 0.388525 1
0.362615 0.372564 1
0.72932 0.341146 1
1 0.326863 1
1 0.33286 1
1 0.340932 1
0 0.509285 1
0 0.52665 1
0 0.53785 1
0.0234684 0.54316 1
0.318669 0.528527 1
0.681697 0.496376 1
0.982559 0.473594 1
1 0.472587 1
1 0.477272 1
0 0.757824 1
0 0.764691 1
0 0.768078 1
0.00349432 0.76701 1
0.267506 0.74992 1
0.603098 0.717601 1
0.898726 0.686748 1
1 0.673518 1
1 0.672236 1
0 0.979843 1
0 0.978164 1
0 0.975723 1
0.0544442 0.967819 1
0.26659 0.945418 1
0.559869 0.90956 1
0.815442 0.880232 1
0.9832 0.860822 1
1 0.852735 1
0.0430915 1 1
0.0655375 1 1
0.0918593 1 1
0.160189 1 1
0.318257 1 1
0.562432 1 1
0.791806 0.989441 1
0.931197 0.973556 0.99266
1 0.965438 0.992203
0.15404 1 1
0.170413 1 1
0.189761 1 1
0.241856 1 1
0.368215 1 1
0.577783 1 1
0.787732 1 0.995514
0.919341 1 0.977111
0.976547 1 0.965118
0 0.3346 1
0 0.334874 1
0 0.35137 1
0.0477455 0.360662 1
0.365667 0.345052 1
0.73257 0.315038 1
1 0.302953 1
1 0.31017 1
1 0.318822 1
0 0.352132 1
0 0.352697 1
0 0.369863 1
0.0433509 0.379309 1
0.360586 0.363867 1
0.728313 0.333608 1
1 0.320592 1
1 0.327077 1
1 0.335302 1
0 0.371817 1
0 0.37348 1
0 0.391028 1
0.0387579 0.400519 1
0.355093 0.385367 1
0.723491 0.354864 1
1 0.340749 1
1 0.346365 1
1 0.354116 1
0 0.425223 1
0 0.429358 1
0 0.447303 1
0.0260471 0.456519 1
0.339391 0.441993 1
0.708247 0.410803 1
0.999695 0.393759 1
1 0.396841 1
1 0.403403 1
0 0.550637 1
0 0.563958 1
0 0.578561 1
0.00228885 0.58555 1
0.302953 0.571344 1
0.665446 0.539132 1
0.965484 0.515282 1
1 0.512215 1
1 0.515908 1
0 0.774456 1
0 0.782895 1
0 0.78674 1
0 0.786313 1
0.260075 0.768566 1
0.59707 0.735042 1
0.887922 0.704662 1
1 0.691295 1
1 0.689586 1
0 0.987381 1
0 0.985672 1
0 0.983413 1
0.047364 0.975219 1
0.262043 0.952041 1
0.556954 0.915221 1
0.81294 0.884901 1
0.974868 0.866743 1
1 0.859083 1
0.0361028 1 1
0.0593423 1 1
0.0855726 1 1
0.154879 1 1
0.314504 1 1
0.560113 1 1
0.789685 0.990463 1
0.928573 0.974014 1
0.993164 0.966964 1
0.148714 1 1
0.16527 1 1
0.184833 1 1
0.237476 1 1
0.364889 1 1
0.575677 1 1
0.786557 1 1
0.918929 1 1
0.977172 1 1
