ml_luts/presetpro_pastel_morning__lut3d_33.cube
TITLE "Presetpro - Pastel Morning"
DOMAIN_MIN 0.000000 0.000000 0.000000
DOMAIN_MAX 1.000000 1.000000 1.000000
LUT_3D_SIZE 33
0.031372 0.035309 0.043152
0.035186 0.035309 0.043152
0.035538 0.035538 0.043381
0.035332 0.035332 0.042483
0.049915 0.035309 0.040066
0.068739 0.037549 0.039296
0.088600 0.036402 0.037256
0.112829 0.037829 0.041763
0.135605 0.041947 0.038025
0.167837 0.039511 0.035592
0.194840 0.034330 0.035309
0.229289 0.036048 0.033466
0.266075 0.032844 0.026894
0.305750 0.026095 0.025867
0.350683 0.014929 0.021063
0.394884 0.004932 0.014867
0.436233 0.002014 0.010819
0.479543 0.001070 0.004996
0.523041 0.001442 0.001717
0.562516 0.001957 0.000979
0.600990 0.000000 0.000526
0.638612 0.000000 0.000921
0.675871 0.002098 0.000000
0.712878 0.005933 0.000000
0.746841 0.003716 0.000442
0.789147 0.002551 0.001383
0.821823 0.003206 0.000853
0.852892 0.018596 0.003837
0.884278 0.049065 0.000000
0.914170 0.083510 0.000000
0.938698 0.111282 0.000254
0.969106 0.141555 0.004177
1.000000 0.164703 0.007843
0.035186 0.035309 0.043152
0.038856 0.038860 0.046703
0.038982 0.038982 0.046825
0.042539 0.035653 0.040233
0.050969 0.035412 0.038961
0.071676 0.041484 0.041532
0.092347 0.040467 0.040089
0.116735 0.042431 0.039312
0.139537 0.042678 0.031432
0.168964 0.042864 0.034190
0.197633 0.046311 0.030472
0.234872 0.043037 0.030100
0.274752 0.035775 0.029654
0.312151 0.029749 0.025622
0.353421 0.022006 0.019060
0.395947 0.012353 0.016516
0.438333 0.004778 0.013450
0.482553 0.001991 0.006891
0.526097 0.001278 0.002199
0.567812 0.000179 0.000031
0.608947 0.000163 0.001491
0.648494 0.000155 0.002609
0.683781 0.000906 0.000074
0.717460 0.002119 0.001966
0.751623 0.000116 0.004803
0.787923 0.000830 0.000845
0.818712 0.010082 0.003005
0.849237 0.042877 0.000656
0.882563 0.068776 0.003873
0.921194 0.099121 0.006345
0.945948 0.129316 0.000459
0.972677 0.152822 0.003685
0.996068 0.172419 0.000363
0.035309 0.035309 0.043152
0.035649 0.035649 0.043492
0.038986 0.038986 0.046373
0.046101 0.038993 0.043263
0.057794 0.042607 0.033650
0.076788 0.046120 0.038798
0.093889 0.050003 0.041806
0.118397 0.050748 0.037453
0.143132 0.052915 0.033501
0.169703 0.051715 0.031516
0.201765 0.053544 0.032672
0.242612 0.051135 0.032757
0.278430 0.047335 0.023960
0.318761 0.040989 0.018817
0.361841 0.034150 0.015567
0.402131 0.026089 0.013381
0.444094 0.012993 0.010559
0.486560 0.004426 0.006469
0.528034 0.002384 0.003003
0.570128 0.000725 0.000000
0.608170 0.001795 0.001479
0.642106 0.002060 0.002667
0.680050 0.001780 0.001646
0.717943 0.002934 0.004506
0.753731 0.004599 0.003742
0.790660 0.012657 0.002734
0.823682 0.039575 0.000192
0.860012 0.066495 0.000500
0.893297 0.088363 0.002854
0.918750 0.114380 0.000409
0.943078 0.138177 0.000043
0.972915 0.160780 0.000451
0.996313 0.180622 0.000008
0.031409 0.035972 0.042792
0.034528 0.039091 0.045911
0.038928 0.040173 0.040180
0.043716 0.043146 0.042837
0.064010 0.047633 0.036589
0.078309 0.056799 0.036282
0.097466 0.056418 0.033423
0.126950 0.058797 0.034510
0.150499 0.057925 0.034462
0.177288 0.061467 0.027277
0.210302 0.064714 0.026957
0.245996 0.065443 0.026927
0.282321 0.062194 0.022472
0.322029 0.055662 0.019019
0.363435 0.050548 0.012846
0.404035 0.045454 0.008498
0.446479 0.036296 0.005382
0.492500 0.026912 0.002435
0.532709 0.019875 0.001391
0.568031 0.013680 0.000135
0.608250 0.010197 0.000470
0.647326 0.010348 0.001571
0.685767 0.013525 0.002689
0.722445 0.018386 0.001173
0.757476 0.027861 0.000744
0.792371 0.046776 0.001521
0.826629 0.068684 0.000560
0.860324 0.090542 0.003604
0.893187 0.112955 0.006068
0.913227 0.133345 0.000031
0.942603 0.156078 0.000527
0.973697 0.172734 0.003355
0.999657 0.198576 0.000332
0.029991 0.047443 0.041767
0.030963 0.053770 0.039402
0.032893 0.051360 0.030596
0.045891 0.056814 0.033692
0.059485 0.062082 0.032618
0.080056 0.069417 0.034550
0.106217 0.075279 0.037655
0.131472 0.077512 0.036775
0.161605 0.078920 0.032904
0.185033 0.076687 0.027391
0.217055 0.079354 0.029039
0.256367 0.076216 0.023286
0.294285 0.075341 0.018790
0.331082 0.074512 0.015256
0.372254 0.071550 0.012550
0.412370 0.068092 0.008310
0.454149 0.063284 0.003479
0.499784 0.058487 0.001402
0.541076 0.055079 0.002394
0.578932 0.052002 0.005144
0.617103 0.050535 0.003954
0.655331 0.051424 0.001132
0.692002 0.053607 0.001794
0.723697 0.061735 0.001614
0.759586 0.072579 0.003220
0.791151 0.086649 0.000780
0.832116 0.104124 0.002789
0.862334 0.120073 0.003805
0.887093 0.137097 0.008311
0.918657 0.153267 0.003126
0.945040 0.175283 0.000072
0.973543 0.191619 0.000474
0.999119 0.214664 0.000500
0.020139 0.068281 0.036811
0.026122 0.069334 0.038906
0.028078 0.066303 0.032448
0.036676 0.072818 0.037441
0.052552 0.077253 0.037792
0.075910 0.084443 0.036058
0.103605 0.092459 0.034401
0.135018 0.097240 0.028013
0.164952 0.099906 0.024989
0.195077 0.098926 0.027011
0.229004 0.096068 0.023526
0.264181 0.093910 0.016158
0.302510 0.095679 0.014582
0.340923 0.096569 0.007998
0.379893 0.095941 0.004522
0.421377 0.094227 0.003055
0.465142 0.091973 0.002173
0.506056 0.091052 0.002223
0.543952 0.090516 0.000941
0.583036 0.089236 0.001843
0.620623 0.089578 0.001631
0.656753 0.092306 0.001126
0.692334 0.095688 0.002765
0.726337 0.101806 0.001936
0.761527 0.109753 0.001865
0.795730 0.122251 0.002069
0.832526 0.132427 0.001966
0.861938 0.147892 0.001048
0.893631 0.161731 0.001341
0.920945 0.179059 0.000557
0.946361 0.196070 0.000000
0.976117 0.211533 0.000003
0.997062 0.233442 0.000081
0.009811 0.086021 0.039837
0.014795 0.088519 0.043488
0.020710 0.087445 0.042468
0.029095 0.089485 0.041426
0.048428 0.095317 0.042022
0.066453 0.098592 0.039148
0.090551 0.106808 0.027315
0.129783 0.117786 0.019423
0.170449 0.123934 0.018174
0.203995 0.124013 0.015833
0.241260 0.124713 0.015891
0.275324 0.122126 0.008837
0.309956 0.125454 0.005185
0.349171 0.125663 0.002314
0.389882 0.124234 0.000918
0.432888 0.123626 0.000680
0.473972 0.123364 0.000679
0.513511 0.123823 0.001313
0.553355 0.125338 0.001619
0.589973 0.127146 0.001369
0.626251 0.126944 0.000747
0.665034 0.128712 0.002460
0.703100 0.133294 0.003839
0.735355 0.139040 0.001921
0.768405 0.144688 0.000289
0.799161 0.155413 0.000571
0.831858 0.166320 0.001158
0.862084 0.175597 0.002530
0.894505 0.186611 0.005480
0.920900 0.205712 0.000580
0.946271 0.221452 0.000225
0.975368 0.236583 0.000601
0.998762 0.253304 0.000000
0.002407 0.108081 0.050802
0.007993 0.111041 0.053940
0.015554 0.108588 0.048296
0.023378 0.108188 0.049783
0.034813 0.116924 0.049564
0.058326 0.119507 0.045329
0.081774 0.126545 0.034891
0.117809 0.135804 0.028563
0.157172 0.149433 0.017812
0.203273 0.158913 0.009097
0.244728 0.162897 0.005181
0.280876 0.159770 0.001962
0.321324 0.161025 0.000694
0.362984 0.157476 0.000282
0.402180 0.152805 0.000094
0.445621 0.151982 0.000078
0.486160 0.153934 0.002015
0.524779 0.156047 0.003257
0.563876 0.157730 0.002697
0.599807 0.161457 0.001842
0.636501 0.163209 0.001039
0.672190 0.163062 0.003326
0.709611 0.166876 0.003687
0.739712 0.173532 0.001548
0.773264 0.180812 0.000519
0.805305 0.189085 0.002048
0.835404 0.196458 0.001806
0.867323 0.207896 0.001237
0.896140 0.218175 0.001684
0.926523 0.230269 0.001669
0.952077 0.243289 0.000245
0.976997 0.257968 0.003026
0.999142 0.271787 0.000000
0.000221 0.135063 0.053917
0.003798 0.137259 0.056119
0.005809 0.137186 0.059073
0.010388 0.134376 0.060039
0.021317 0.140609 0.056441
0.045265 0.145068 0.051358
0.072458 0.151040 0.041327
0.101288 0.158735 0.034165
0.140299 0.172762 0.023466
0.189554 0.184725 0.006733
0.241865 0.198786 0.001171
0.286918 0.206217 0.003236
0.329586 0.204307 0.001639
0.370813 0.198705 0.000000
0.412051 0.195436 0.000425
0.453719 0.193716 0.000354
0.494339 0.192558 0.000618
0.534637 0.192831 0.000968
0.572706 0.194479 0.001275
0.609959 0.196515 0.001223
0.646487 0.197636 0.000286
0.679047 0.199254 0.000871
0.713434 0.203151 0.001369
0.744630 0.209278 0.002085
0.777691 0.216307 0.001865
0.810449 0.223123 0.000769
0.842050 0.230099 0.001289
0.871523 0.242414 0.001616
0.899165 0.252413 0.000161
0.929831 0.263195 0.001632
0.955822 0.270516 0.004890
0.982405 0.282919 0.003954
0.996071 0.298470 0.000000
0.001623 0.165312 0.062746
0.003475 0.167094 0.064442
0.000985 0.166192 0.065157
0.001819 0.165868 0.065936
0.005069 0.170179 0.063669
0.021643 0.172778 0.059288
0.052317 0.179255 0.051536
0.085777 0.187137 0.045495
0.126115 0.196618 0.034289
0.170211 0.210113 0.017664
0.222025 0.225546 0.004088
0.287666 0.244313 0.003563
0.338984 0.251575 0.001980
0.380610 0.249142 0.000221
0.422059 0.246566 0.004209
0.464079 0.243915 0.004141
0.505675 0.238021 0.000724
0.545000 0.233202 0.000000
0.582336 0.232709 0.000558
0.619609 0.233379 0.002236
0.656111 0.234074 0.002958
0.689195 0.235672 0.001851
0.721371 0.239869 0.002113
0.751951 0.245388 0.002796
0.785264 0.251377 0.002748
0.817983 0.258092 0.001319
0.848290 0.263818 0.002902
0.871613 0.274152 0.001863
0.899001 0.282878 0.001763
0.931252 0.291450 0.002863
0.957474 0.298026 0.003874
0.984199 0.309607 0.001249
0.997798 0.325280 0.000811
0.003412 0.199011 0.076422
0.003772 0.199547 0.078607
0.001948 0.199046 0.078195
0.000171 0.201765 0.073596
0.000753 0.202507 0.077391
0.004472 0.203636 0.071527
0.025500 0.211478 0.064457
0.061663 0.219283 0.059057
0.105553 0.228550 0.049327
0.149077 0.242664 0.030095
0.199691 0.255951 0.009913
0.263711 0.272622 0.003492
0.330703 0.292553 0.004425
0.385366 0.300003 0.002142
0.430764 0.297862 0.003283
0.473683 0.295436 0.003981
0.512640 0.289670 0.001490
0.552088 0.283561 0.000279
0.592335 0.279034 0.000531
0.629680 0.273856 0.001363
0.664121 0.272832 0.001617
0.694623 0.273537 0.002011
0.728112 0.275721 0.002097
0.759752 0.283931 0.000935
0.790758 0.288389 0.001353
0.822141 0.292899 0.002960
0.853600 0.299585 0.005627
0.877702 0.306071 0.003303
0.905715 0.315485 0.000751
0.932060 0.322340 0.001057
0.959509 0.328606 0.000902
0.983538 0.338292 0.000241
0.999647 0.349253 0.003920
0.002275 0.235470 0.086152
0.003834 0.238846 0.089498
0.001098 0.236552 0.087184
0.000086 0.237608 0.084579
0.000376 0.237358 0.084793
0.001470 0.236264 0.084047
0.006711 0.244058 0.079746
0.029333 0.251140 0.071434
0.074622 0.263287 0.059139
0.125837 0.274698 0.041097
0.177797 0.288802 0.022470
0.240008 0.301553 0.006912
0.306704 0.318972 0.004852
0.373306 0.340547 0.002707
0.430692 0.351979 0.000761
0.477646 0.349994 0.003322
0.519006 0.343886 0.002871
0.559133 0.337601 0.000363
0.599620 0.330854 0.001240
0.637018 0.323712 0.002227
0.670818 0.318426 0.001973
0.703893 0.316284 0.002298
0.736573 0.315168 0.001197
0.767038 0.320986 0.001496
0.798408 0.324979 0.001214
0.829977 0.328872 0.003386
0.857721 0.332642 0.004946
0.884418 0.340613 0.003188
0.910532 0.346441 0.000208
0.934414 0.352688 0.001521
0.962058 0.358848 0.000153
0.983363 0.368494 0.000148
1.000000 0.378469 0.003446
0.000526 0.275963 0.093079
0.003738 0.278816 0.096874
0.000240 0.275389 0.093466
0.000000 0.277004 0.093732
0.000000 0.275760 0.096374
0.001268 0.274609 0.095373
0.000710 0.280685 0.093449
0.007596 0.287003 0.084650
0.042342 0.298771 0.074747
0.099302 0.310634 0.060181
0.156751 0.324478 0.040213
0.216487 0.334529 0.015578
0.278068 0.348968 0.006671
0.343232 0.368172 0.002799
0.413605 0.388265 0.001513
0.478000 0.400452 0.002519
0.526907 0.398378 0.002373
0.566344 0.391103 0.001710
0.604183 0.385279 0.001997
0.640996 0.378041 0.002293
0.676796 0.371186 0.001684
0.711093 0.365369 0.002436
0.742903 0.360410 0.001452
0.774028 0.360683 0.002716
0.804275 0.361176 0.002644
0.833339 0.364395 0.001472
0.861374 0.368521 0.003006
0.888421 0.376448 0.004193
0.912377 0.378526 0.002145
0.936887 0.385745 0.002010
0.962511 0.388692 0.000086
0.988608 0.398367 0.000124
0.998493 0.403385 0.003964
0.000000 0.319218 0.099991
0.001489 0.318502 0.101528
0.000096 0.317084 0.102714
0.000673 0.317996 0.103805
0.003058 0.315915 0.110308
0.003111 0.314943 0.109072
0.000574 0.320313 0.106257
0.000765 0.325019 0.098991
0.014516 0.333486 0.093739
0.064963 0.347273 0.079339
0.130618 0.359000 0.057961
0.191536 0.368369 0.027257
0.250637 0.382376 0.007472
0.313210 0.395995 0.001194
0.381929 0.412247 0.001574
0.456005 0.432710 0.001832
0.521915 0.446725 0.002234
0.570051 0.447286 0.002748
0.607517 0.439975 0.002812
0.644742 0.431930 0.002913
0.681334 0.425693 0.001272
0.713794 0.419858 0.000953
0.747611 0.411436 0.001344
0.780122 0.405915 0.002891
0.809251 0.400800 0.002422
0.836246 0.400441 0.001208
0.867145 0.404389 0.001134
0.893122 0.408413 0.003462
0.916735 0.410003 0.004615
0.939655 0.417741 0.000741
0.967596 0.419643 0.000140
0.993177 0.427816 0.002322
0.998042 0.431847 0.004659
0.000000 0.360035 0.112442
0.000000 0.359065 0.112575
0.000129 0.359162 0.116311
0.001598 0.359601 0.117255
0.004521 0.358918 0.119967
0.004489 0.357557 0.120524
0.002793 0.358808 0.121007
0.002809 0.361576 0.117225
0.002674 0.368901 0.107924
0.030650 0.380476 0.096905
0.098564 0.390234 0.079903
0.165736 0.400783 0.051821
0.227403 0.415446 0.020660
0.289413 0.429744 0.003666
0.353488 0.443059 0.002977
0.423338 0.458876 0.002814
0.498390 0.477480 0.002242
0.564931 0.490857 0.002444
0.611819 0.492292 0.001659
0.649484 0.485121 0.002688
0.686520 0.477127 0.002531
0.719637 0.471141 0.001307
0.753055 0.463360 0.000762
0.784035 0.455584 0.003413
0.812248 0.447565 0.004928
0.841003 0.442569 0.001560
0.870868 0.441060 0.000135
0.897130 0.441540 0.001353
0.921525 0.441127 0.004823
0.944924 0.447914 0.004820
0.971126 0.449503 0.001166
0.992861 0.456880 0.001666
0.998060 0.462713 0.001989
0.000000 0.399715 0.125924
0.000000 0.401726 0.128045
0.000107 0.400895 0.128666
0.002079 0.399419 0.127947
0.002930 0.400386 0.127607
0.004212 0.399790 0.129485
0.003339 0.398825 0.134370
0.002575 0.399322 0.133880
0.002493 0.403671 0.125831
0.010072 0.414181 0.118932
0.064354 0.424973 0.105820
0.136574 0.434530 0.082174
0.204630 0.446351 0.052232
0.268887 0.461068 0.024759
0.332222 0.473701 0.008354
0.396253 0.485226 0.001754
0.466236 0.498379 0.001425
0.539748 0.515395 0.001583
0.604136 0.532529 0.001437
0.653240 0.536515 0.003283
0.690705 0.527728 0.002844
0.723947 0.519573 0.001780
0.757540 0.512720 0.002102
0.787719 0.504996 0.002872
0.814223 0.496257 0.003715
0.842862 0.490145 0.001573
0.871356 0.483293 0.000329
0.899373 0.481659 0.000259
0.924478 0.476457 0.002229
0.949322 0.478632 0.005923
0.973043 0.478440 0.002907
0.992983 0.487673 0.000000
0.998984 0.490612 0.000000
0.000000 0.441177 0.142197
0.000916 0.442153 0.144088
0.000946 0.439466 0.142319
0.002038 0.439216 0.141339
0.001097 0.439436 0.140583
0.002658 0.438142 0.143050
0.002975 0.438145 0.148768
0.002236 0.437057 0.148834
0.002407 0.438969 0.144153
0.002346 0.449408 0.138609
0.035654 0.459454 0.127840
0.109146 0.468654 0.109603
0.182199 0.477278 0.089407
0.247548 0.490021 0.062685
0.310242 0.501167 0.028930
0.372137 0.512033 0.006106
0.436271 0.523491 0.000572
0.504712 0.536501 0.000567
0.576327 0.555167 0.001152
0.642622 0.571658 0.002946
0.692179 0.574547 0.002930
0.726821 0.566819 0.002470
0.759762 0.559591 0.003249
0.789454 0.551637 0.001272
0.817459 0.543717 0.000252
0.847294 0.537146 0.001037
0.875781 0.528099 0.000930
0.902716 0.525486 0.000110
0.927164 0.517597 0.000835
0.952841 0.511869 0.001872
0.977622 0.507311 0.002802
0.996822 0.514504 0.001998
1.000000 0.516648 0.001007
0.001016 0.478777 0.161731
0.001920 0.478732 0.161329
0.001171 0.475947 0.159810
0.003440 0.477597 0.162886
0.000460 0.477227 0.159288
0.000629 0.476493 0.162443
0.001839 0.476635 0.166683
0.002790 0.474939 0.166380
0.001148 0.475289 0.163850
0.000747 0.482155 0.158393
0.017615 0.489080 0.149941
0.088090 0.498739 0.139280
0.165344 0.508667 0.123270
0.229789 0.519616 0.099937
0.291479 0.529347 0.069296
0.352553 0.539732 0.037144
0.414346 0.550684 0.011142
0.477796 0.561260 0.000419
0.544238 0.573728 0.000805
0.613295 0.590556 0.001682
0.678367 0.605362 0.003115
0.729432 0.607329 0.003101
0.762589 0.602808 0.002012
0.790725 0.595161 0.000859
0.820978 0.589123 0.001870
0.852568 0.581317 0.001295
0.879377 0.572108 0.000758
0.902895 0.566413 0.000878
0.929137 0.559710 0.002521
0.955424 0.550601 0.000857
0.979022 0.543470 0.001247
0.997913 0.544195 0.003132
1.000000 0.544628 0.001900
0.001219 0.513252 0.180124
0.001136 0.513397 0.178672
0.000199 0.513262 0.178888
0.002922 0.513268 0.182717
0.000401 0.513450 0.177206
0.001678 0.514316 0.181217
0.000373 0.514471 0.185894
0.000778 0.512825 0.184343
0.000579 0.509993 0.184932
0.001713 0.512418 0.182932
0.009744 0.520000 0.174483
0.074861 0.528425 0.166720
0.154533 0.537164 0.153946
0.218817 0.547724 0.133585
0.279588 0.557230 0.113152
0.338998 0.566743 0.088512
0.397879 0.576759 0.051442
0.458719 0.587103 0.019159
0.520607 0.597484 0.005104
0.583079 0.608873 0.001101
0.648509 0.622390 0.001596
0.713220 0.633929 0.001551
0.761036 0.640532 0.000484
0.796009 0.637008 0.000681
0.824795 0.630131 0.002245
0.851171 0.623003 0.001560
0.878891 0.614105 0.001391
0.903222 0.605367 0.002976
0.927573 0.598624 0.002368
0.955077 0.591984 0.001895
0.978282 0.585064 0.001074
0.997567 0.581278 0.003537
1.000000 0.577496 0.001717
0.000979 0.549150 0.200869
0.001580 0.547833 0.199553
0.001599 0.549065 0.200784
0.002341 0.549902 0.201622
0.002233 0.548722 0.199273
0.003972 0.549055 0.200566
0.002106 0.549150 0.206245
0.001599 0.548024 0.205683
0.002048 0.545575 0.205519
0.002578 0.545756 0.206914
0.013117 0.552699 0.199000
0.075818 0.559225 0.191911
0.151013 0.565770 0.182343
0.212765 0.575738 0.168311
0.272417 0.584720 0.153216
0.328529 0.593945 0.135521
0.383559 0.603765 0.108375
0.442339 0.612989 0.071766
0.501627 0.621571 0.038210
0.560709 0.630676 0.013589
0.618882 0.640232 0.000116
0.678787 0.650149 0.000236
0.741134 0.665454 0.000614
0.792542 0.672873 0.001371
0.825739 0.669853 0.000552
0.848347 0.663457 0.001198
0.878222 0.654337 0.002597
0.906003 0.644491 0.004732
0.927564 0.637261 0.001743
0.952731 0.632697 0.001310
0.978439 0.624070 0.001140
0.999045 0.619325 0.005593
1.000000 0.614853 0.000979
0.002033 0.584778 0.222988
0.002957 0.584046 0.222611
0.002579 0.583840 0.225721
0.005072 0.585121 0.227212
0.005590 0.583860 0.224184
0.003998 0.584005 0.223983
0.002692 0.583027 0.228440
0.002461 0.582951 0.231675
0.002890 0.581709 0.232296
0.003271 0.580595 0.230941
0.028893 0.582235 0.228720
0.093681 0.587429 0.222206
0.160353 0.594964 0.209102
0.217898 0.603253 0.199468
0.272577 0.611060 0.190069
0.323958 0.620973 0.175180
0.375091 0.629953 0.156172
0.429657 0.637591 0.133927
0.486739 0.646055 0.104430
0.542016 0.654258 0.064426
0.595330 0.662413 0.028494
0.650807 0.669513 0.009801
0.707914 0.679685 0.001242
0.767148 0.693617 0.002873
0.815586 0.702562 0.001241
0.848730 0.702339 0.002201
0.877536 0.693257 0.002307
0.904676 0.682744 0.003027
0.929992 0.677099 0.002710
0.951383 0.671205 0.000168
0.975959 0.663296 0.001932
0.995463 0.657704 0.003869
0.998959 0.652531 0.000950
0.003187 0.619738 0.245375
0.001409 0.619302 0.244796
0.000638 0.618073 0.252690
0.003004 0.618304 0.254262
0.004200 0.619246 0.247482
0.003644 0.617094 0.248628
0.002142 0.615940 0.253904
0.001825 0.617336 0.255617
0.002057 0.615623 0.257055
0.012999 0.613582 0.255162
0.062033 0.611336 0.258056
0.124986 0.616086 0.250512
0.182187 0.622471 0.239992
0.233110 0.629830 0.232761
0.279643 0.638341 0.224519
0.327949 0.648173 0.213943
0.375174 0.655166 0.199788
0.424346 0.661849 0.183776
0.477753 0.670438 0.163173
0.528482 0.677827 0.137200
0.579387 0.686261 0.103773
0.630983 0.693491 0.060506
0.681810 0.699612 0.030272
0.734641 0.707682 0.011311
0.790058 0.719727 0.000686
0.840751 0.731976 0.001625
0.876740 0.729675 0.002727
0.904019 0.722345 0.001410
0.926831 0.714655 0.000508
0.951465 0.706550 0.000295
0.974727 0.699616 0.003017
0.993943 0.693006 0.001132
0.998178 0.687431 0.001662
0.005762 0.649874 0.272796
0.001743 0.652752 0.273422
0.001721 0.650725 0.280342
0.000941 0.649940 0.281669
0.002245 0.650117 0.281224
0.003261 0.647304 0.278952
0.003893 0.649222 0.280769
0.006969 0.649041 0.279551
0.019871 0.648829 0.283718
0.055162 0.647318 0.282652
0.115218 0.643295 0.283224
0.165986 0.644508 0.280144
0.210041 0.650748 0.277145
0.251068 0.658786 0.271887
0.292985 0.664964 0.265553
0.337840 0.672246 0.254625
0.381159 0.679850 0.242188
0.425255 0.685673 0.231227
0.472003 0.692020 0.213824
0.518119 0.700054 0.194156
0.564701 0.708309 0.174975
0.614363 0.714869 0.148683
0.665072 0.721708 0.113896
0.710894 0.727594 0.064459
0.757722 0.734530 0.030751
0.814000 0.747167 0.010689
0.862022 0.758812 0.002100
0.899486 0.757294 0.002830
0.925698 0.750985 0.000309
0.948215 0.743610 0.000000
0.974220 0.733780 0.000139
0.996330 0.730727 0.002165
0.998255 0.724649 0.000353
0.003113 0.678106 0.304367
0.002050 0.680914 0.305463
0.001997 0.681974 0.310845
0.000187 0.680209 0.309392
0.003314 0.681223 0.309915
0.008870 0.680772 0.310734
0.018057 0.680161 0.309260
0.039011 0.678809 0.308851
0.081865 0.678385 0.314107
0.128942 0.675341 0.314858
0.172499 0.673233 0.314680
0.208672 0.672154 0.315795
0.241704 0.678023 0.312573
0.275372 0.685256 0.305271
0.314434 0.688743 0.300541
0.352634 0.694725 0.291906
0.389549 0.703018 0.283245
0.430778 0.709435 0.275789
0.473226 0.714971 0.261315
0.513853 0.721205 0.245196
0.554971 0.727452 0.231371
0.601428 0.733609 0.214980
0.651064 0.741610 0.192298
0.693258 0.747595 0.162718
0.735201 0.751307 0.124655
0.785443 0.757398 0.068743
0.834528 0.770380 0.030318
0.885492 0.780264 0.009965
0.923193 0.786599 0.000710
0.946883 0.778267 0.000076
0.969936 0.770232 0.000861
0.988053 0.765314 0.001516
0.995986 0.761292 0.000811
0.019745 0.706878 0.338455
0.020935 0.706354 0.338574
0.023112 0.712281 0.342153
0.027382 0.711730 0.342966
0.032769 0.713200 0.343499
0.055494 0.710592 0.344436
0.088377 0.707129 0.344473
0.131913 0.707894 0.345476
0.166533 0.708652 0.347864
0.194507 0.706626 0.348290
0.225328 0.703836 0.348996
0.253531 0.702269 0.347688
0.278825 0.706137 0.349704
0.309679 0.710805 0.346000
0.339145 0.713591 0.337604
0.371036 0.720029 0.330131
0.406346 0.726921 0.323829
0.441298 0.732171 0.317818
0.478157 0.738431 0.307449
0.517048 0.745296 0.295428
0.555261 0.751805 0.286016
0.593611 0.756845 0.271822
0.638653 0.762269 0.252785
0.680846 0.765213 0.231030
0.720369 0.769834 0.207804
0.763586 0.776250 0.177975
0.809985 0.782878 0.132270
0.857963 0.793858 0.066958
0.904536 0.808337 0.032454
0.942080 0.809667 0.014112
0.967337 0.805900 0.004333
0.985632 0.798255 0.013884
1.000000 0.795868 0.011955
0.102487 0.736770 0.376902
0.106556 0.734576 0.376807
0.117060 0.739257 0.382455
0.131752 0.736112 0.383597
0.150060 0.736135 0.385040
0.166562 0.735955 0.381554
0.187837 0.735348 0.381671
0.208222 0.736582 0.380344
0.230355 0.733956 0.382848
0.250762 0.735080 0.384214
0.270642 0.736141 0.385740
0.294240 0.734318 0.388984
0.317126 0.734969 0.390263
0.342926 0.736555 0.388205
0.366288 0.740437 0.382449
0.390913 0.745807 0.373475
0.422183 0.750747 0.365929
0.455379 0.755837 0.360315
0.486744 0.761761 0.354024
0.518252 0.768088 0.345687
0.553883 0.773877 0.335395
0.592788 0.778459 0.322526
0.632198 0.780159 0.305909
0.670980 0.784015 0.292177
0.708961 0.792978 0.270213
0.744515 0.798915 0.246511
0.790989 0.803926 0.223182
0.829728 0.806486 0.185512
0.876776 0.814396 0.151838
0.921828 0.829191 0.085271
0.958176 0.839613 0.036415
0.984210 0.833660 0.061966
1.000000 0.829507 0.065171
0.213245 0.764350 0.423165
0.214221 0.763730 0.421986
0.221541 0.765828 0.424921
0.226993 0.763544 0.421403
0.236801 0.762246 0.421021
0.245834 0.762852 0.419355
0.259882 0.760782 0.422321
0.275445 0.763090 0.426577
0.290922 0.760959 0.426752
0.308869 0.762591 0.427229
0.320429 0.763778 0.425044
0.341729 0.762985 0.427451
0.362494 0.763543 0.432616
0.379341 0.762118 0.429557
0.399638 0.763507 0.426129
0.423078 0.767599 0.421929
0.446555 0.772215 0.416309
0.472241 0.776945 0.409300
0.502666 0.782293 0.401735
0.532350 0.787813 0.394777
0.561187 0.792862 0.386310
0.595387 0.798440 0.376640
0.629488 0.801821 0.358952
0.665018 0.808720 0.345945
0.701460 0.812105 0.332450
0.736458 0.817581 0.313470
