ml_luts/presetpro_fashion_film__lut3d_33.cube
TITLE "Presetpro - Fashion Film.jpg"
DOMAIN_MIN 0.000000 0.000000 0.000000
DOMAIN_MAX 1.000000 1.000000 1.000000
LUT_3D_SIZE 9
0.000000 0.000000 0.000000
0.084354 0.004372 0.001373
0.190949 0.009582 0.001739
0.329373 0.000950 0.004871
0.492218 0.000946 0.000000
0.650505 0.000000 0.003411
0.785515 0.000763 0.000763
0.915680 0.000442 0.000000
0.996063 0.000000 0.000000
0.006474 0.103973 0.023968
0.093747 0.100879 0.020043
0.207310 0.103564 0.002530
0.352418 0.100529 0.003672
0.507242 0.081352 0.003014
0.661498 0.053653 0.001856
0.797848 0.036368 0.001518
0.921190 0.059096 0.003307
0.997009 0.127403 0.000046
0.001198 0.256851 0.056190
0.084104 0.251386 0.052153
0.230765 0.244201 0.039427
0.379069 0.236815 0.009177
0.538765 0.232567 0.001751
0.679818 0.232053 0.000286
0.806333 0.236721 0.000959
0.922522 0.251470 0.002345
0.997047 0.270806 0.000221
0.001507 0.433781 0.107330
0.000230 0.432477 0.095851
0.236270 0.424498 0.084576
0.400609 0.416554 0.077010
0.545096 0.399061 0.040936
0.696085 0.391525 0.002346
0.823765 0.390040 0.002745
0.931227 0.399111 0.001614
0.997543 0.412208 0.002850
0.003921 0.585266 0.173492
0.002903 0.584894 0.177879
0.248585 0.578606 0.153934
0.425402 0.573170 0.149489
0.573463 0.566574 0.147560
0.693733 0.546795 0.132736
0.821045 0.542175 0.016289
0.936465 0.539776 0.002480
0.998047 0.541169 0.001007
0.026344 0.706997 0.272156
0.151784 0.702628 0.263690
0.313785 0.698639 0.258337
0.461751 0.691086 0.244685
0.597387 0.685221 0.245901
0.715960 0.684588 0.251215
0.816881 0.666533 0.261327
0.926565 0.664541 0.181465
1.000000 0.663769 0.042229
0.303940 0.799347 0.385918
0.341926 0.800653 0.382841
0.418648 0.796579 0.379896
0.522447 0.791307 0.366276
0.631248 0.786568 0.354119
0.737247 0.784869 0.362472
0.833122 0.786371 0.373858
0.919134 0.771488 0.389512
1.000000 0.777023 0.363289
0.493145 0.889115 0.519661
0.513522 0.887488 0.520265
0.547638 0.889518 0.512686
0.611467 0.887134 0.505675
0.689655 0.881958 0.495609
0.777739 0.879855 0.497844
0.859611 0.882459 0.506364
0.934409 0.884215 0.525073
0.990101 0.879910 0.550190
0.682343 0.984314 0.678436
0.686722 0.988666 0.682694
0.711091 0.989204 0.683098
0.743057 0.985821 0.679886
0.794052 0.987289 0.674515
0.847542 0.991207 0.672981
0.906876 0.988441 0.686943
0.965282 0.988666 0.698188
1.000000 0.992157 0.729401
0.014263 0.002991 0.083877
0.085314 0.002674 0.078163
0.191127 0.006261 0.075740
0.336343 0.008936 0.063237
0.497555 0.000668 0.043932
0.650139 0.001306 0.006527
0.789691 0.003205 0.000000
0.918774 0.000090 0.003395
0.999546 0.022987 0.006550
0.000095 0.103403 0.118813
0.090109 0.103262 0.107754
0.211244 0.104551 0.097052
0.355596 0.100060 0.083539
0.514236 0.084400 0.049510
0.662575 0.063300 0.006827
0.791414 0.074378 0.001007
0.918988 0.109206 0.004143
0.999184 0.146516 0.003584
0.000218 0.258559 0.150050
0.057404 0.255340 0.136532
0.230281 0.247296 0.132075
0.387067 0.240953 0.108640
0.542069 0.234802 0.058141
0.682325 0.227035 0.004021
0.808632 0.235662 0.001494
0.926021 0.252953 0.002468
0.999792 0.281154 0.000080
0.003063 0.439520 0.182701
0.005067 0.435904 0.183981
0.236411 0.427420 0.166392
0.405578 0.419760 0.161788
0.553874 0.405321 0.134903
0.699530 0.395428 0.030809
0.824715 0.391452 0.001152
0.931288 0.398299 0.000392
0.997972 0.414293 0.001685
0.002945 0.591728 0.237120
0.002077 0.587916 0.238832
0.248416 0.582156 0.217183
0.427221 0.575866 0.211253
0.575041 0.569928 0.212981
0.694879 0.550611 0.199040
0.821094 0.544567 0.097953
0.937061 0.538156 0.001853
0.998440 0.541145 0.000416
0.032679 0.707481 0.318324
0.155978 0.707807 0.310766
0.314955 0.700240 0.305856
0.460673 0.694311 0.287440
0.595827 0.687872 0.288179
0.717215 0.684182 0.294063
0.814139 0.668293 0.299685
0.923022 0.668436 0.230041
0.998505 0.664516 0.106395
0.311496 0.799316 0.416544
0.340111 0.801635 0.411904
0.419887 0.798028 0.406121
0.522511 0.792517 0.395188
0.630634 0.786874 0.385056
0.738017 0.785926 0.390065
0.834307 0.782617 0.400147
0.913492 0.771445 0.423373
0.998086 0.780643 0.391360
0.495220 0.892743 0.534965
0.516795 0.888216 0.539892
0.551472 0.889037 0.532383
0.612221 0.886796 0.524885
0.690721 0.883850 0.514020
0.772718 0.880922 0.514804
0.859488 0.882801 0.524330
0.931497 0.883525 0.535239
0.991954 0.881460 0.567467
0.679844 0.984768 0.688141
0.686524 0.984950 0.690132
0.708495 0.989134 0.691550
0.743053 0.989379 0.685276
0.787749 0.987999 0.681648
0.844695 0.986350 0.679082
0.902760 0.990483 0.688849
0.966866 0.990926 0.714753
0.999546 0.991714 0.728073
0.016449 0.000976 0.195527
0.110143 0.002243 0.190282
0.195469 0.002197 0.183096
0.337392 0.000849 0.183440
0.510612 0.001144 0.164150
0.660073 0.000515 0.154250
0.795068 0.001495 0.130301
0.919753 0.000272 0.063397
0.999237 0.045540 0.002174
0.001028 0.082336 0.230385
0.099529 0.092946 0.226020
0.217018 0.096269 0.213346
0.357247 0.097200 0.205858
0.522563 0.057974 0.185174
0.664882 0.063719 0.167670
0.798578 0.067379 0.134314
0.922214 0.094824 0.065140
0.996892 0.152244 0.000546
0.000156 0.239660 0.267626
0.018637 0.242712 0.260180
0.230915 0.253482 0.261214
0.393040 0.251275 0.241176
0.546667 0.242674 0.216687
0.685321 0.237745 0.184694
0.810843 0.240171 0.147587
0.925922 0.250939 0.072933
0.997713 0.275212 0.002226
0.000424 0.436499 0.309005
0.001170 0.437945 0.307733
0.221216 0.438127 0.294905
0.409277 0.428629 0.285364
0.563035 0.416781 0.256106
0.705664 0.402804 0.211788
0.824710 0.397978 0.166726
0.931384 0.397502 0.100769
0.999518 0.410691 0.005056
0.000729 0.597729 0.344582
0.002812 0.594107 0.341560
0.236353 0.591963 0.330686
0.429931 0.580786 0.322447
0.576380 0.573864 0.322836
0.700186 0.558435 0.306974
0.824816 0.551030 0.240980
0.936530 0.541643 0.160343
0.996456 0.539783 0.062012
0.042118 0.709314 0.403418
0.161716 0.711958 0.396531
0.313841 0.705579 0.392962
0.464510 0.697231 0.376097
0.596704 0.690846 0.372660
0.717225 0.688046 0.379586
0.817757 0.671568 0.380649
0.925378 0.670002 0.321606
1.000000 0.667168 0.231281
0.321304 0.801500 0.475878
0.351790 0.804344 0.476384
0.425107 0.798463 0.468651
0.522038 0.794822 0.458150
0.629607 0.788119 0.441899
0.735841 0.787215 0.447838
0.832583 0.785967 0.455566
0.914315 0.774603 0.476589
0.999372 0.782938 0.442938
0.500343 0.890594 0.576465
0.518685 0.890713 0.573265
0.556066 0.889984 0.571899
0.615419 0.886685 0.563833
0.688070 0.884785 0.548504
0.774199 0.880346 0.549110
0.855862 0.883200 0.560837
0.933321 0.883355 0.573253
0.991953 0.876938 0.599101
0.674500 0.988220 0.708290
0.687159 0.987865 0.707854
0.706266 0.987825 0.708353
0.740657 0.988466 0.704319
0.786633 0.987385 0.700409
0.843631 0.987940 0.698184
0.904154 0.989853 0.706552
0.966576 0.993671 0.727195
0.997826 0.993889 0.740952
0.002415 0.000000 0.338692
0.114866 0.002871 0.332456
0.234038 0.002024 0.327739
0.353952 0.000565 0.318009
0.511141 0.000641 0.315968
0.673102 0.001745 0.303393
0.807768 0.001176 0.265631
0.923719 0.002959 0.255140
0.999474 0.037670 0.215099
0.001270 0.072825 0.361236
0.108198 0.067510 0.354577
0.245704 0.060122 0.356458
0.374286 0.051131 0.338981
0.526126 0.076008 0.334580
0.680391 0.026337 0.313340
0.811859 0.018666 0.287988
0.920109 0.124507 0.271128
0.995068 0.148426 0.219561
0.001800 0.207238 0.396785
0.005753 0.210386 0.396596
0.242734 0.231298 0.391342
0.399685 0.241601 0.380316
0.549276 0.263291 0.372193
0.690257 0.247699 0.344891
0.807984 0.266107 0.322875
0.924802 0.272208 0.289100
0.998624 0.276735 0.224635
0.001941 0.410581 0.435326
0.000720 0.415626 0.433397
0.199499 0.425979 0.434532
0.415563 0.439523 0.432552
0.568128 0.433508 0.409644
0.699530 0.424100 0.384812
0.818729 0.416448 0.350097
0.926551 0.413327 0.305168
0.999585 0.410758 0.248430
0.001644 0.595144 0.476780
0.001856 0.596688 0.474555
0.216680 0.597253 0.468521
0.429407 0.593861 0.459877
0.582697 0.583344 0.455254
0.705478 0.572589 0.432931
0.828212 0.557301 0.383172
0.934300 0.546289 0.345096
0.998064 0.543099 0.293001
0.031468 0.711575 0.509311
0.150971 0.711598 0.505259
0.311744 0.711406 0.501582
0.464981 0.707076 0.493992
0.600747 0.696440 0.481671
0.718423 0.691870 0.487190
0.816075 0.681775 0.480343
0.925454 0.673605 0.422817
0.999404 0.665394 0.355338
0.303238 0.805444 0.547495
0.348143 0.805578 0.552822
0.432326 0.803174 0.552816
0.525967 0.799673 0.544851
0.630143 0.791224 0.530479
0.734821 0.786735 0.527777
0.830307 0.787293 0.537306
0.912780 0.779347 0.546699
0.998936 0.784080 0.507459
0.492960 0.892688 0.629111
0.515239 0.892767 0.625768
0.555813 0.891562 0.624298
0.613176 0.889207 0.618256
0.686094 0.885994 0.606684
0.771512 0.881805 0.597048
0.853576 0.883224 0.608058
0.929117 0.883135 0.616477
0.994527 0.880792 0.642645
0.670589 0.988209 0.734829
0.680171 0.987168 0.736204
0.699691 0.989488 0.735737
0.734165 0.987818 0.733109
0.779263 0.987730 0.727415
0.837147 0.990593 0.723903
0.896108 0.988692 0.730703
0.959600 0.992201 0.745319
1.000000 0.995548 0.767185
0.001007 0.001007 0.476471
0.129453 0.000614 0.471644
0.254806 0.000629 0.469212
0.399778 0.001959 0.465204
0.529785 0.001892 0.458695
0.670357 0.002041 0.448603
0.818764 0.001839 0.452476
0.934260 0.003960 0.417931
0.997101 0.000946 0.375534
0.000906 0.038860 0.489098
0.116480 0.031630 0.489871
0.259857 0.010599 0.487106
0.410115 0.001302 0.481106
0.543285 0.001621 0.472484
0.679265 0.039602 0.464257
0.820959 0.099363 0.457942
0.933877 0.080911 0.429269
0.997852 0.103487 0.389805
0.004116 0.185551 0.520432
0.068482 0.202542 0.518213
0.259495 0.203905 0.515471
0.427429 0.204880 0.509740
0.563288 0.220389 0.499054
0.693008 0.274831 0.496631
0.821874 0.282219 0.479763
0.928923 0.269078 0.440090
0.998112 0.292774 0.416336
0.000425 0.367064 0.545717
0.001709 0.370576 0.545311
0.192996 0.381365 0.547166
0.427095 0.410214 0.548575
0.579699 0.426476 0.542397
0.700985 0.455087 0.533298
0.817802 0.436601 0.505293
0.920898 0.430512 0.472813
0.997562 0.424139 0.426479
0.001922 0.563317 0.576843
0.004593 0.564385 0.580059
0.222258 0.572302 0.580244
0.421373 0.585629 0.585684
0.590202 0.598381 0.587162
0.712440 0.586983 0.565406
0.820787 0.570908 0.532946
0.923296 0.556128 0.495732
0.998009 0.544586 0.448578
0.017157 0.711481 0.618675
0.122825 0.712841 0.615212
0.301739 0.713278 0.615422
0.458002 0.712208 0.609576
0.603222 0.707705 0.600392
0.723933 0.700582 0.599881
0.821591 0.689541 0.578429
0.924469 0.676123 0.534430
0.998617 0.667125 0.487534
0.285454 0.806408 0.638294
0.323217 0.806139 0.640077
0.404696 0.805226 0.636440
0.515680 0.804548 0.633325
0.630661 0.797472 0.627916
0.731724 0.792149 0.616614
0.827123 0.790505 0.621378
0.911662 0.784008 0.621673
0.999512 0.784835 0.579567
0.440315 0.894356 0.677529
0.464077 0.896279 0.672363
0.518486 0.895704 0.672082
0.601865 0.893075 0.682765
0.678687 0.888737 0.673898
0.761777 0.885070 0.658628
0.846699 0.882565 0.663440
0.928008 0.886106 0.669941
0.992796 0.884148 0.695679
0.625550 0.995117 0.759842
0.637092 0.992479 0.761748
0.676865 0.991482 0.769020
0.718470 0.991354 0.770067
0.768120 0.991646 0.765114
0.827017 0.992201 0.761955
0.892540 0.992661 0.758884
0.957260 0.993910 0.769867
0.998993 0.996002 0.789307
0.048092 0.001507 0.600506
0.163072 0.000000 0.597459
0.287145 0.000941 0.594597
0.424089 0.000358 0.596628
0.574800 0.003241 0.593351
0.696262 0.001216 0.589126
0.807763 0.001695 0.572430
0.940945 0.088896 0.587371
0.999046 0.135281 0.557892
0.082726 0.001484 0.611016
0.162464 0.001561 0.610962
0.289752 0.001135 0.610266
0.433580 0.000851 0.605312
0.580868 0.000995 0.602284
0.703859 0.002721 0.595902
0.815591 0.030307 0.582983
0.936516 0.201722 0.587277
0.999108 0.215381 0.568359
0.034497 0.166738 0.628945
0.154026 0.169107 0.627828
0.290800 0.164221 0.629744
0.441758 0.159227 0.623954
0.594690 0.156267 0.618707
0.716060 0.187636 0.616385
0.819978 0.278188 0.604298
0.931498 0.343607 0.607778
0.998268 0.333191 0.575366
0.001070 0.321395 0.650987
0.008151 0.327361 0.653655
0.257277 0.356758 0.649094
0.443440 0.370833 0.650129
0.599020 0.383004 0.643719
0.718879 0.410240 0.639876
0.819247 0.463670 0.633507
0.924881 0.471139 0.619442
0.999474 0.450223 0.585243
0.002020 0.518799 0.669880
0.001431 0.522496 0.668443
0.202359 0.527174 0.670580
0.398249 0.540637 0.672787
0.588196 0.563725 0.674244
0.722894 0.582451 0.670138
0.818270 0.605246 0.667323
0.918042 0.581715 0.637259
0.999645 0.564278 0.603575
0.037649 0.677543 0.697862
0.156258 0.678862 0.695397
0.303472 0.683317 0.698294
0.453691 0.688772 0.700206
0.595228 0.701204 0.703204
0.731150 0.715074 0.708639
0.822541 0.702297 0.686771
0.914690 0.683645 0.651290
0.998839 0.667686 0.613184
0.267364 0.804310 0.730846
0.308049 0.807934 0.733371
0.397268 0.806217 0.732865
0.503958 0.806611 0.729398
0.619130 0.805271 0.720725
0.734064 0.801638 0.714996
0.830333 0.798337 0.715214
0.915618 0.789557 0.698526
0.998393 0.780749 0.654187
0.421360 0.897709 0.751345
0.441203 0.897732 0.756814
0.488065 0.896662 0.751466
0.562808 0.894407 0.747538
0.651342 0.894509 0.739599
0.753008 0.888287 0.739046
0.838233 0.884566 0.727523
0.922294 0.886526 0.740125
0.991720 0.890080 0.746273
0.562710 0.994190 0.799457
0.575965 0.998035 0.797086
0.603143 0.998465 0.800030
0.661810 0.996232 0.798115
0.744867 0.994606 0.811870
0.810787 0.995163 0.809643
0.881152 0.992380 0.802613
0.949614 0.995005 0.809029
1.000000 0.993111 0.821629
0.144134 0.003929 0.720588
0.220327 0.000759 0.724787
0.340485 0.000732 0.723375
0.471988 0.000688 0.718263
0.612301 0.001213 0.717342
0.747491 0.000522 0.712824
0.854248 0.002697 0.712761
0.929689 0.003215 0.683301
0.999023 0.199013 0.693992
0.200462 0.000341 0.726339
0.248078 0.000855 0.729246
0.347246 0.002607 0.724661
0.477008 0.000716 0.725893
0.612936 0.001229 0.723215
0.750183 0.001722 0.719555
0.858023 0.002018 0.718835
0.934388 0.037867 0.691092
0.999103 0.274644 0.698689
0.182575 0.111786 0.739077
0.240642 0.107832 0.733667
0.345877 0.095831 0.735890
0.477938 0.075785 0.735042
0.617765 0.060934 0.730960
0.755334 0.067027 0.730036
0.855431 0.128633 0.727409
0.930985 0.281389 0.700069
0.995657 0.397936 0.706339
0.071105 0.307105 0.750827
0.190267 0.316163 0.754235
0.330799 0.321729 0.751438
0.471795 0.325332 0.750104
0.613057 0.331982 0.743704
0.749731 0.347607 0.741069
0.852698 0.385086 0.738834
0.922675 0.458201 0.716631
0.998631 0.514889 0.722900
0.003235 0.470745 0.759884
0.003509 0.472605 0.762102
0.180175 0.476457 0.759371
0.416416 0.499838 0.760182
0.592468 0.518866 0.758713
0.734237 0.532719 0.755650
0.839733 0.557286 0.754191
0.915568 0.606145 0.747669
0.999367 0.612018 0.737274
0.003092 0.641334 0.772674
0.044284 0.641139 0.775608
0.245732 0.644599 0.775817
0.403729 0.648090 0.775616
0.554322 0.656281 0.772849
0.717720 0.679689 0.779372
0.832353 0.697800 0.777164
0.915933 0.718570 0.776883
0.997004 0.694874 0.750184
0.252166 0.772331 0.796801
0.295695 0.775687 0.794214
0.381511 0.774531 0.794999
0.491222 0.778035 0.796570
0.608629 0.785422 0.800822
0.727027 0.796178 0.800379
0.837806 0.812049 0.810481
0.913247 0.798992 0.786370
0.998528 0.782789 0.754921
0.394035 0.896839 0.838746
0.416317 0.897451 0.834435
0.469296 0.893731 0.833864
0.545903 0.896178 0.836643
0.636165 0.895534 0.827401
0.732079 0.895498 0.820368
0.832970 0.891721 0.811570
0.920649 0.890790 0.813186
0.999165 0.888166 0.806043
0.538452 0.998482 0.870156
0.553572 0.992616 0.875920
0.579733 0.999184 0.871054
0.627278 0.996902 0.862562
0.689964 0.998184 0.860527
0.769908 0.999136 0.856693
0.859762 0.997086 0.857107
0.939676 0.997786 0.854562
1.000000 0.999779 0.868630
0.246677 0.000454 0.843296
0.290047 0.000469 0.838245
0.390525 0.000299 0.835658
0.520329 0.002092 0.839840
0.652860 0.000858 0.834305
0.786044 0.002596 0.834075
0.904770 0.001118 0.831947
0.995025 0.000767 0.831446
0.999557 0.000046 0.786236
0.294512 0.000380 0.844120
0.335375 0.000723 0.843692
0.420773 0.002680 0.842879
0.537181 0.000541 0.840141
0.658041 0.001319 0.839858
0.787746 0.000901 0.835055
0.905244 0.001378 0.833521
0.994219 0.000964 0.829753
0.997011 0.014412 0.789268
0.300017 0.009730 0.846684
0.339836 0.006514 0.851721
0.421240 0.002102 0.848113
0.532780 0.001726 0.846237
0.657432 0.001254 0.842749
0.785989 0.000869 0.841861
0.901611 0.002095 0.837148
0.987483 0.027655 0.832323
0.998099 0.269726 0.792353
0.261783 0.267037 0.853511
0.306611 0.268605 0.853496
0.398296 0.267602 0.853522
0.519163 0.264052 0.852331
0.644548 0.264721 0.849894
0.772584 0.274159 0.844651
0.891970 0.297782 0.842169
0.978289 0.340828 0.841054
0.999101 0.442100 0.808528
0.004169 0.413984 0.867749
0.051406 0.422249 0.862474
0.290261 0.443356 0.860589
0.469476 0.462655 0.857390
0.610399 0.468402 0.854847
0.747613 0.475790 0.853147
0.870701 0.493862 0.847982
0.957963 0.527267 0.846683
0.998345 0.591326 0.821827
0.000735 0.602895 0.868842
0.002047 0.601148 0.867184
0.130720 0.600390 0.867601
0.347451 0.600831 0.867451
0.548779 0.614931 0.864300
0.717591 0.635691 0.860234
0.845657 0.646746 0.858079
0.936346 0.670669 0.857069
0.997291 0.716722 0.845947
0.119658 0.749433 0.878675
0.194924 0.748393 0.885113
0.305207 0.750802 0.882907
0.427239 0.749334 0.878078
0.552116 0.751664 0.875269
0.677633 0.754925 0.873634
0.822828 0.773744 0.874378
0.924583 0.794227 0.875096
0.997178 0.817602 0.877235
0.378348 0.864716 0.896155
0.399698 0.867668 0.894781
0.455717 0.868597 0.895692
0.533163 0.868289 0.896868
0.619643 0.874155 0.897389
0.719921 0.877886 0.895577
0.818070 0.885658 0.899277
0.924167 0.902147 0.902480
0.997218 0.889455 0.879458
0.493915 0.995132 0.946510
0.509153 0.993534 0.950664
0.541554 0.997220 0.946765
0.595790 0.996971 0.942287
0.668773 0.997587 0.941727
0.744686 0.999640 0.937932
0.825788 0.999157 0.924029
0.919051 0.999580 0.916489
0.999508 1.000000 0.926525
0.352936 0.000000 0.968628
0.399944 0.002991 0.969116
0.471344 0.000000 0.967873
0.578945 0.002430 0.965641
0.701019 0.000946 0.964768
0.821026 0.001476 0.960743
0.939995 0.000763 0.953919
1.000000 0.000000 0.949100
0.996063 0.003937 0.949005
0.385876 0.003433 0.965637
0.414749 0.003497 0.959269
0.488140 0.000127 0.965081
0.591313 0.002023 0.966883
0.709307 0.001244 0.965237
0.829785 0.001789 0.963150
0.942673 0.001036 0.956756
0.997344 0.002990 0.951033
0.997009 0.002991 0.954987
0.411545 0.002174 0.970047
0.444730 0.000343 0.972600
0.511982 0.000709 0.972830
0.608080 0.000376 0.969908
0.717567 0.000961 0.964523
0.834991 0.003090 0.966668
0.947415 0.000599 0.963215
0.998672 0.001709 0.953428
0.999016 0.000984 0.948792
0.391735 0.190232 0.975140
0.425022 0.186928 0.975100
0.498057 0.182154 0.978611
0.591795 0.171052 0.975848
0.705400 0.159756 0.969059
0.821546 0.152524 0.966587
0.931945 0.169197 0.961538
0.998530 0.205967 0.961077
0.999474 0.243271 0.958233
0.263290 0.403794 0.978424
0.326149 0.410046 0.978924
0.417763 0.413292 0.978046
0.537153 0.413679 0.977743
0.665215 0.415214 0.977508
0.788538 0.419271 0.972317
0.908139 0.430767 0.966694
0.999559 0.449524 0.962444
0.999054 0.476532 0.956864
0.002461 0.553902 0.989696
0.000495 0.556992 0.988347
0.101506 0.549570 0.983795
0.393921 0.565267 0.981488
0.602680 0.590342 0.977377
0.744690 0.596258 0.975690
0.875429 0.604730 0.972775
0.982780 0.616087 0.965950
0.998524 0.639164 0.961739
0.004555 0.732811 0.994873
0.033149 0.728701 0.994541
0.204752 0.728615 0.990826
0.360339 0.726312 0.993956
0.502548 0.722519 0.989731
0.671849 0.725406 0.985449
0.828972 0.738775 0.976757
0.951283 0.751011 0.970578
0.997826 0.763733 0.964912
0.338917 0.864750 0.999557
0.362614 0.864704 0.999215
0.412875 0.867447 0.999434
0.490172 0.866640 0.996641
0.580765 0.864853 0.998880
0.680474 0.862389 0.996595
0.778212 0.857568 0.993353
0.911767 0.868569 0.991137
0.996964 0.881321 0.981708
0.513733 0.972534 1.000000
0.520004 0.976483 0.997009
0.553695 0.973740 0.997826
0.599468 0.979862 1.000000
0.656937 0.980377 0.998108
0.732350 0.986732 0.999474
0.813743 0.989204 0.999245
0.896465 0.996555 1.000000
1.000000 1.000000 1.000000
