ml_luts/presetpro_polaroid_color__lut3d_33.cube
TITLE "Presetpro - Polaroid Color.jpg"
DOMAIN_MIN 0.000000 0.000000 0.000000
DOMAIN_MAX 1.000000 1.000000 1.000000
LUT_3D_SIZE 5
0.003937 0.070587 0.039215
0.156097 0.070595 0.037926
0.437240 0.001968 0.025482
0.727241 0.002953 0.000000
0.984314 0.000000 0.000000
0.000000 0.207070 0.043816
0.174774 0.231592 0.008825
0.510418 0.225956 0.001629
0.785347 0.214241 0.003136
0.996063 0.295525 0.000763
0.001007 0.446045 0.003921
0.179623 0.459598 0.004280
0.500443 0.509842 0.000503
0.806473 0.583038 0.001385
0.998993 0.639160 0.002914
0.210670 0.725173 0.000763
0.334793 0.725576 0.000513
0.559086 0.742149 0.000000
0.802296 0.762910 0.000412
0.999779 0.781609 0.000763
0.607849 0.933319 0.000000
0.656090 0.935082 0.000755
0.748016 0.947998 0.000000
0.885742 0.970810 0.000000
0.996063 0.992157 0.007843
0.000000 0.085510 0.241608
0.131157 0.094152 0.256981
0.419723 0.070316 0.210579
0.692770 0.001442 0.168400
0.979622 0.002617 0.101509
0.004034 0.221071 0.248035
0.182032 0.245007 0.258406
0.486333 0.223994 0.228624
0.759230 0.195290 0.188289
0.998404 0.246889 0.088686
0.002125 0.481995 0.245041
0.218673 0.478012 0.230451
0.514963 0.527309 0.175556
0.809508 0.593506 0.138618
0.998772 0.637730 0.093639
0.227312 0.737308 0.161564
0.341704 0.733175 0.137524
0.560637 0.744857 0.055271
0.804247 0.763687 0.001079
1.000000 0.783477 0.001442
0.592171 0.936280 0.152924
0.634472 0.939341 0.112425
0.739418 0.946548 0.001041
0.880192 0.968817 0.000191
0.993889 0.993889 0.000000
0.001007 0.127441 0.525543
0.002205 0.136131 0.552094
0.498856 0.130867 0.610138
0.709511 0.149185 0.485317
0.931305 0.002014 0.439209
0.002037 0.250202 0.520214
0.051289 0.263742 0.545309
0.520517 0.297243 0.608475
0.721515 0.270628 0.496125
0.939293 0.017032 0.416725
0.001922 0.511383 0.554397
0.210226 0.529602 0.562420
0.531548 0.578396 0.594727
0.780210 0.545986 0.528961
0.991181 0.538132 0.437165
0.243751 0.770161 0.571728
0.356890 0.767303 0.562316
0.544804 0.755302 0.508247
0.801123 0.770195 0.476794
0.998440 0.785423 0.482174
0.506836 0.948075 0.532395
0.559002 0.948284 0.517426
0.685692 0.951424 0.468666
0.849758 0.970737 0.368923
0.998108 0.995056 0.001007
0.000000 0.194336 0.828118
0.000111 0.202900 0.837534
0.457229 0.218093 0.867188
0.799137 0.312629 0.900109
0.946617 0.361008 0.833557
0.000378 0.297045 0.820624
0.003432 0.305888 0.835277
0.475042 0.340829 0.864289
0.790375 0.454572 0.896061
0.944336 0.456232 0.826897
0.000931 0.497639 0.789638
0.001586 0.509536 0.803496
0.464437 0.569347 0.843044
0.775835 0.672287 0.885514
0.921448 0.616630 0.804374
0.222509 0.766975 0.837276
0.351123 0.765302 0.848681
0.568571 0.774546 0.849351
0.799495 0.794281 0.875519
0.978964 0.756270 0.816387
0.576469 0.953919 0.879639
0.603287 0.956873 0.874996
0.670151 0.962700 0.861893
0.789479 0.970509 0.806221
0.997604 0.999557 0.743683
0.329407 0.439209 1.000000
0.416130 0.445320 1.000000
0.599991 0.485260 0.999054
0.789437 0.570824 0.995628
0.956848 0.670593 0.992157
0.341629 0.517868 0.999237
0.428318 0.528749 0.998095
0.604080 0.566993 0.996330
0.787588 0.634912 0.991823
0.958611 0.697807 0.990959
0.334487 0.669708 0.988220
0.435943 0.678482 0.988468
0.603950 0.692657 0.988266
0.800267 0.720920 0.987438
0.973617 0.762817 0.986344
0.455124 0.797829 0.984093
0.492557 0.793877 0.982918
0.601776 0.788605 0.983559
0.805050 0.805265 0.985460
0.988662 0.860031 0.980080
0.662750 0.968628 0.976471
0.684982 0.965675 0.972755
0.741180 0.974563 0.975525
0.843666 0.981583 0.972534
0.996063 1.000000 0.968628
