ml_luts/presetpro_agfa_vista__lut3d_33.cube
TITLE "AGF 11  - Vista.jpg"
DOMAIN_MIN 0.000000 0.000000 0.000000
DOMAIN_MAX 1.000000 1.000000 1.000000
LUT_3D_SIZE 5
0.000000 0.000000 0.000000
0.171562 0.002174 0.008377
0.525558 0.000000 0.018661
0.948052 0.001518 0.012535
1.000000 0.000000 0.101959
0.001198 0.162956 0.036934
0.177345 0.171887 0.000944
0.525177 0.114982 0.000473
0.945311 0.002329 0.004595
0.999237 0.081947 0.029098
0.001953 0.481339 0.129486
0.005298 0.475597 0.096706
0.560273 0.520622 0.000000
0.942356 0.518047 0.000755
0.996078 0.557755 0.001968
0.000000 0.837044 0.331696
0.037779 0.832600 0.313097
0.562618 0.837788 0.222805
0.967301 0.851506 0.001471
0.998482 0.831169 0.000000
0.733337 0.996063 0.788239
0.756104 0.992920 0.784767
0.821579 0.991211 0.765717
0.935074 0.990517 0.674728
1.000000 0.992157 0.286285
0.001198 0.039665 0.163719
0.149716 0.035622 0.134483
0.517182 0.000378 0.138618
0.946690 0.001896 0.081951
0.996063 0.001518 0.079506
0.001276 0.186704 0.191116
0.183735 0.203147 0.188392
0.541307 0.187265 0.165228
0.946744 0.109091 0.072656
0.999233 0.179783 0.007460
0.001655 0.505764 0.303162
0.107474 0.509203 0.269337
0.569813 0.535730 0.183323
0.939803 0.537073 0.025666
0.997974 0.566448 0.001118
0.007908 0.846582 0.480927
0.187603 0.840790 0.457166
0.574931 0.838298 0.401176
0.964992 0.855329 0.208800
0.999701 0.831433 0.001545
0.752174 0.993568 0.815232
0.771632 0.992401 0.810967
0.832909 0.990471 0.803341
0.932364 0.991495 0.737700
0.997826 0.992699 0.304726
0.000000 0.119613 0.419602
0.132255 0.124889 0.411876
0.453407 0.128464 0.395065
0.869701 0.129776 0.432224
0.998108 0.123535 0.445221
0.002823 0.232346 0.441463
0.133152 0.251098 0.456994
0.484814 0.270184 0.436222
0.911474 0.296457 0.477151
0.998203 0.343262 0.464440
0.000503 0.515213 0.530388
0.067265 0.526737 0.534187
0.548107 0.566387 0.554600
0.942419 0.583633 0.540390
0.998108 0.600067 0.451927
0.140427 0.854530 0.720360
0.371837 0.855834 0.722650
0.632940 0.851044 0.700008
0.932811 0.866423 0.650873
0.998619 0.845821 0.519222
0.785248 0.991211 0.867615
0.828918 0.990662 0.873207
0.857430 0.992050 0.858887
0.927990 0.991020 0.839428
1.000000 0.988297 0.705826
0.001518 0.247826 0.776794
0.002600 0.253246 0.774858
0.511715 0.250877 0.765487
0.848533 0.260792 0.760931
0.999016 0.550346 0.794884
0.002625 0.328108 0.785114
0.003109 0.341373 0.791281
0.514918 0.351811 0.783181
0.856679 0.383166 0.778332
0.997891 0.623936 0.812593
0.001278 0.556316 0.814491
0.002483 0.552008 0.811788
0.473496 0.568754 0.820948
0.869354 0.628219 0.818083
0.999271 0.757439 0.847092
0.000732 0.841864 0.855824
0.189949 0.843435 0.856956
0.606209 0.848535 0.860967
0.895449 0.869792 0.867713
0.998369 0.881760 0.861162
0.752175 0.999245 0.920799
0.785421 0.997091 0.922317
0.856525 0.992065 0.919422
0.943397 0.992157 0.921641
0.997826 0.994545 0.887795
0.552948 0.647064 0.992157
0.636055 0.653923 0.986267
0.806900 0.660782 0.982406
0.969917 0.684304 0.972755
1.000000 0.721558 0.968628
0.502945 0.666435 0.994552
0.634731 0.697361 0.988077
0.807068 0.706810 0.983932
0.963156 0.725492 0.976498
1.000000 0.758812 0.960785
0.337463 0.753953 0.994049
0.490372 0.758816 0.996254
0.776443 0.793579 0.986817
0.939465 0.813511 0.977120
0.999054 0.836304 0.968567
0.562973 0.903916 0.998047
0.609329 0.902661 0.994358
0.717876 0.895508 0.995728
0.907280 0.901709 0.990080
1.000000 0.920357 0.976250
0.764709 1.000000 1.000000
0.783768 0.997047 0.996284
0.843140 1.000000 0.998993
0.922096 0.997047 0.994118
1.000000 1.000000 1.000000
