ml_luts/presetpro_polaroid_color__lut3d_33.cube
TITLE "Presetpro - Polaroid Color.jpg"
DOMAIN_MIN 0.000000 0.000000 0.000000
DOMAIN_MAX 1.000000 1.000000 1.000000
LUT_3D_SIZE 33
0.003937 0.070587 0.039215
0.003789 0.070469 0.039097
0.000465 0.074012 0.039207
0.012053 0.074138 0.036007
0.031326 0.071484 0.035355
0.062615 0.071209 0.038064
0.086529 0.070707 0.035921
0.123722 0.072971 0.039052
0.156097 0.070595 0.037926
0.183450 0.066663 0.035007
0.215910 0.062752 0.034065
0.254170 0.055345 0.033947
0.288224 0.044056 0.031368
0.326082 0.032601 0.030752
0.364942 0.016918 0.026960
0.403621 0.003863 0.024599
0.437240 0.001968 0.025482
0.471875 0.002921 0.023518
0.510771 0.002718 0.021309
0.545244 0.002338 0.016777
0.580872 0.000000 0.010300
0.618959 0.001353 0.007239
0.657637 0.002707 0.002958
0.692984 0.001107 0.004826
0.727241 0.002953 0.000000
0.764763 0.000000 0.000694
0.801609 0.000000 0.003197
0.836691 0.000000 0.002862
0.868149 0.000442 0.001339
0.895988 0.003208 0.007129
0.930864 0.000236 0.007370
0.964713 0.003666 0.003814
0.984314 0.000000 0.000000
0.000123 0.081999 0.035283
0.000118 0.078529 0.035423
0.000125 0.078639 0.035542
0.011051 0.082107 0.035663
0.036984 0.079484 0.035122
0.066843 0.082055 0.037922
0.092811 0.079615 0.033785
0.130489 0.080916 0.036566
0.157228 0.078340 0.035295
0.190827 0.070681 0.032402
0.224513 0.068860 0.032428
0.261808 0.064749 0.032638
0.295988 0.055730 0.029565
0.332331 0.040964 0.024084
0.368507 0.025872 0.022733
0.406805 0.011460 0.024733
0.444972 0.003062 0.022748
0.481396 0.002846 0.019675
0.517251 0.002949 0.018842
0.550394 0.001209 0.016871
0.586345 0.000950 0.011512
0.624303 0.002043 0.003863
0.660469 0.001057 0.000926
0.695894 0.000153 0.000151
0.728217 0.000181 0.000000
0.766029 0.000188 0.000720
0.804309 0.000697 0.002694
0.839891 0.000517 0.000089
0.865281 0.003388 0.000042
0.896213 0.003590 0.000234
0.930744 0.000347 0.000341
0.961251 0.000348 0.000119
0.988098 0.003814 0.000000
0.003433 0.089949 0.042394
0.000329 0.089947 0.035530
0.000236 0.086950 0.034860
0.007685 0.093325 0.035155
0.036480 0.093919 0.029245
0.064549 0.093689 0.031570
0.090855 0.093456 0.032536
0.129821 0.090854 0.035278
0.159439 0.090306 0.035081
0.193806 0.084307 0.034800
0.227414 0.081344 0.033314
0.262415 0.075748 0.031852
0.297840 0.067858 0.029986
0.337021 0.056235 0.029585
0.375149 0.042095 0.030332
0.413060 0.028069 0.028525
0.448783 0.013826 0.022230
0.483828 0.004277 0.017883
0.518978 0.002797 0.016195
0.554485 0.002846 0.014058
0.593738 0.001846 0.012270
0.628029 0.001766 0.005924
0.663473 0.001034 0.002682
0.700445 0.001879 0.006311
0.730323 0.000657 0.000708
0.771502 0.003498 0.000045
0.805540 0.006082 0.000280
0.835108 0.003931 0.000507
0.868458 0.006240 0.000000
0.903012 0.003600 0.000323
0.934524 0.003697 0.003226
0.967827 0.000152 0.000015
0.988478 0.004623 0.000487
0.000343 0.102263 0.036019
0.000033 0.105045 0.038439
0.000230 0.105068 0.038238
0.004254 0.108706 0.035243
0.030571 0.106770 0.028440
0.064469 0.111252 0.033131
0.095956 0.104683 0.031992
0.132451 0.107166 0.036657
0.167749 0.106243 0.036904
0.202575 0.101441 0.034633
0.236677 0.098497 0.034372
0.271537 0.094008 0.032096
0.306355 0.089208 0.030163
0.342737 0.080355 0.027887
0.378486 0.070593 0.026559
0.414172 0.057792 0.021497
0.451302 0.040400 0.019671
0.490372 0.021430 0.020794
0.526548 0.007179 0.017377
0.561244 0.001706 0.013128
0.599377 0.000303 0.007270
0.634196 0.001094 0.001622
0.670931 0.001843 0.001698
0.707924 0.000923 0.005090
0.738495 0.000667 0.003161
0.774345 0.002858 0.000000
0.809743 0.002941 0.000120
0.840963 0.000874 0.000541
0.872198 0.003354 0.000000
0.906123 0.000638 0.000053
0.932087 0.000689 0.000529
0.965470 0.006326 0.000113
0.998230 0.042973 0.003617
0.000000 0.120201 0.039181
0.000103 0.120582 0.039816
0.000035 0.121026 0.038979
0.000587 0.124882 0.035191
0.026703 0.127668 0.032145
0.067064 0.129152 0.037546
0.103129 0.125449 0.032188
0.134768 0.129585 0.027149
0.175364 0.126136 0.032808
0.208733 0.123298 0.033326
0.242334 0.120516 0.032528
0.282661 0.112694 0.031188
0.319101 0.110414 0.032518
0.353419 0.106154 0.031020
0.389157 0.097607 0.028355
0.423263 0.086610 0.022769
0.462233 0.074225 0.018368
0.504069 0.060262 0.018026
0.539906 0.042160 0.015723
0.573633 0.023916 0.012840
0.607785 0.010545 0.007940
0.642001 0.003258 0.001095
0.678132 0.001838 0.002436
0.712809 0.000101 0.002765
0.746823 0.000083 0.000540
0.778310 0.001000 0.000355
0.812262 0.003293 0.000100
0.848059 0.002571 0.000451
0.879883 0.001217 0.000000
0.913888 0.005278 0.000003
0.938923 0.024325 0.000029
0.972155 0.063592 0.000202
0.996460 0.101597 0.006474
0.002781 0.133790 0.049235
0.000105 0.136484 0.043360
0.000001 0.139442 0.040030
0.000881 0.145564 0.035845
0.016836 0.149455 0.034924
0.056915 0.148204 0.032950
0.103078 0.150404 0.033241
0.142561 0.151614 0.027967
0.179208 0.149140 0.028533
0.216136 0.147053 0.029822
0.253208 0.146114 0.029945
0.292850 0.141141 0.029658
0.329533 0.139398 0.028906
0.364115 0.134736 0.025803
0.399269 0.127717 0.025892
0.436171 0.120360 0.025294
0.474550 0.110372 0.022172
0.512328 0.098244 0.016894
0.548497 0.085425 0.010478
0.583334 0.074128 0.005610
0.616699 0.063037 0.002465
0.650846 0.049689 0.002814
0.687423 0.037887 0.001497
0.721328 0.027843 0.000927
0.755303 0.022666 0.001977
0.790298 0.024042 0.001653
0.822635 0.027810 0.000015
0.852880 0.037229 0.000519
0.887523 0.051445 0.003138
0.917610 0.072799 0.004737
0.942479 0.098525 0.002807
0.973991 0.127542 0.000150
0.996604 0.150399 0.001609
0.000618 0.157337 0.045837
0.000019 0.161034 0.045821
0.000000 0.164379 0.040529
0.002529 0.164362 0.038683
0.009987 0.167041 0.036232
0.048975 0.169788 0.037101
0.099013 0.173578 0.029791
0.140553 0.175363 0.020585
0.180436 0.177079 0.023782
0.218534 0.174147 0.022188
0.256409 0.172945 0.022341
0.295062 0.169091 0.020829
0.334922 0.169577 0.020179
0.375338 0.167447 0.019287
0.413882 0.163078 0.019932
0.451907 0.156127 0.018248
0.488040 0.148104 0.016271
0.523216 0.139959 0.013529
0.558353 0.131406 0.007301
0.594501 0.124660 0.002392
0.631949 0.116427 0.001038
0.666146 0.108351 0.002467
0.700755 0.102323 0.001301
0.731700 0.095731 0.000295
0.763544 0.095348 0.001080
0.797349 0.097447 0.000915
0.830401 0.103769 0.000772
0.862810 0.110921 0.004569
0.892510 0.119798 0.006428
0.921045 0.139570 0.002195
0.946481 0.161847 0.000810
0.976729 0.179695 0.000026
0.999382 0.202200 0.000120
0.000000 0.181557 0.043479
0.003072 0.185278 0.046692
0.000198 0.183305 0.042779
0.001256 0.186198 0.037990
0.007813 0.187407 0.037457
0.037618 0.192784 0.037093
0.086943 0.199223 0.029510
0.132022 0.203691 0.019264
0.176012 0.206801 0.014176
0.216096 0.202486 0.013519
0.255267 0.201092 0.012391
0.297302 0.199158 0.011503
0.339604 0.198289 0.010537
0.381611 0.194864 0.009993
0.421531 0.193068 0.010601
0.462889 0.191165 0.011435
0.501767 0.188370 0.008315
0.538975 0.182549 0.004554
0.575378 0.174916 0.003213
0.609309 0.171175 0.001193
0.645641 0.165642 0.001844
0.679783 0.159402 0.004189
0.712210 0.157849 0.002140
0.742479 0.156572 0.000544
0.771626 0.156893 0.000174
0.805696 0.159678 0.000151
0.838210 0.164712 0.000655
0.870318 0.172084 0.003740
0.900401 0.180840 0.004484
0.920254 0.197502 0.000372
0.951634 0.213336 0.001081
0.981062 0.229033 0.006010
0.996924 0.250430 0.002384
0.000000 0.207070 0.043816
0.001715 0.213049 0.043623
0.002685 0.209064 0.042537
0.002428 0.209712 0.039029
0.002816 0.214381 0.035602
0.032520 0.215279 0.032499
0.079331 0.222329 0.024666
0.128660 0.226419 0.018049
0.174774 0.231592 0.008825
0.215232 0.231742 0.005492
0.255513 0.232758 0.004566
0.299552 0.231898 0.003737
0.342906 0.230788 0.002483
0.384848 0.229232 0.001936
0.426058 0.227064 0.002999
0.468990 0.225245 0.003264
0.510418 0.225956 0.001629
0.551373 0.226424 0.001367
0.591908 0.224800 0.002390
0.627912 0.222689 0.002162
0.660570 0.217309 0.002049
0.690386 0.211448 0.001870
0.721697 0.210553 0.000594
0.752854 0.211421 0.001202
0.785347 0.214241 0.003136
0.816447 0.218537 0.001109
0.845973 0.221199 0.000465
0.877184 0.228045 0.002321
0.905523 0.234471 0.001282
0.923733 0.248281 0.000225
0.954724 0.263796 0.002499
0.983572 0.279449 0.003941
0.996063 0.295525 0.000763
0.000000 0.233693 0.041383
0.000274 0.236374 0.040967
0.000983 0.236011 0.040552
0.004473 0.237966 0.039914
0.001178 0.243436 0.033548
0.030383 0.242739 0.026531
0.075762 0.246524 0.020191
0.125091 0.249801 0.015969
0.171872 0.255550 0.004824
0.213826 0.258824 0.000977
0.255545 0.261885 0.000768
0.300733 0.264301 0.001048
0.347059 0.264522 0.001535
0.389757 0.262405 0.001186
0.430813 0.260863 0.001204
0.472430 0.261038 0.001476
0.512630 0.262688 0.000724
0.554701 0.264744 0.000898
0.599363 0.267162 0.002642
0.639070 0.268814 0.002845
0.672528 0.267241 0.001257
0.704127 0.264990 0.000259
0.735586 0.263821 0.000000
0.767951 0.264379 0.001390
0.799081 0.268345 0.003841
0.826462 0.273119 0.000416
0.856164 0.277151 0.000413
0.883782 0.283047 0.002137
0.908598 0.290924 0.001669
0.934838 0.300997 0.000812
0.959783 0.312544 0.000864
0.986890 0.326967 0.001620
0.998893 0.340106 0.002457
0.000860 0.263138 0.037742
0.002649 0.263561 0.038596
0.000326 0.262852 0.036022
0.002377 0.263067 0.032609
0.000780 0.271429 0.031807
0.024412 0.269388 0.023682
0.073965 0.274038 0.016393
0.122550 0.277935 0.009634
0.168218 0.283581 0.002548
0.213763 0.287465 0.001507
0.255944 0.289778 0.000570
0.299979 0.294098 0.002572
0.345114 0.295900 0.003082
0.389631 0.295352 0.002503
0.431958 0.296088 0.002319
0.474046 0.296698 0.001607
0.515121 0.299094 0.000965
0.557620 0.300944 0.000716
0.602196 0.303235 0.000849
0.643446 0.307547 0.000924
0.680417 0.310938 0.000298
0.714965 0.317609 0.000627
0.750149 0.321018 0.001852
0.781802 0.321358 0.002049
0.808730 0.323266 0.002108
0.834136 0.329055 0.000951
0.861728 0.333866 0.000127
0.887711 0.339875 0.000683
0.913725 0.347706 0.000670
0.943217 0.354369 0.000320
0.962603 0.364679 0.000022
0.984620 0.378540 0.000402
0.997293 0.388704 0.001928
0.001351 0.289582 0.036480
0.002964 0.293076 0.036014
0.000267 0.293447 0.031672
0.000398 0.292315 0.028059
0.000210 0.298054 0.031058
0.023781 0.298693 0.020598
0.072522 0.304280 0.012427
0.121249 0.305958 0.003801
0.163861 0.311389 0.000705
0.208335 0.315330 0.001286
0.251817 0.319489 0.000517
0.298274 0.322953 0.001170
0.343081 0.325657 0.002278
0.387957 0.328715 0.003643
0.430123 0.331328 0.003227
0.472598 0.333450 0.001701
0.517061 0.335505 0.000786
0.561950 0.336631 0.000228
0.604272 0.340262 0.000254
0.642389 0.345931 0.000345
0.680932 0.351833 0.000278
0.718993 0.362142 0.001426
0.754715 0.370718 0.002410
0.787285 0.377023 0.002342
0.816781 0.382038 0.003834
0.843006 0.387516 0.002728
0.869148 0.390953 0.000407
0.893698 0.395997 0.000000
0.920014 0.401503 0.000000
0.947927 0.406661 0.000000
0.966506 0.416057 0.000000
0.988737 0.429833 0.000013
0.994421 0.439694 0.000430
0.003540 0.317562 0.029877
0.002491 0.320995 0.029367
0.000154 0.320305 0.025863
0.000000 0.324061 0.024106
0.000835 0.325800 0.021071
0.024829 0.328223 0.013538
0.071335 0.333233 0.005220
0.122862 0.334455 0.000789
0.164643 0.339498 0.000000
0.207237 0.344846 0.000304
0.250559 0.349859 0.000132
0.296254 0.352344 0.000989
0.339657 0.356850 0.001159
0.383750 0.362400 0.001514
0.426821 0.366341 0.001288
0.470355 0.369601 0.000661
0.515629 0.371567 0.001017
0.560409 0.373952 0.001838
0.602274 0.379696 0.001598
0.640440 0.386328 0.001480
0.679078 0.392669 0.001697
0.718611 0.401204 0.000964
0.754641 0.411237 0.002219
0.787281 0.421867 0.002522
0.819754 0.431604 0.002296
0.849535 0.439882 0.003003
0.877371 0.446334 0.002232
0.899596 0.453365 0.000000
0.922660 0.458147 0.000513
0.950470 0.461281 0.003857
0.971468 0.466870 0.001413
0.992822 0.478464 0.000000
0.997585 0.486221 0.000000
0.003318 0.349499 0.018873
0.004546 0.350887 0.020190
0.001561 0.349693 0.017842
0.000127 0.353628 0.015687
0.000812 0.355444 0.011709
0.025307 0.356892 0.006409
0.073805 0.361456 0.002509
0.123266 0.363894 0.000750
0.164274 0.367938 0.000113
0.205368 0.373454 0.000000
0.248175 0.380263 0.000000
0.292656 0.383907 0.000643
0.335510 0.389618 0.001217
0.380037 0.395331 0.000552
0.424211 0.399931 0.000000
0.468572 0.402829 0.000077
0.512131 0.406238 0.000562
0.555001 0.412693 0.001653
0.598249 0.419881 0.001495
0.638411 0.426917 0.000834
0.677279 0.433671 0.001000
0.716482 0.440636 0.000805
0.752131 0.451258 0.002074
0.784881 0.462951 0.001069
0.816166 0.473208 0.000453
0.846677 0.482800 0.001965
0.877031 0.493682 0.002219
0.903034 0.505849 0.000826
0.926439 0.513359 0.000333
0.952401 0.515156 0.002507
0.972029 0.517899 0.000923
0.992323 0.526772 0.000101
0.997300 0.532957 0.000979
0.001997 0.381355 0.008356
0.002636 0.381895 0.009526
0.001105 0.381535 0.007627
0.000094 0.383180 0.005071
0.000950 0.384415 0.004711
0.029163 0.385776 0.001804
0.078437 0.390525 0.001323
0.125746 0.393345 0.000553
0.167713 0.396782 0.000405
0.209749 0.402878 0.000997
0.249557 0.409825 0.000381
0.290085 0.414725 0.000800
0.331917 0.421888 0.001705
0.376848 0.427720 0.002126
0.421100 0.432667 0.002089
0.465087 0.435311 0.001555
0.507560 0.439972 0.000586
0.549756 0.448137 0.000443
0.593408 0.456183 0.001064
0.633771 0.464190 0.000870
0.672395 0.471246 0.000599
0.711814 0.479392 0.001432
0.748336 0.489507 0.001556
0.781328 0.500909 0.000362
0.811223 0.511151 0.001119
0.840293 0.521068 0.000626
0.871422 0.532300 0.000678
0.902158 0.543697 0.000919
0.930071 0.554229 0.001742
0.951413 0.562323 0.000193
0.973542 0.566031 0.002144
0.995126 0.569746 0.003379
0.998011 0.574514 0.002712
0.001900 0.413306 0.005007
0.003059 0.413486 0.006147
0.002078 0.412435 0.002449
0.000188 0.413911 0.000206
0.002215 0.413716 0.000513
0.036853 0.417532 0.000940
0.087314 0.420357 0.000676
0.133364 0.424158 0.000131
0.174581 0.428417 0.003393
0.216178 0.434913 0.003646
0.253356 0.440170 0.001489
0.290951 0.444373 0.001385
0.330971 0.452745 0.001179
0.375166 0.460531 0.002675
0.418515 0.465253 0.002656
0.461599 0.469282 0.001249
0.504518 0.474699 0.000978
0.545831 0.482823 0.001537
0.587020 0.492746 0.001990
0.627724 0.500681 0.001765
0.667796 0.507454 0.001427
0.707568 0.517421 0.001744
0.745141 0.527667 0.002099
0.778069 0.537486 0.000790
0.809435 0.547403 0.001473
0.836129 0.557387 0.001308
0.868709 0.566888 0.002469
0.899120 0.576141 0.004139
0.928570 0.586545 0.005207
0.949495 0.596835 0.001055
0.972293 0.604054 0.002980
0.995871 0.607510 0.005851
0.998930 0.610231 0.004756
0.001007 0.446045 0.003921
0.002855 0.446163 0.004838
0.002070 0.445166 0.003208
0.001101 0.445611 0.001950
0.004438 0.444836 0.001057
0.045702 0.448940 0.003186
0.096943 0.451272 0.001655
0.141059 0.456112 0.001050
0.179623 0.459598 0.004280
0.218079 0.464609 0.004055
0.255513 0.470369 0.002837
0.293896 0.474011 0.002408
0.333424 0.482336 0.002112
0.374320 0.490376 0.001968
0.416059 0.496226 0.001393
0.458411 0.502593 0.000443
0.500443 0.509842 0.000503
0.541344 0.517914 0.001837
0.581006 0.526842 0.002363
0.621270 0.534884 0.001961
0.662249 0.542269 0.001843
0.701340 0.552279 0.002088
0.739158 0.563706 0.002887
0.773428 0.574673 0.001467
0.806473 0.583038 0.001385
0.833665 0.591383 0.001231
0.865561 0.599968 0.002324
0.893913 0.608455 0.003799
0.923500 0.616026 0.004488
0.946963 0.622734 0.001848
0.971465 0.631257 0.002074
0.995800 0.636396 0.002974
0.998993 0.639160 0.002914
0.000000 0.478712 0.002021
0.000000 0.478963 0.001037
0.000122 0.478132 0.002145
0.000982 0.478513 0.001971
0.010024 0.477357 0.001123
0.056078 0.480872 0.002791
0.104448 0.483532 0.001139
0.148453 0.485963 0.001633
0.185218 0.489278 0.001630
0.221475 0.494425 0.002090
0.259634 0.500945 0.002388
0.298897 0.506287 0.002415
0.337245 0.512830 0.002658
0.374562 0.520394 0.001633
0.414832 0.527618 0.001395
0.455030 0.534509 0.000860
0.494421 0.543204 0.000951
0.536209 0.551005 0.002458
0.577710 0.557708 0.002542
0.616768 0.566665 0.001915
0.655231 0.575825 0.002110
0.692824 0.585075 0.002083
0.729578 0.595471 0.001797
0.766955 0.607031 0.001900
0.800810 0.615423 0.001425
0.830052 0.622120 0.000000
0.862299 0.629901 0.000190
0.889837 0.636336 0.001302
0.919554 0.642689 0.002903
0.945607 0.647013 0.003067
0.972782 0.653707 0.001007
0.997435 0.657773 0.000063
1.000000 0.663282 0.000000
0.000721 0.511824 0.002220
0.000023 0.512659 0.001040
0.000100 0.511652 0.001001
0.000918 0.511750 0.000844
0.022058 0.510465 0.000302
0.069896 0.514845 0.000948
0.114554 0.517370 0.001288
0.156434 0.518010 0.001372
0.192728 0.522432 0.001097
0.227579 0.528037 0.000997
0.265039 0.534600 0.001718
0.303757 0.540597 0.001879
0.340911 0.545767 0.001208
0.378317 0.553700 0.001368
0.416845 0.560335 0.001717
0.455579 0.565945 0.000805
0.494488 0.574778 0.002083
0.534112 0.583692 0.003348
0.574356 0.590953 0.002205
0.613324 0.599707 0.002606
0.650652 0.608326 0.003527
0.687276 0.615871 0.002241
0.722656 0.625372 0.000311
0.759618 0.634813 0.000996
0.794240 0.643828 0.000747
0.825447 0.648950 0.000435
0.861206 0.657046 0.001980
0.888367 0.661628 0.002018
0.916755 0.667076 0.002592
0.946534 0.670373 0.003397
0.971929 0.675889 0.000939
0.996611 0.678179 0.000000
1.000000 0.684807 0.000000
0.000979 0.547211 0.001979
0.000031 0.549090 0.001378
0.000333 0.548096 0.001359
0.006669 0.546392 0.001145
0.043966 0.545188 0.000410
0.087294 0.550066 0.001909
0.129802 0.552369 0.002390
0.165737 0.554946 0.000943
0.201720 0.559165 0.001616
0.236013 0.564129 0.000557
0.271958 0.569790 0.001445
0.308104 0.575041 0.002257
0.345060 0.579582 0.000877
0.383583 0.586099 0.000949
0.422118 0.592776 0.001598
0.461397 0.597901 0.001158
0.500035 0.606228 0.002046
0.536078 0.616073 0.002056
0.572224 0.624217 0.001372
0.610093 0.632208 0.003097
0.647474 0.637962 0.003640
0.683642 0.643580 0.001772
0.718827 0.652635 0.000000
0.752754 0.661585 0.000000
0.787641 0.668615 0.000000
0.822330 0.671967 0.000658
0.858148 0.680972 0.002745
0.886166 0.684123 0.001397
0.914163 0.688730 0.000562
0.945945 0.691540 0.002247
0.971319 0.696184 0.001274
0.996710 0.695512 0.000000
1.000000 0.699896 0.000000
0.001476 0.586254 0.001904
0.000090 0.586328 0.000059
0.005296 0.585765 0.000000
0.029182 0.584414 0.000000
0.072341 0.584161 0.000000
0.108334 0.587917 0.001593
0.147259 0.589192 0.001129
0.180586 0.591676 0.000468
0.216136 0.595545 0.000798
0.250021 0.600601 0.000268
0.284043 0.605251 0.000000
0.317388 0.610635 0.001334
0.354156 0.614044 0.001120
0.391993 0.619121 0.000799
0.431036 0.626420 0.001250
0.468845 0.632240 0.001322
0.504704 0.639053 0.001183
0.540456 0.646841 0.001322
0.575933 0.654451 0.001492
0.611024 0.661737 0.001874
0.646253 0.666805 0.002219
0.682432 0.672051 0.001589
0.717362 0.677732 0.001114
0.750739 0.684006 0.001093
0.784917 0.687952 0.000283
0.819693 0.693101 0.000104
0.854441 0.700780 0.000566
0.884505 0.702079 0.000953
0.914349 0.708654 0.001019
0.944772 0.709217 0.001366
0.972534 0.712962 0.000059
0.996837 0.712325 0.000937
1.000000 0.716083 0.000526
0.015330 0.625018 0.001662
0.020790 0.623020 0.000052
0.037519 0.624025 0.000492
0.074958 0.624497 0.000163
0.104151 0.624308 0.000668
0.135693 0.624555 0.000116
0.168393 0.627049 0.000000
0.202388 0.628246 0.000454
0.237247 0.631001 0.000145
0.268654 0.634739 0.000000
0.300783 0.639727 0.000000
0.334074 0.644244 0.000921
0.370234 0.648095 0.001480
0.405569 0.652859 0.001423
0.441118 0.658275 0.001453
0.476700 0.664469 0.001202
0.511161 0.670365 0.000892
0.546890 0.675151 0.000894
0.582637 0.680815 0.000518
0.616118 0.686844 0.000979
0.650901 0.691521 0.002754
0.687852 0.696690 0.002928
0.722233 0.701038 0.002379
0.754710 0.701898 0.002246
0.786460 0.704883 0.000928
0.817332 0.713568 0.001250
0.852172 0.718207 0.000349
0.883514 0.719293 0.000260
0.914544 0.726109 0.001454
0.943332 0.727028 0.000000
0.973591 0.730196 0.000213
0.994687 0.730396 0.003340
0.999570 0.735123 0.001351
0.063610 0.661045 0.000000
0.083013 0.660596 0.000000
0.105183 0.659863 0.001726
0.130111 0.662145 0.001040
0.147415 0.661834 0.001732
0.173316 0.661544 0.000586
0.200924 0.661543 0.000066
0.232257 0.663530 0.000000
0.261776 0.667272 0.000265
0.289953 0.670032 0.000099
0.322018 0.671479 0.000000
0.356976 0.675146 0.000633
0.389489 0.678223 0.001018
0.420834 0.683088 0.002033
0.454051 0.685821 0.002046
0.488399 0.690633 0.002149
0.521705 0.696093 0.002217
0.556900 0.699673 0.001091
0.593111 0.704684 0.000198
0.626735 0.708546 0.000817
0.661246 0.711500 0.001256
0.695846 0.716986 0.000296
0.727953 0.722129 0.001245
0.759768 0.721959 0.001571
0.789007 0.724490 0.001359
0.818300 0.730555 0.003863
0.851260 0.731001 0.000699
0.883456 0.735276 0.000136
0.912159 0.741323 0.000868
0.941612 0.745921 0.000786
0.969123 0.746932 0.000218
0.994465 0.745721 0.003428
0.998434 0.749643 0.001728
0.142218 0.697441 0.000000
0.153537 0.693622 0.000000
0.170689 0.693777 0.001707
0.185696 0.693651 0.001735
0.196941 0.696249 0.001895
0.219222 0.694855 0.000984
0.239324 0.693930 0.000152
0.268012 0.695969 0.000000
0.295330 0.700499 0.000609
0.320508 0.701473 0.000228
0.349795 0.701674 0.000242
0.381533 0.703408 0.000121
0.412805 0.706258 0.000000
0.442446 0.711107 0.000000
0.473643 0.713945 0.000687
0.506959 0.716594 0.001633
0.539023 0.720232 0.000998
0.572113 0.723955 0.000513
0.606461 0.727630 0.000616
0.639425 0.730230 0.000330
0.671699 0.733719 0.000507
0.703285 0.738086 0.000000
0.735502 0.741125 0.000884
0.763854 0.743252 0.002083
0.792067 0.744447 0.001135
0.822901 0.746774 0.003151
0.852712 0.745997 0.000056
0.882738 0.748705 0.000439
0.912964 0.754409 0.002811
0.942045 0.759282 0.002548
0.970025 0.761464 0.000000
0.995125 0.763023 0.000062
0.998377 0.766627 0.001996
0.210670 0.725173 0.000763
0.221129 0.723925 0.001436
0.233518 0.723763 0.000806
0.241014 0.724004 0.000320
0.255285 0.721780 0.003005
0.270126 0.720621 0.000717
0.288160 0.721991 0.000506
0.312042 0.722254 0.000548
0.334793 0.725576 0.000513
0.358663 0.727235 0.000142
0.385603 0.727411 0.000949
0.411408 0.730468 0.000705
0.439974 0.732627 0.000270
0.468225 0.734985 0.000298
0.497862 0.737725 0.000900
0.528777 0.739531 0.000622
0.559086 0.742149 0.000000
0.590292 0.745386 0.000354
0.621964 0.748326 0.000522
0.652581 0.749874 0.000376
0.683356 0.751487 0.000460
0.716031 0.755950 0.000145
0.746366 0.758101 0.000069
0.772507 0.760046 0.000221
0.802296 0.762910 0.000412
0.826235 0.764698 0.000851
0.855038 0.766114 0.000475
0.884779 0.765222 0.001112
0.914652 0.773210 0.002174
0.939901 0.775577 0.001970
0.975255 0.777361 0.000107
0.998256 0.779296 0.001679
0.999779 0.781609 0.000763
0.276085 0.745138 0.004461
0.285854 0.747610 0.005198
0.294827 0.748262 0.002562
0.299919 0.747876 0.000224
0.313789 0.746476 0.001595
0.323481 0.747047 0.000868
0.337558 0.749648 0.001583
0.357629 0.750779 0.001714
0.378161 0.750271 0.001603
0.398853 0.750865 0.000562
0.421349 0.752893 0.001118
0.443882 0.755287 0.001253
0.469796 0.756712 0.000948
0.498046 0.757824 0.001000
0.527421 0.757797 0.000574
0.555498 0.759055 0.000167
0.581773 0.763437 0.000083
0.611398 0.765805 0.000078
0.642100 0.766263 0.000832
0.671830 0.767551 0.002195
0.701896 0.770598 0.002096
0.728229 0.775519 0.000454
0.754999 0.775816 0.000241
0.782100 0.778746 0.000927
0.812242 0.780498 0.001763
0.836666 0.780225 0.002685
0.864738 0.785215 0.001746
0.893629 0.783326 0.003257
0.917824 0.787010 0.000741
0.942347 0.794446 0.000629
0.973246 0.796991 0.000334
0.996605 0.797784 0.005248
0.998975 0.799512 0.002384
0.341425 0.770715 0.007832
0.348908 0.768549 0.002763
0.353598 0.772947 0.000806
0.358545 0.771625 0.000064
0.368447 0.767581 0.001537
0.375474 0.770044 0.000274
0.391841 0.770800 0.000000
0.406904 0.772843 0.000130
0.421739 0.771393 0.000041
0.444566 0.773683 0.000446
0.463883 0.774271 0.000620
0.485944 0.773279 0.000213
0.508913 0.775029 0.000595
0.531137 0.778148 0.000570
0.557603 0.779096 0.000870
0.582946 0.781128 0.000942
0.606912 0.784165 0.000808
0.635145 0.784501 0.000919
0.663791 0.785353 0.002219
0.690763 0.786483 0.003969
0.717347 0.787117 0.002449
0.741751 0.792425 0.000000
0.767840 0.795379 0.000256
0.795453 0.795690 0.001403
0.821534 0.799950 0.002216
0.847499 0.801042 0.000720
