ml_luts/presetpro_warm_tones__lut3d_33.cube
TITLE "Presetpro - Warm Tones.jpg"
DOMAIN_MIN 0.000000 0.000000 0.000000
DOMAIN_MAX 1.000000 1.000000 1.000000
LUT_3D_SIZE 33
0.003937 0.003937 0.000000
0.007957 0.000123 0.003814
0.023508 0.000487 0.000733
0.038171 0.006825 0.000049
0.046578 0.008251 0.003445
0.057593 0.015082 0.006692
0.070953 0.017641 0.005144
0.093397 0.025383 0.010224
0.108597 0.028977 0.010338
0.127741 0.034854 0.016043
0.154135 0.033117 0.012987
0.186792 0.035618 0.017387
0.222500 0.030403 0.016723
0.263957 0.023530 0.018364
0.308550 0.011993 0.020330
0.353838 0.003087 0.020693
0.399994 0.001953 0.020691
0.450013 0.001005 0.020503
0.499504 0.000721 0.019600
0.547060 0.000979 0.016664
0.596115 0.000950 0.016109
0.641729 0.002092 0.014161
0.687973 0.000860 0.009056
0.728185 0.000000 0.007839
0.766678 0.000763 0.003708
0.804829 0.002551 0.000167
0.842392 0.000740 0.000620
0.879750 0.001075 0.000000
0.903534 0.004318 0.000141
0.928017 0.018210 0.001023
0.957856 0.095125 0.000008
0.984450 0.149748 0.000118
1.000000 0.196075 0.000000
0.000123 0.015437 0.000118
0.007724 0.015318 0.003674
0.019593 0.015440 0.000474
0.034136 0.015753 0.000238
0.049826 0.022353 0.000681
0.061581 0.026295 0.000506
0.077167 0.027781 0.003496
0.092654 0.033610 0.007234
0.112499 0.038067 0.010988
0.132891 0.041131 0.016463
0.157553 0.042524 0.013178
0.191773 0.042102 0.016627
0.225719 0.035932 0.018671
0.263311 0.030684 0.019821
0.307765 0.017662 0.022355
0.354923 0.005041 0.022467
0.402936 0.001037 0.019641
0.453952 0.000031 0.015203
0.503370 0.000941 0.018057
0.550344 0.002226 0.020533
0.598595 0.001489 0.015219
0.644277 0.001376 0.014014
0.690347 0.002686 0.007251
0.730897 0.000842 0.006989
0.768296 0.002315 0.002370
0.804552 0.000960 0.002361
0.845995 0.000236 0.000620
0.880170 0.001574 0.000499
0.906180 0.009732 0.002813
0.930477 0.039044 0.000139
0.961300 0.114221 0.000015
0.984564 0.161159 0.000356
1.000000 0.203792 0.003932
0.000000 0.023533 0.007589
0.004058 0.026859 0.011276
0.018452 0.027188 0.007620
0.033825 0.033666 0.004257
0.049491 0.032353 0.006335
0.062237 0.034954 0.004653
0.077594 0.037963 0.004571
0.094801 0.042390 0.006880
0.113204 0.045091 0.015701
0.133963 0.049088 0.010691
0.158980 0.049993 0.008724
0.198000 0.045681 0.015177
0.230586 0.045172 0.018251
0.269381 0.040766 0.018458
0.316551 0.028127 0.018051
0.362146 0.013150 0.020432
0.406893 0.005642 0.021210
0.455219 0.002766 0.016774
0.505260 0.001561 0.013894
0.556564 0.002180 0.016024
0.606081 0.000094 0.018055
0.647021 0.000940 0.014525
0.690998 0.002696 0.008212
0.733649 0.002690 0.003225
0.769737 0.002959 0.002019
0.809181 0.003278 0.004868
0.848226 0.003125 0.000082
0.880278 0.000606 0.001227
0.907206 0.007260 0.006679
0.933253 0.061550 0.006463
0.958099 0.126473 0.000015
0.981464 0.172911 0.000244
1.000000 0.211765 0.000254
0.000332 0.041693 0.018873
0.000475 0.041811 0.019005
0.008290 0.045492 0.015204
0.019616 0.047210 0.015266
0.039025 0.053026 0.003485
0.054737 0.053919 0.006731
0.076007 0.053795 0.007834
0.098265 0.054394 0.008709
0.115967 0.053242 0.015945
0.139489 0.057088 0.010957
0.170075 0.058489 0.015873
0.200295 0.058556 0.019826
0.235958 0.056282 0.018540
0.273481 0.050109 0.017997
0.316086 0.040423 0.017460
0.364696 0.028672 0.019213
0.412073 0.012478 0.020459
0.461398 0.001188 0.018615
0.512623 0.000949 0.015847
0.561306 0.001288 0.012480
0.607795 0.000000 0.011694
0.650580 0.000086 0.010842
0.695499 0.000685 0.005407
0.737781 0.001351 0.003320
0.773306 0.000530 0.000962
0.806163 0.000546 0.002964
0.845454 0.001703 0.000274
0.876166 0.005492 0.000279
0.915669 0.027197 0.002392
0.937268 0.091964 0.006807
0.961100 0.145542 0.000252
0.984478 0.187798 0.000692
0.996792 0.220300 0.000000
0.003036 0.050942 0.032940
0.006318 0.054223 0.036221
0.004310 0.055033 0.027465
0.005691 0.063930 0.023839
0.026202 0.068675 0.010251
0.054119 0.072913 0.013636
0.073045 0.075714 0.013294
0.097738 0.074426 0.011177
0.121896 0.073385 0.007940
0.150847 0.069623 0.009471
0.174765 0.072596 0.017262
0.208669 0.070672 0.018317
0.247376 0.070554 0.017519
0.284033 0.069355 0.019381
0.324577 0.059562 0.020068
0.371709 0.046022 0.018339
0.420219 0.030029 0.015604
0.467976 0.011961 0.014741
0.515797 0.002785 0.015479
0.564265 0.002468 0.012455
0.611770 0.001495 0.007329
0.655728 0.001156 0.004592
0.698653 0.000060 0.001391
0.738049 0.001584 0.000419
0.775676 0.004607 0.001602
0.810106 0.002607 0.005017
0.849959 0.003905 0.000578
0.882239 0.023246 0.003390
0.909092 0.071508 0.005571
0.939098 0.120180 0.001614
0.961747 0.167741 0.000896
0.985115 0.203856 0.003740
0.999557 0.238727 0.000000
0.000534 0.072060 0.037983
0.001125 0.073176 0.039098
0.000608 0.073247 0.037129
0.000891 0.077610 0.034222
0.012004 0.082136 0.025981
0.032246 0.085729 0.020338
0.064956 0.094833 0.021962
0.091715 0.099398 0.014184
0.123495 0.100623 0.016016
0.152824 0.092372 0.016540
0.184542 0.091405 0.015977
0.221568 0.089587 0.013636
0.259528 0.088022 0.015946
0.298841 0.085636 0.018574
0.339511 0.079534 0.016355
0.383636 0.069623 0.013147
0.429164 0.058215 0.015296
0.474916 0.041233 0.015189
0.523336 0.020692 0.011379
0.573082 0.006851 0.010079
0.620177 0.001371 0.005917
0.663816 0.000984 0.001727
0.705713 0.000000 0.000860
0.741792 0.000799 0.000000
0.779361 0.003327 0.000589
0.817049 0.009919 0.002212
0.850983 0.036295 0.001477
0.881418 0.077486 0.000686
0.912058 0.116648 0.001773
0.940800 0.153244 0.002676
0.962466 0.190766 0.000546
0.987736 0.223621 0.003744
0.999459 0.260991 0.000000
0.000000 0.091297 0.042888
0.002498 0.094488 0.046104
0.000161 0.092197 0.043677
0.000062 0.093221 0.040140
0.002358 0.099163 0.040545
0.010153 0.103633 0.031144
0.038860 0.111882 0.026316
0.077039 0.120458 0.018366
0.116396 0.128203 0.014023
0.153137 0.122524 0.014761
0.188047 0.121025 0.015635
0.230953 0.115687 0.014078
0.270742 0.111721 0.014198
0.309516 0.107422 0.013455
0.350949 0.102256 0.010120
0.396139 0.094350 0.009345
0.443760 0.085242 0.012539
0.491144 0.075142 0.010947
0.537751 0.061594 0.006562
0.581884 0.049730 0.004485
0.624446 0.040045 0.001311
0.668354 0.031412 0.001189
0.710656 0.028552 0.001412
0.749894 0.029633 0.000446
0.789661 0.042227 0.000227
0.821658 0.062410 0.001490
0.852528 0.091951 0.003389
0.879412 0.126514 0.002195
0.910321 0.158163 0.000337
0.941900 0.188406 0.001967
0.960631 0.218146 0.002883
0.990632 0.249293 0.000822
0.999880 0.283444 0.001240
0.002384 0.112356 0.056258
0.000747 0.115492 0.057093
0.002279 0.112066 0.053205
0.002384 0.112609 0.051910
0.004596 0.118905 0.051148
0.002052 0.125118 0.048572
0.012641 0.131200 0.037652
0.047419 0.141286 0.026652
0.098219 0.154080 0.018294
0.144854 0.160598 0.011200
0.189336 0.160621 0.010648
0.231026 0.155417 0.007130
0.275529 0.149324 0.005993
0.320141 0.139648 0.008073
0.365995 0.131143 0.009236
0.412286 0.123930 0.005566
0.457915 0.117748 0.003339
0.502529 0.112163 0.002956
0.546906 0.105420 0.001230
0.591668 0.098766 0.001206
0.634268 0.091616 0.000808
0.676481 0.087590 0.000252
0.717831 0.088356 0.000337
0.756741 0.090455 0.000120
0.794063 0.101734 0.000882
0.826643 0.119355 0.004134
0.857567 0.142431 0.005694
0.882378 0.167297 0.002598
0.913557 0.191443 0.000215
0.944596 0.218846 0.001631
0.960214 0.245637 0.001037
0.991744 0.273313 0.004491
1.000000 0.306377 0.001717
0.002937 0.137459 0.059128
0.002841 0.138841 0.064006
0.000893 0.135302 0.060458
0.003688 0.137068 0.061850
0.002488 0.141575 0.068281
0.000355 0.147140 0.060273
0.001723 0.154044 0.052283
0.015633 0.163020 0.043214
0.064907 0.174627 0.034493
0.121093 0.188300 0.014002
0.185050 0.197333 0.004378
0.235094 0.197006 0.003338
0.280910 0.191295 0.004710
0.330527 0.181717 0.004516
0.378426 0.171927 0.003512
0.426714 0.162178 0.001527
0.471180 0.153931 0.001324
0.514501 0.148040 0.001760
0.560144 0.144908 0.000845
0.603662 0.142220 0.001581
0.645468 0.138026 0.002233
0.684981 0.137782 0.001509
0.725564 0.139639 0.001296
0.762511 0.145476 0.001497
0.798870 0.154506 0.000835
0.830522 0.169077 0.003241
0.859884 0.187278 0.002576
0.887546 0.207912 0.001167
0.916383 0.227693 0.001285
0.942613 0.251746 0.004546
0.962444 0.274818 0.000263
0.988969 0.302210 0.001493
0.997047 0.328751 0.002617
0.000815 0.166657 0.068931
0.003075 0.166727 0.072631
0.000957 0.162483 0.070724
0.003737 0.164705 0.073043
0.001156 0.168047 0.075157
0.000116 0.173340 0.068652
0.001622 0.181530 0.062326
0.004108 0.187453 0.055747
0.021789 0.200637 0.046904
0.079947 0.211343 0.028026
0.152326 0.222808 0.010201
0.228613 0.237157 0.002402
0.286300 0.241578 0.001411
0.338073 0.232523 0.001048
0.388882 0.221973 0.002279
0.437870 0.212715 0.003599
0.484566 0.201120 0.002228
0.530193 0.190508 0.000566
0.575511 0.185668 0.001555
0.618361 0.182458 0.002955
0.658208 0.179981 0.002264
0.693906 0.182055 0.001605
0.732734 0.183758 0.001747
0.770356 0.190914 0.002647
0.803297 0.199337 0.002664
0.830858 0.214044 0.000758
0.861999 0.229585 0.000383
0.891425 0.246882 0.001022
0.920054 0.263878 0.005224
0.945257 0.283342 0.002871
0.965632 0.305821 0.003349
0.988974 0.328750 0.001047
0.996897 0.353841 0.005641
0.000860 0.197539 0.078426
0.000986 0.199314 0.082776
0.000393 0.197880 0.082390
0.001148 0.198576 0.083142
0.000329 0.199092 0.082489
0.000403 0.201505 0.080224
0.000788 0.208769 0.074766
0.000868 0.216278 0.066609
0.002706 0.229053 0.055353
0.035573 0.239331 0.042490
0.111298 0.251675 0.022833
0.193816 0.267029 0.005429
0.278307 0.283180 0.001120
0.345874 0.284323 0.000857
0.397139 0.276341 0.002715
0.446442 0.268132 0.003012
0.493924 0.258048 0.001222
0.540952 0.247043 0.000860
0.586132 0.237022 0.002390
0.627928 0.228738 0.004076
0.667729 0.223837 0.002818
0.703685 0.224284 0.001381
0.742163 0.229790 0.001408
0.775788 0.236093 0.001767
0.805552 0.243372 0.001926
0.836971 0.255650 0.000956
0.868870 0.267263 0.001057
0.897774 0.284022 0.000592
0.923695 0.297922 0.003440
0.945602 0.317693 0.001219
0.967584 0.337228 0.003308
0.991983 0.358521 0.003093
0.997307 0.382464 0.002958
0.000430 0.232154 0.086270
0.000054 0.236300 0.089649
0.000003 0.235530 0.094544
0.000000 0.233964 0.093356
0.000000 0.234525 0.092042
0.000186 0.235947 0.093002
0.000383 0.242191 0.087545
0.000092 0.249946 0.079008
0.001742 0.259144 0.067289
0.008560 0.269793 0.056279
0.064692 0.281752 0.042024
0.148669 0.295521 0.015008
0.240540 0.310946 0.002493
0.331516 0.326712 0.001382
0.402961 0.331405 0.001361
0.455081 0.324441 0.001593
0.503028 0.315073 0.001006
0.550413 0.305284 0.000665
0.594768 0.294318 0.001935
0.637215 0.284203 0.002499
0.677150 0.275436 0.001763
0.712985 0.270229 0.001661
0.747567 0.272983 0.001237
0.782425 0.278513 0.002732
0.813203 0.283486 0.001617
0.844718 0.293610 0.001241
0.874340 0.304900 0.003532
0.898677 0.320334 0.000894
0.922776 0.333333 0.000800
0.947890 0.352277 0.001158
0.968465 0.367713 0.000940
0.994046 0.389448 0.001324
0.999087 0.408631 0.000430
0.000000 0.272148 0.099579
0.000000 0.272603 0.100499
0.000000 0.272947 0.103286
0.000000 0.273681 0.099878
0.000000 0.271942 0.101879
0.000338 0.272542 0.103918
0.000270 0.277292 0.100879
0.000798 0.284407 0.093719
0.001234 0.294751 0.083376
0.000678 0.304763 0.071633
0.023486 0.314259 0.055693
0.106050 0.326682 0.029920
0.200438 0.341690 0.007627
0.293696 0.356910 0.001111
0.383374 0.371714 0.000830
0.455510 0.379196 0.002142
0.511765 0.373400 0.002464
0.560770 0.362496 0.001656
0.605444 0.353596 0.002100
0.647714 0.345151 0.001563
0.687946 0.335382 0.000987
0.722503 0.325475 0.000683
0.754798 0.322348 0.001004
0.788556 0.323477 0.002740
0.819526 0.326716 0.001527
0.847349 0.335710 0.001613
0.874524 0.346457 0.001717
0.899343 0.358420 0.000739
0.927563 0.371058 0.001718
0.948460 0.387136 0.000477
0.971504 0.401779 0.000000
0.994258 0.418845 0.000089
0.997539 0.437240 0.002842
0.000000 0.313953 0.110172
0.000000 0.314368 0.111471
0.000000 0.312232 0.113076
0.000000 0.313933 0.113572
0.001189 0.310485 0.114248
0.000432 0.311897 0.116616
0.000049 0.315309 0.113403
0.000484 0.319961 0.107144
0.000155 0.332217 0.099732
0.003126 0.340162 0.088759
0.005135 0.351200 0.071144
0.067323 0.360746 0.048652
0.162845 0.374137 0.021800
0.255656 0.386989 0.004733
0.345942 0.399843 0.001705
0.436009 0.416838 0.002176
0.514280 0.425238 0.001308
0.571656 0.420072 0.002391
0.615390 0.412664 0.003528
0.655319 0.406416 0.001811
0.693044 0.397708 0.000585
0.728065 0.388170 0.000345
0.761286 0.381441 0.000562
0.793440 0.376232 0.002228
0.824072 0.374612 0.002740
0.850206 0.378016 0.000765
0.876389 0.386936 0.000506
0.900997 0.397198 0.002470
0.930032 0.408944 0.001074
0.947190 0.421013 0.000226
0.974510 0.434596 0.002279
0.995102 0.448674 0.000356
0.997422 0.463466 0.001847
0.000000 0.355110 0.117870
0.000000 0.356080 0.120740
0.001143 0.353007 0.121984
0.002821 0.353203 0.126567
0.002316 0.352126 0.123556
0.001665 0.353228 0.124916
0.002427 0.353864 0.125416
0.001741 0.357914 0.122018
0.003734 0.365289 0.112487
0.004439 0.374292 0.104258
0.001772 0.387499 0.089582
0.031357 0.396775 0.070176
0.121487 0.409003 0.043295
0.222620 0.421367 0.012958
0.310777 0.429280 0.001097
0.400644 0.442983 0.001865
0.492184 0.459595 0.002704
0.568591 0.469901 0.002847
0.621325 0.469963 0.002125
0.661231 0.461501 0.001698
0.698212 0.454426 0.002561
0.733015 0.448929 0.003639
0.767449 0.441593 0.001332
0.797653 0.434502 0.001416
0.825217 0.428993 0.001792
0.852343 0.424584 0.000563
0.879930 0.427194 0.000627
0.906498 0.433107 0.002978
0.932220 0.442047 0.000871
0.950914 0.452934 0.000266
0.975279 0.467008 0.002801
0.995636 0.479667 0.002187
0.995863 0.490951 0.001219
0.000000 0.395714 0.127678
0.000000 0.395714 0.131360
0.000952 0.394775 0.131738
0.002351 0.394544 0.135751
0.002377 0.394662 0.135115
0.002876 0.393150 0.135105
0.003205 0.393495 0.140892
0.003674 0.395727 0.138640
0.003748 0.400819 0.130104
0.003085 0.409417 0.122398
0.001900 0.421587 0.108876
0.010007 0.431665 0.091203
0.090844 0.442793 0.068219
0.196902 0.454122 0.034935
0.285574 0.461563 0.008961
0.367594 0.472952 0.001986
0.454144 0.487317 0.003761
0.540177 0.503241 0.003523
0.613115 0.515412 0.002223
0.667656 0.513880 0.001895
0.705632 0.507383 0.002014
0.737823 0.502059 0.002821
0.771799 0.494957 0.000982
0.800272 0.488618 0.000380
0.825822 0.483980 0.000418
0.852887 0.478345 0.001305
0.881848 0.476769 0.000212
0.909059 0.474426 0.001367
0.934692 0.476951 0.002811
0.956629 0.483738 0.003789
0.974488 0.496866 0.001999
0.996643 0.508489 0.001738
0.994057 0.519776 0.004177
0.000000 0.436233 0.141098
0.000976 0.437224 0.144054
0.001007 0.436297 0.145337
0.001007 0.436233 0.146896
0.002062 0.435646 0.147022
0.002740 0.433361 0.146838
0.001660 0.434391 0.151739
0.002616 0.434079 0.151840
0.002926 0.437927 0.149650
0.003726 0.444764 0.141888
0.003215 0.456188 0.130749
0.003839 0.466131 0.114006
0.072495 0.474977 0.093548
0.174174 0.486856 0.067576
0.264801 0.495931 0.033087
0.344809 0.505061 0.008445
0.425026 0.516197 0.001961
0.506215 0.529079 0.002364
0.585176 0.544352 0.002512
0.657784 0.556061 0.001654
0.708454 0.557755 0.000706
0.741575 0.550992 0.000346
0.774638 0.544526 0.000692
0.801594 0.538834 0.000000
0.829437 0.534874 0.000614
0.856489 0.530035 0.002266
0.883248 0.528048 0.001882
0.908184 0.524034 0.002973
0.932383 0.521021 0.002285
0.957222 0.520196 0.004257
0.976136 0.527572 0.001774
0.997647 0.535484 0.000093
0.997086 0.547058 0.002975
0.000830 0.475866 0.159281
0.001866 0.476919 0.160334
0.001900 0.475103 0.160539
0.001900 0.477287 0.162106
0.002006 0.476402 0.160435
0.001451 0.475435 0.160337
0.001256 0.474941 0.163521
0.000739 0.473846 0.163342
0.003449 0.473870 0.165975
0.003359 0.479995 0.157659
0.003160 0.489095 0.150576
0.001778 0.498784 0.136925
0.060799 0.505601 0.118624
0.157650 0.517704 0.097175
0.249530 0.528957 0.068043
0.329287 0.536249 0.033234
0.406629 0.545228 0.007907
0.483076 0.556715 0.000502
0.556300 0.567616 0.000659
0.630209 0.579974 0.000663
0.695876 0.592128 0.001658
0.743211 0.595154 0.001775
0.776282 0.592503 0.001770
0.803208 0.586800 0.002127
0.832928 0.583980 0.000739
0.860023 0.577387 0.001572
0.885038 0.574640 0.001999
0.908697 0.571548 0.002875
0.929673 0.566559 0.000446
0.954862 0.563340 0.001591
0.977237 0.565210 0.001049
0.997845 0.566169 0.000063
1.000000 0.573154 0.002017
0.000996 0.514477 0.176264
0.002599 0.515382 0.177169
0.001099 0.513638 0.175424
0.000996 0.516942 0.177826
0.002009 0.515268 0.177940
0.000945 0.515767 0.177592
0.000944 0.514475 0.181653
0.000781 0.513626 0.177822
0.001893 0.511593 0.183221
0.001567 0.514858 0.176831
0.002118 0.520756 0.171264
0.001655 0.529414 0.159837
0.059977 0.536163 0.144941
0.156551 0.547317 0.127390
0.245787 0.558532 0.108341
0.321811 0.566438 0.076014
0.394325 0.573641 0.036262
0.467672 0.583859 0.010697
0.538803 0.593241 0.001652
0.604893 0.600539 0.001605
0.669126 0.612724 0.003752
0.730248 0.626121 0.002346
0.774826 0.634217 0.001554
0.805284 0.630690 0.003629
0.833769 0.627781 0.001376
0.858793 0.622006 0.000000
0.884088 0.618051 0.000000
0.908468 0.614206 0.000000
0.928705 0.609793 0.000166
0.951671 0.607524 0.001232
0.974918 0.606546 0.000356
0.997694 0.603442 0.001449
0.998999 0.605171 0.005411
0.000000 0.554674 0.192667
0.002777 0.554714 0.193295
0.000760 0.552837 0.191448
0.000620 0.554250 0.192862
0.003433 0.551267 0.195849
0.001425 0.554576 0.193644
0.000183 0.552333 0.196206
0.001249 0.551525 0.196123
0.001747 0.549572 0.202122
0.001538 0.550173 0.200376
0.003778 0.554596 0.195923
0.010199 0.561725 0.186279
0.075425 0.569304 0.171237
0.169077 0.578904 0.159828
0.251674 0.587276 0.145438
0.323603 0.594020 0.120725
0.391625 0.601291 0.086975
0.459217 0.610896 0.049897
0.525419 0.619856 0.020062
0.586928 0.627190 0.006382
0.644457 0.635805 0.004189
0.704275 0.646536 0.001901
0.761800 0.661541 0.000425
0.803114 0.668053 0.001736
0.833871 0.667219 0.002512
0.856479 0.660673 0.002163
0.882916 0.657415 0.002687
0.906715 0.654113 0.001382
0.927339 0.652885 0.000241
0.948618 0.650343 0.000458
0.973967 0.646042 0.000595
0.996715 0.643345 0.001961
0.998641 0.644245 0.004059
0.001041 0.592228 0.212166
0.002886 0.592239 0.210321
0.001969 0.589597 0.211285
0.002381 0.591024 0.212563
0.005250 0.588931 0.215616
0.001086 0.592299 0.212258
0.000584 0.589748 0.213469
0.001150 0.588515 0.217092
0.002081 0.587237 0.219780
0.001545 0.587367 0.220519
0.004723 0.589061 0.218640
0.033679 0.593701 0.210797
0.110975 0.600840 0.197124
0.194301 0.609250 0.188871
0.266231 0.615864 0.176564
0.333301 0.622477 0.160637
0.396173 0.630411 0.139042
0.456469 0.638588 0.107735
0.516333 0.645671 0.070846
0.574541 0.652125 0.035987
0.628932 0.659963 0.013272
0.682949 0.667856 0.001898
0.737080 0.677055 0.000000
0.789021 0.690068 0.000771
0.830667 0.700546 0.002806
0.856474 0.697012 0.003328
0.885167 0.694247 0.004312
0.906081 0.690505 0.002928
0.926305 0.691814 0.000403
0.950312 0.688649 0.000934
0.974510 0.683229 0.000772
0.994440 0.681485 0.000602
0.998524 0.681877 0.000000
0.002735 0.625128 0.231943
0.004345 0.628348 0.230333
0.002689 0.626049 0.234261
0.004636 0.627369 0.235716
0.003593 0.627656 0.235043
0.001437 0.625685 0.233709
0.001673 0.624918 0.238229
0.001088 0.625002 0.239460
0.003088 0.622990 0.240237
0.004542 0.623503 0.242055
0.022837 0.622858 0.242512
0.082244 0.624870 0.235759
0.160350 0.632338 0.226986
0.228158 0.639986 0.221232
0.289994 0.645003 0.210763
0.350442 0.651376 0.198178
0.405261 0.657960 0.181263
0.457901 0.664975 0.159137
0.513679 0.671185 0.133735
0.569749 0.675762 0.101825
0.620542 0.683365 0.062935
0.668938 0.691174 0.025097
0.718705 0.697790 0.006852
0.766353 0.704729 0.000865
0.815030 0.718194 0.002524
0.852552 0.729791 0.000738
0.884110 0.729188 0.000737
0.906613 0.726805 0.002501
0.927157 0.726441 0.001158
0.950991 0.722931 0.002650
0.974206 0.720418 0.000454
0.993227 0.718262 0.000823
0.997416 0.717309 0.000871
0.001825 0.660688 0.259817
0.001862 0.661030 0.259475
0.002722 0.660782 0.259205
0.005949 0.662337 0.261559
0.002922 0.661756 0.260379
0.001777 0.658927 0.259323
0.001561 0.657530 0.264925
0.004455 0.656491 0.265527
0.019798 0.656840 0.270584
0.041048 0.657087 0.269089
0.094593 0.655508 0.269594
0.159838 0.656471 0.266041
0.214397 0.662015 0.261461
0.267536 0.667469 0.256200
0.319987 0.671256 0.243911
0.371663 0.677280 0.230210
0.419994 0.684041 0.219989
0.465718 0.690835 0.205095
0.517070 0.696280 0.183783
0.569689 0.701500 0.163779
0.616152 0.708950 0.138899
0.661205 0.714465 0.097750
0.706904 0.721827 0.052830
0.749146 0.726987 0.022756
0.791451 0.734018 0.006916
0.835770 0.747626 0.001743
0.875529 0.759516 0.001571
0.904266 0.761608 0.004649
0.929247 0.758908 0.002400
0.947480 0.756282 0.002471
0.973761 0.754099 0.001674
0.996580 0.752606 0.000917
0.999647 0.748182 0.002447
0.000000 0.690985 0.290321
0.000875 0.691771 0.288745
0.002877 0.690660 0.287293
0.004923 0.692492 0.289105
0.009834 0.691652 0.290416
0.018215 0.691066 0.290142
0.028509 0.690567 0.293116
0.049537 0.689394 0.294619
0.089652 0.690689 0.296036
0.139617 0.688018 0.298242
0.189153 0.688138 0.299343
0.231911 0.685073 0.296388
0.270521 0.689507 0.297244
0.311978 0.694095 0.290558
0.351848 0.697221 0.277326
0.395167 0.704093 0.265926
0.437325 0.710316 0.257026
0.480013 0.714923 0.246916
0.526811 0.719076 0.231235
0.570916 0.724938 0.214305
0.613403 0.733135 0.196983
0.655345 0.737784 0.173549
0.700983 0.742120 0.144220
0.739165 0.747389 0.097861
0.773742 0.755413 0.049617
0.814007 0.760300 0.021804
0.857372 0.773877 0.005156
0.898220 0.786864 0.005640
0.925053 0.789593 0.001248
0.950521 0.786121 0.001164
0.973448 0.784363 0.001996
0.996160 0.783977 0.001984
0.999189 0.781697 0.001623
0.033691 0.722343 0.324737
0.039109 0.722528 0.323799
0.043132 0.720202 0.322124
0.046472 0.721223 0.323390
0.064742 0.721425 0.322117
0.096815 0.720869 0.321927
0.132170 0.721353 0.321819
0.172876 0.720452 0.324373
0.205025 0.719721 0.326681
0.236505 0.717989 0.329540
0.267548 0.718056 0.331223
0.296265 0.716201 0.331033
0.325604 0.717192 0.333630
0.358589 0.721526 0.328585
0.390708 0.725562 0.318497
0.423931 0.730535 0.308957
0.460358 0.733795 0.299312
0.498147 0.738482 0.288749
0.537941 0.744939 0.275731
0.577670 0.748912 0.264016
0.615440 0.754617 0.251780
0.653923 0.760864 0.231319
0.693278 0.766639 0.207958
0.730895 0.771425 0.182889
0.763102 0.774561 0.154940
0.798120 0.779549 0.101692
0.836871 0.789907 0.043242
0.876965 0.799261 0.020549
0.913949 0.811895 0.003937
0.949612 0.814937 0.003685
0.971892 0.814148 0.000328
0.991589 0.815140 0.001870
1.000000 0.813950 0.000000
0.163178 0.750744 0.349387
0.173745 0.751508 0.353224
0.188314 0.748865 0.355381
0.198322 0.749519 0.357749
0.215085 0.750247 0.353920
0.226993 0.746184 0.357582
0.248911 0.748037 0.360157
0.270116 0.748698 0.357888
0.290100 0.747295 0.361665
0.313603 0.746772 0.364847
0.336254 0.747306 0.362783
0.358499 0.746422 0.363635
0.382316 0.744326 0.369883
0.406094 0.747571 0.368170
0.430558 0.750903 0.359078
0.457412 0.755817 0.349877
0.487124 0.759792 0.342955
0.519381 0.763189 0.333219
0.553526 0.769786 0.323577
0.587652 0.773059 0.315251
0.619989 0.776563 0.299790
0.652842 0.784233 0.283715
0.688022 0.788740 0.267374
0.723704 0.793898 0.248248
0.757857 0.796149 0.229338
0.786115 0.800162 0.197263
0.820125 0.806577 0.155553
0.854683 0.812283 0.105729
0.892958 0.822991 0.044281
0.937741 0.836086 0.023828
0.971438 0.844356 0.003623
0.994879 0.843835 0.005844
1.000000 0.841808 0.000000
0.281253 0.776123 0.389347
0.281771 0.776337 0.389584
0.291907 0.776654 0.391780
0.298818 0.773015 0.391874
0.306089 0.774255 0.393174
0.315274 0.773074 0.393914
0.327147 0.777370 0.398078
0.340572 0.777300 0.397061
0.355490 0.774979 0.396372
0.373904 0.774722 0.400929
0.394065 0.775948 0.402679
0.410970 0.774131 0.406576
0.429237 0.773486 0.409721
0.449246 0.773040 0.406724
0.471935 0.775724 0.401396
0.494814 0.779931 0.395613
0.518602 0.782811 0.390562
0.544190 0.786634 0.382269
0.572999 0.792210 0.371760
0.601473 0.796328 0.360978
0.627615 0.800415 0.349185
0.658865 0.807580 0.340232
0.688770 0.812056 0.326246
0.721097 0.816653 0.310860
0.750558 0.820743 0.287936
0.779364 0.822730 0.268423
