ml_luts/presetpro_agfa_ultra_100__lut3d_33.cube
TITLE "Presetpro - Agfa Ultra"
DOMAIN_MIN 0.000000 0.000000 0.000000
DOMAIN_MAX 1.000000 1.000000 1.000000
LUT_3D_SIZE 33
0.000000 0.000000 0.000000
0.003932 0.003814 0.000000
0.018879 0.003679 0.000000
0.034193 0.003551 0.000000
0.047397 0.000442 0.000000
0.078220 0.006618 0.000000
0.100975 0.009678 0.000620
0.131564 0.020592 0.005603
0.156197 0.027237 0.001739
0.187743 0.034198 0.000811
0.219833 0.040089 0.001213
0.254321 0.049639 0.000430
0.291184 0.055431 0.005455
0.325589 0.062135 0.003546
0.369579 0.065182 0.004412
0.413180 0.068745 0.003676
0.450912 0.075516 0.000000
0.492393 0.083001 0.000830
0.534807 0.087269 0.000996
0.574637 0.089819 0.000979
0.611847 0.100551 0.001507
0.645972 0.112068 0.000000
0.681518 0.120981 0.000353
0.716510 0.132815 0.000811
0.747078 0.140968 0.000000
0.781137 0.155360 0.000000
0.812862 0.169369 0.000000
0.842118 0.182161 0.000000
0.872658 0.200100 0.000000
0.907708 0.213220 0.000000
0.938233 0.232099 0.000000
0.968987 0.251235 0.000000
1.000000 0.270599 0.000000
0.000118 0.007716 0.000000
0.004050 0.011416 0.000114
0.015782 0.011638 0.000007
0.031203 0.011748 0.000000
0.052926 0.012412 0.000310
0.073985 0.021493 0.000055
0.100400 0.024319 0.000019
0.134705 0.032861 0.005349
0.157150 0.038863 0.001710
0.189061 0.046347 0.001959
0.220508 0.054560 0.000879
0.252762 0.060647 0.004107
0.287436 0.066045 0.003360
0.328333 0.073673 0.004227
0.371774 0.080023 0.002763
0.414285 0.084000 0.002267
0.454726 0.087962 0.002084
0.495381 0.093790 0.000144
0.537111 0.097239 0.000098
0.575746 0.101442 0.000979
0.611311 0.112913 0.001551
0.646816 0.122618 0.000078
0.682023 0.130449 0.000815
0.715336 0.139366 0.001940
0.750736 0.150820 0.000177
0.779870 0.163169 0.000162
0.814041 0.177661 0.001199
0.844897 0.191880 0.002694
0.876087 0.204871 0.000000
0.907457 0.223556 0.000333
0.934895 0.239252 0.003326
0.972682 0.255015 0.000000
1.000000 0.266904 0.000000
0.000008 0.019352 0.003433
0.007044 0.015896 0.000115
0.015419 0.019145 0.000000
0.034199 0.023136 0.003449
0.048455 0.030007 0.000496
0.078445 0.031789 0.000004
0.103441 0.038296 0.000000
0.131770 0.045928 0.001250
0.160321 0.050375 0.000400
0.190025 0.059425 0.002592
0.217461 0.066635 0.001776
0.257257 0.070850 0.002842
0.293227 0.076708 0.001493
0.330485 0.084385 0.001811
0.373832 0.090184 0.004382
0.414895 0.094904 0.002959
0.454191 0.098792 0.000492
0.495492 0.106192 0.000907
0.536018 0.113057 0.000938
0.574802 0.116683 0.000061
0.613329 0.126040 0.002275
0.647535 0.136061 0.003816
0.679690 0.144106 0.001125
0.717299 0.151508 0.003557
0.751305 0.160501 0.002586
0.784607 0.171033 0.000010
0.811576 0.185584 0.001258
0.841460 0.199247 0.005485
0.870279 0.210318 0.000000
0.903201 0.228146 0.000043
0.938255 0.243617 0.000443
0.969579 0.262608 0.000337
0.999771 0.277943 0.003691
0.000000 0.028131 0.000675
0.003894 0.030871 0.000021
0.015419 0.037647 0.000000
0.033902 0.042003 0.000345
0.059519 0.046559 0.002855
0.081285 0.050261 0.000501
0.107754 0.056791 0.000000
0.133724 0.061863 0.000092
0.161643 0.066321 0.000029
0.189302 0.076407 0.000247
0.222304 0.084437 0.000172
0.258285 0.088293 0.000475
0.293739 0.093907 0.000253
0.332406 0.098465 0.000352
0.372737 0.104139 0.002760
0.414295 0.110637 0.002477
0.456097 0.114339 0.000381
0.495895 0.120091 0.000245
0.537411 0.127149 0.000280
0.578345 0.131734 0.000888
0.613931 0.139773 0.002061
0.648582 0.149793 0.002043
0.682088 0.157086 0.002764
0.716361 0.164593 0.002844
0.748438 0.172630 0.000776
0.778411 0.186702 0.000629
0.813323 0.196853 0.003057
0.844307 0.206661 0.003670
0.876412 0.223535 0.002420
0.904080 0.236917 0.000002
0.942032 0.254349 0.000023
0.972279 0.267547 0.000034
0.993561 0.288781 0.000369
0.002991 0.049549 0.004372
0.003538 0.050521 0.003577
0.012185 0.054332 0.000222
0.027211 0.058677 0.000097
0.056810 0.067926 0.003017
0.087273 0.075582 0.003443
0.110287 0.082904 0.000646
0.140378 0.085086 0.000000
0.168982 0.090885 0.000341
0.193810 0.094584 0.000531
0.222207 0.098465 0.000634
0.259074 0.103468 0.002222
0.300336 0.109724 0.001139
0.336343 0.117071 0.000550
0.376397 0.122624 0.000708
0.416991 0.129056 0.001239
0.456846 0.134580 0.002424
0.498012 0.139615 0.001610
0.537517 0.145470 0.000026
0.576073 0.152317 0.000122
0.614113 0.160408 0.001706
0.652666 0.165361 0.003679
0.686516 0.173185 0.002184
0.717466 0.181215 0.001779
0.748993 0.188180 0.004010
0.780986 0.199664 0.001195
0.811840 0.209668 0.003289
0.844596 0.222925 0.001421
0.873886 0.236117 0.004166
0.903877 0.253897 0.003219
0.938982 0.268991 0.000207
0.969849 0.282113 0.003394
0.998234 0.298344 0.005981
0.003315 0.076514 0.003553
0.003334 0.076611 0.003420
0.007606 0.074526 0.000213
0.025455 0.083828 0.002724
0.053114 0.086384 0.001226
0.081586 0.095258 0.003474
0.116127 0.103285 0.000738
0.149480 0.110500 0.000000
0.174359 0.115902 0.000466
0.204459 0.115758 0.002930
0.230352 0.123086 0.004732
0.265854 0.123058 0.002117
0.304889 0.128718 0.001793
0.338746 0.136597 0.002581
0.377944 0.143877 0.002515
0.420670 0.149937 0.002217
0.462370 0.155457 0.002072
0.501463 0.160389 0.001132
0.540666 0.165728 0.000608
0.579764 0.174317 0.001045
0.614228 0.181235 0.001640
0.650004 0.185805 0.002804
0.683427 0.192890 0.002482
0.716462 0.201542 0.004333
0.749089 0.207973 0.002924
0.780436 0.219269 0.001229
0.814957 0.230345 0.002775
0.845998 0.241818 0.000176
0.873506 0.255752 0.001070
0.906300 0.266435 0.003375
0.938099 0.279318 0.000037
0.971041 0.299847 0.000693
0.993766 0.316427 0.003849
0.001238 0.106849 0.001238
0.000733 0.108843 0.003232
0.004474 0.103796 0.000206
0.016883 0.110533 0.000602
0.047734 0.111394 0.000711
0.077050 0.118641 0.003518
0.108298 0.128466 0.001260
0.147087 0.135288 0.000697
0.179404 0.145304 0.004287
0.214981 0.145924 0.002582
0.243561 0.149941 0.001220
0.273667 0.152716 0.000384
0.308815 0.157039 0.001966
0.345077 0.162279 0.002764
0.383320 0.167212 0.001861
0.424023 0.172382 0.000839
0.465995 0.176756 0.001966
0.505056 0.181551 0.001888
0.542994 0.187363 0.000135
0.581141 0.194651 0.001532
0.615641 0.202568 0.002734
0.650197 0.208215 0.003212
0.683930 0.215936 0.004721
0.716948 0.224901 0.001565
0.748830 0.232210 0.000494
0.781474 0.241355 0.000500
0.815151 0.250625 0.001895
0.847026 0.260943 0.001833
0.876430 0.271396 0.000628
0.906986 0.282116 0.000864
0.938302 0.296483 0.002456
0.968226 0.313607 0.000620
0.998650 0.326220 0.000618
0.000858 0.134663 0.002551
0.000630 0.135315 0.003088
0.001075 0.136708 0.000194
0.006678 0.136192 0.000000
0.029944 0.140580 0.001606
0.067584 0.145465 0.001619
0.097463 0.152781 0.000509
0.136907 0.159263 0.000209
0.175840 0.170538 0.002990
0.218772 0.177565 0.002782
0.252627 0.183229 0.000730
0.285638 0.186446 0.001565
0.320096 0.188983 0.003667
0.353264 0.192230 0.002116
0.390028 0.194999 0.000355
0.429523 0.198428 0.000103
0.468422 0.202041 0.001670
0.506208 0.208298 0.003071
0.543806 0.214993 0.002421
0.580214 0.220337 0.002571
0.614637 0.227216 0.002746
0.650701 0.233223 0.002152
0.685689 0.241683 0.003496
0.716550 0.247872 0.002954
0.747180 0.255546 0.000596
0.782982 0.262454 0.002197
0.816007 0.272408 0.001344
0.844692 0.279030 0.000494
0.875174 0.289792 0.000790
0.907532 0.303191 0.004750
0.937977 0.316946 0.000840
0.968756 0.329533 0.000183
1.000000 0.343375 0.000691
0.002395 0.167626 0.002937
0.000260 0.167663 0.002937
0.000069 0.166455 0.000184
0.003331 0.167978 0.000000
0.007288 0.174125 0.000808
0.047864 0.176171 0.002165
0.091255 0.180718 0.002241
0.129477 0.185967 0.000482
0.167873 0.195740 0.001162
0.209345 0.204402 0.001543
0.255316 0.216140 0.001851
0.292570 0.221110 0.001185
0.326629 0.226055 0.001278
0.363865 0.230199 0.001542
0.402629 0.230058 0.000661
0.439366 0.231431 0.001909
0.475010 0.235565 0.002193
0.510815 0.239793 0.000836
0.548636 0.244255 0.001646
0.585347 0.248613 0.001893
0.617524 0.253936 0.001811
0.650865 0.260098 0.003199
0.682638 0.264764 0.002248
0.714428 0.272444 0.001526
0.748245 0.280897 0.002268
0.782234 0.288188 0.001860
0.813798 0.294540 0.000310
0.844086 0.304071 0.000283
0.875904 0.314842 0.001977
0.909067 0.324616 0.002868
0.938017 0.335334 0.000057
0.967020 0.348463 0.000144
0.997826 0.365669 0.004593
0.000815 0.198312 0.000815
0.001959 0.202986 0.004704
0.000125 0.199721 0.002173
0.000840 0.202896 0.000187
0.000364 0.206631 0.002987
0.022501 0.210451 0.001221
0.069350 0.215029 0.001029
0.118348 0.218958 0.000373
0.158080 0.227079 0.000799
0.196625 0.235616 0.001095
0.244424 0.244401 0.000866
0.296852 0.257956 0.000257
0.338928 0.267282 0.001174
0.377170 0.271053 0.001100
0.414919 0.271172 0.001630
0.448410 0.272630 0.002159
0.482443 0.274861 0.001759
0.519033 0.276096 0.001201
0.554300 0.276616 0.002125
0.586546 0.278056 0.003891
0.618772 0.282244 0.002827
0.652899 0.286105 0.001029
0.684249 0.291994 0.000931
0.717180 0.298389 0.001319
0.751216 0.305826 0.001936
0.783078 0.314076 0.002276
0.813480 0.320099 0.000738
0.845176 0.329709 0.001732
0.876575 0.339578 0.002411
0.909390 0.349142 0.000855
0.942588 0.356937 0.003584
0.969040 0.369969 0.002711
0.993547 0.388028 0.002451
0.000000 0.232478 0.000000
0.003463 0.238046 0.006081
0.000223 0.234535 0.002917
0.000779 0.238085 0.000804
0.001705 0.240048 0.006570
0.004920 0.244753 0.001160
0.035051 0.251645 0.000093
0.094045 0.254543 0.000757
0.143550 0.260655 0.000470
0.188052 0.269296 0.001654
0.235778 0.276633 0.001936
0.287563 0.287688 0.001880
0.343412 0.305196 0.005094
0.389297 0.313101 0.002846
0.426879 0.314722 0.000601
0.458543 0.315445 0.000861
0.491776 0.315380 0.000692
0.528104 0.315569 0.000522
0.561763 0.314892 0.001085
0.592882 0.315783 0.002336
0.623252 0.316082 0.001699
0.656447 0.315137 0.000000
0.687323 0.321127 0.000403
0.719010 0.326645 0.001027
0.752182 0.334597 0.001028
0.782025 0.341090 0.002836
0.813777 0.347070 0.001804
0.844284 0.355414 0.000841
0.875803 0.361197 0.001512
0.908076 0.372499 0.000148
0.938800 0.383484 0.001721
0.970108 0.395315 0.003788
0.997549 0.408959 0.003920
0.000921 0.274682 0.000000
0.003745 0.278061 0.002195
0.000240 0.275343 0.000997
0.000390 0.278001 0.000361
0.000852 0.281119 0.002663
0.001968 0.285445 0.000469
0.009172 0.288982 0.000000
0.058387 0.293721 0.001697
0.123014 0.300549 0.001039
0.176100 0.307426 0.000957
0.226138 0.316320 0.000963
0.275084 0.323453 0.000940
0.330087 0.336777 0.003301
0.387522 0.351298 0.004327
0.436678 0.360582 0.003739
0.473271 0.362230 0.002102
0.506271 0.358787 0.000441
0.539895 0.356915 0.001014
0.571766 0.357121 0.002095
0.600916 0.357222 0.001406
0.629200 0.355271 0.001297
0.660923 0.352111 0.001696
0.689991 0.354030 0.000121
0.718959 0.357250 0.000791
0.752172 0.363843 0.002085
0.783017 0.367682 0.002443
0.812138 0.374238 0.000742
0.846191 0.381574 0.000352
0.877176 0.389438 0.001971
0.906488 0.398809 0.000000
0.935231 0.410460 0.000180
0.970777 0.419688 0.002929
0.998338 0.431239 0.004367
0.000526 0.319614 0.000000
0.002241 0.321385 0.000000
0.000286 0.317583 0.002450
0.002244 0.321626 0.001956
0.001142 0.324278 0.002873
0.002463 0.327081 0.000938
0.002204 0.329835 0.002475
0.021751 0.332883 0.002593
0.088692 0.340391 0.002096
0.153156 0.347888 0.000782
0.211457 0.356215 0.000100
0.265504 0.361188 0.000626
0.316580 0.371808 0.000923
0.372723 0.381842 0.002641
0.431419 0.396517 0.004931
0.480038 0.407353 0.003035
0.515780 0.406113 0.001371
0.547809 0.402639 0.002161
0.580544 0.400467 0.003550
0.610947 0.397853 0.003758
0.639601 0.396193 0.001495
0.669551 0.394938 0.000969
0.699005 0.393569 0.000942
0.726941 0.392985 0.002727
0.756563 0.393859 0.002133
0.784723 0.397482 0.001991
0.814185 0.402903 0.000000
0.848104 0.411461 0.000163
0.879256 0.419440 0.000940
0.907192 0.425520 0.000207
0.938266 0.435369 0.000057
0.969032 0.443871 0.000952
0.999050 0.456295 0.002430
0.002700 0.365296 0.000000
0.002024 0.364532 0.000070
0.001000 0.362731 0.002514
0.001537 0.365587 0.002250
0.003105 0.367627 0.001990
0.002492 0.368606 0.000609
0.001661 0.372334 0.002404
0.004442 0.375288 0.002810
0.040093 0.380928 0.002027
0.119808 0.388191 0.001582
0.191253 0.394294 0.001916
0.248493 0.402052 0.001129
0.303394 0.411843 0.000232
0.356876 0.416106 0.000582
0.412260 0.425612 0.003457
0.467855 0.440176 0.002603
0.518259 0.450168 0.001330
0.558548 0.451325 0.001625
0.589762 0.446345 0.002013
0.619752 0.441006 0.003842
0.648792 0.438476 0.002435
0.675217 0.438804 0.000000
0.704235 0.435602 0.000822
0.733497 0.433643 0.002232
0.760741 0.432591 0.001534
0.786926 0.433697 0.001940
0.817837 0.436497 0.000618
0.846744 0.441819 0.003088
0.877696 0.447322 0.001853
0.906561 0.456723 0.001022
0.937100 0.464259 0.000080
0.968794 0.471250 0.001296
1.000000 0.483070 0.001598
0.003208 0.407093 0.001219
0.002303 0.407087 0.001271
0.000718 0.407329 0.000755
0.000058 0.409756 0.001826
0.001741 0.412819 0.000242
0.001692 0.411657 0.000000
0.002072 0.415677 0.001855
0.001258 0.418676 0.001543
0.008635 0.422005 0.001967
0.073188 0.428819 0.001789
0.155592 0.435582 0.001576
0.224937 0.441817 0.000532
0.284332 0.450587 0.000000
0.340258 0.455197 0.000041
0.392589 0.460892 0.001239
0.447556 0.471629 0.001609
0.506944 0.483818 0.001058
0.559335 0.493244 0.000989
0.597439 0.494061 0.000875
0.627921 0.487872 0.001301
0.655783 0.483344 0.001717
0.681243 0.480911 0.000653
0.709834 0.476762 0.000465
0.738382 0.473858 0.001653
0.765108 0.473546 0.002260
0.790982 0.472104 0.002395
0.820261 0.473357 0.001340
0.847469 0.475053 0.003550
0.878892 0.478423 0.003910
0.906786 0.485794 0.001749
0.938752 0.492244 0.001990
0.970388 0.499221 0.000941
1.000000 0.509067 0.000721
0.001016 0.449870 0.001016
0.002052 0.450674 0.002052
0.000130 0.449910 0.001194
0.002615 0.452089 0.003642
0.000361 0.454999 0.001779
0.001349 0.454078 0.001133
0.001838 0.457244 0.002457
0.000414 0.459430 0.000607
0.002622 0.463284 0.003439
0.025729 0.468912 0.001670
0.110112 0.474740 0.003030
0.195775 0.479472 0.001432
0.261811 0.487006 0.000507
0.320418 0.491139 0.000363
0.375332 0.495906 0.000061
0.429578 0.504039 0.000532
0.484651 0.511830 0.000536
0.540976 0.523237 0.000457
0.593811 0.534150 0.001346
0.635335 0.534713 0.002070
0.664590 0.530106 0.002212
0.688859 0.525684 0.001858
0.717452 0.520063 0.001411
0.744842 0.515095 0.002604
0.771175 0.512446 0.003034
0.798507 0.511823 0.002065
0.825824 0.512091 0.001935
0.854104 0.513190 0.001346
0.884273 0.513270 0.004265
0.909091 0.516252 0.004959
0.941161 0.520392 0.002552
0.971964 0.526271 0.000000
0.998930 0.537617 0.000000
0.000946 0.491211 0.002975
0.001005 0.492127 0.001985
0.000177 0.491442 0.001238
0.003385 0.492832 0.003486
0.000465 0.495037 0.003336
0.002446 0.495164 0.001362
0.000854 0.497029 0.002135
0.000083 0.499040 0.001311
0.002460 0.504002 0.002907
0.002875 0.508195 0.001314
0.060927 0.510925 0.002834
0.155790 0.516345 0.002009
0.236280 0.522140 0.001017
0.298365 0.525957 0.000977
0.356593 0.530075 0.000980
0.412228 0.536485 0.000472
0.464264 0.542694 0.000503
0.518531 0.550069 0.000535
0.575467 0.561966 0.000881
0.628991 0.573491 0.002020
0.669487 0.576542 0.002310
0.696040 0.571536 0.002148
0.724492 0.565476 0.001203
0.752135 0.559381 0.002088
0.779446 0.554947 0.002552
0.805237 0.552863 0.001484
0.833284 0.551157 0.001569
0.860157 0.551976 0.002715
0.889696 0.552545 0.004738
0.911395 0.554571 0.004721
0.943342 0.554193 0.000950
0.973849 0.558998 0.000976
0.998047 0.568695 0.000000
0.001005 0.529762 0.003161
0.000031 0.530736 0.001073
0.000122 0.530904 0.000184
0.000982 0.531934 0.000982
0.000134 0.532998 0.001893
0.001950 0.533910 0.000314
0.001259 0.536126 0.000869
0.001977 0.537065 0.001394
0.003268 0.540628 0.001126
0.001704 0.544462 0.000621
0.019923 0.547773 0.000717
0.108014 0.551573 0.001532
0.200717 0.555277 0.002154
0.272525 0.560559 0.001534
0.336587 0.565398 0.001939
0.394127 0.569731 0.001720
0.446273 0.575053 0.001036
0.499752 0.580820 0.001105
0.554002 0.588599 0.000966
0.607530 0.600967 0.000582
0.660150 0.611618 0.001757
0.700997 0.613166 0.003313
0.730542 0.609308 0.000854
0.758319 0.602572 0.001260
0.787648 0.600119 0.002835
0.809721 0.595113 0.000785
0.839881 0.590263 0.000468
0.865799 0.589189 0.002601
0.894316 0.591577 0.002945
0.918067 0.592642 0.001304
0.949730 0.592694 0.000241
0.978826 0.596600 0.002076
0.998995 0.600545 0.000000
0.000000 0.567656 0.000000
0.000970 0.569324 0.000970
0.001001 0.569378 0.001001
0.001001 0.569580 0.000094
0.001188 0.569593 0.000199
0.001339 0.570556 0.000035
0.001832 0.574443 0.001399
0.003135 0.574690 0.001631
0.003631 0.576586 0.001487
0.002381 0.578310 0.001127
0.002532 0.583979 0.001613
0.059562 0.587688 0.002898
0.157455 0.589101 0.002808
0.244366 0.594454 0.001846
0.314732 0.598624 0.002284
0.375243 0.601723 0.001943
0.428290 0.606822 0.001041
0.482404 0.612620 0.002020
0.536408 0.618335 0.003051
0.585851 0.625037 0.002059
0.637735 0.633874 0.001861
0.690279 0.644031 0.002928
0.731051 0.649823 0.001174
0.763107 0.644858 0.000965
0.792123 0.642434 0.002137
0.815158 0.637845 0.000085
0.845803 0.631518 0.000367
0.871722 0.627522 0.000237
0.898684 0.627818 0.000054
0.924983 0.628706 0.000402
0.956532 0.630075 0.000251
0.983720 0.632705 0.001917
0.998999 0.635338 0.000721
0.000000 0.606258 0.000620
0.001917 0.606986 0.001937
0.001979 0.607009 0.001979
0.002159 0.608312 0.000747
0.002973 0.607084 0.001020
0.002236 0.608549 0.000168
0.002484 0.611140 0.001899
0.002150 0.611844 0.001686
0.001999 0.614130 0.001701
0.001592 0.615670 0.001474
0.002145 0.620338 0.001259
0.021348 0.624418 0.002581
0.114024 0.625260 0.001461
0.213927 0.629144 0.001308
0.289662 0.632596 0.001580
0.353805 0.635033 0.001123
0.410300 0.638884 0.001088
0.464849 0.643399 0.001867
0.517907 0.648409 0.003359
0.567233 0.653080 0.003319
0.615148 0.656938 0.001178
0.666956 0.665525 0.000829
0.718655 0.679729 0.001851
0.762341 0.685224 0.000674
0.795276 0.684029 0.000704
0.821132 0.678552 0.000396
0.849131 0.673545 0.001117
0.877185 0.668871 0.003321
0.904857 0.664665 0.001215
0.928600 0.667978 0.000092
0.962347 0.666345 0.001071
0.984425 0.668297 0.002398
0.997661 0.672699 0.000979
0.000000 0.646057 0.000954
0.000924 0.643692 0.000954
0.000954 0.643616 0.000954
0.002952 0.644760 0.000954
0.004444 0.642842 0.001154
0.001656 0.646726 0.000185
0.002207 0.646414 0.000000
0.001716 0.646599 0.000000
0.002505 0.649110 0.001053
0.001305 0.651987 0.000395
0.003483 0.654698 0.000331
0.004287 0.658085 0.000511
0.069512 0.660284 0.001966
0.176220 0.662412 0.001857
0.263850 0.666541 0.000894
0.329833 0.669264 0.001793
0.388687 0.670860 0.001394
0.445438 0.674858 0.000000
0.499698 0.680055 0.001452
0.549839 0.683947 0.002797
0.599437 0.686664 0.001468
0.648537 0.690772 0.001708
0.696827 0.700113 0.002935
0.746776 0.713672 0.000837
0.791896 0.721090 0.001082
0.825680 0.717793 0.000640
0.853622 0.715714 0.001723
0.882700 0.710230 0.004615
0.911386 0.703436 0.001869
0.935293 0.706993 0.000141
0.967053 0.705546 0.001561
0.987226 0.705468 0.002291
0.998493 0.708801 0.000000
0.001353 0.679437 0.000913
0.001353 0.679437 0.000913
0.000940 0.679033 0.000913
0.004325 0.677890 0.001312
0.004961 0.679361 0.000702
0.002508 0.681591 0.001051
0.000384 0.681996 0.000212
0.000000 0.683389 0.000000
0.001247 0.684403 0.001438
0.001719 0.683235 0.000539
0.002942 0.685220 0.001206
0.002256 0.689281 0.002123
0.030590 0.692200 0.003930
0.133499 0.694334 0.003432
0.235864 0.698470 0.001716
0.306035 0.702299 0.002082
0.367774 0.704359 0.001447
0.427327 0.706879 0.000084
0.483425 0.710174 0.001102
0.534631 0.714995 0.001733
0.584547 0.719187 0.000937
0.630785 0.720727 0.001204
0.677781 0.726333 0.001249
0.723246 0.734494 0.000245
0.773789 0.743727 0.000000
0.822615 0.750931 0.000364
0.860525 0.756295 0.001693
0.886500 0.749781 0.001540
0.915128 0.744992 0.000038
0.939708 0.742935 0.000276
0.970443 0.741475 0.000060
0.991458 0.742530 0.000925
0.999087 0.742181 0.000000
0.002707 0.713750 0.002178
0.002707 0.714093 0.001836
0.001880 0.712635 0.001825
0.002624 0.714320 0.002944
0.002907 0.714816 0.001756
0.003911 0.715110 0.002455
0.001155 0.715225 0.000778
0.000104 0.720004 0.000077
0.000772 0.720431 0.002024
0.003300 0.719626 0.002150
0.003819 0.718738 0.002516
0.002398 0.721771 0.003250
0.007603 0.723126 0.002452
0.093483 0.725484 0.001458
0.201971 0.729758 0.000528
0.284293 0.734215 0.000691
0.351963 0.736905 0.001242
0.411046 0.738113 0.000961
0.465863 0.741043 0.001088
0.516368 0.745392 0.001434
0.566270 0.748541 0.001691
0.614867 0.751180 0.001627
0.661839 0.755800 0.000026
0.706533 0.760553 0.000021
0.753954 0.763522 0.000431
0.806144 0.771799 0.001170
0.854908 0.785320 0.000684
0.892812 0.788548 0.003216
0.919476 0.783491 0.000959
0.943241 0.779361 0.001450
0.974207 0.773171 0.000193
0.993278 0.775590 0.002995
0.998175 0.774045 0.000000
0.000000 0.747590 0.001627
0.000308 0.749482 0.000325
0.001058 0.748754 0.000283
0.001107 0.751007 0.001019
0.003169 0.747794 0.001470
0.001229 0.748117 0.001915
0.001707 0.748561 0.004038
0.001089 0.751114 0.006351
0.003034 0.751679 0.010942
0.002939 0.754948 0.017197
0.001898 0.752486 0.019100
0.001103 0.753906 0.017018
0.000322 0.756100 0.009311
0.060510 0.758360 0.003147
0.167751 0.761639 0.000721
0.264428 0.764592 0.000283
0.336296 0.767488 0.001626
0.395982 0.770023 0.001825
0.450860 0.771915 0.000456
0.500089 0.775191 0.001150
0.549456 0.778971 0.004003
0.603068 0.781644 0.004038
0.652520 0.784579 0.000255
0.696310 0.785844 0.000279
0.740822 0.789674 0.002031
0.786330 0.791474 0.004220
0.833814 0.803764 0.000759
0.882504 0.818148 0.000464
0.921006 0.821412 0.002032
0.949905 0.816669 0.002067
0.977255 0.807136 0.000272
0.998881 0.807089 0.004223
1.000000 0.804706 0.000000
0.000000 0.778969 0.009766
0.000820 0.781178 0.008088
0.002821 0.783146 0.009815
0.003644 0.782643 0.011365
0.001987 0.781449 0.012928
0.002428 0.780213 0.016201
0.002890 0.780615 0.025342
0.002437 0.782006 0.035850
0.003731 0.781481 0.046879
0.003093 0.783980 0.059821
0.004449 0.781899 0.069911
0.003998 0.783826 0.067947
0.002004 0.786874 0.046985
0.032856 0.790982 0.023451
0.137811 0.793378 0.010472
0.247981 0.794956 0.004037
0.319515 0.798008 0.001564
0.380817 0.801499 0.001516
0.436981 0.803683 0.000730
0.486329 0.806015 0.000000
0.536428 0.809079 0.000498
0.588385 0.811009 0.001359
0.638412 0.815008 0.001214
0.682687 0.815741 0.001231
0.726747 0.815483 0.003014
0.774120 0.817072 0.004294
0.815153 0.824227 0.002179
0.858266 0.833462 0.000435
0.909751 0.848819 0.000198
0.949116 0.849277 0.000264
0.979440 0.844635 0.000680
0.998950 0.843025 0.005004
1.000000 0.839233 0.000000
0.000167 0.815868 0.041767
0.000005 0.814555 0.041648
0.000000 0.814333 0.047210
0.002161 0.812355 0.052610
0.003281 0.812511 0.054687
0.002006 0.814090 0.063206
0.002906 0.813789 0.075868
0.000694 0.815405 0.086479
0.002242 0.812448 0.093200
0.000961 0.816433 0.102900
0.002955 0.816888 0.114176
0.004305 0.818027 0.118483
0.004870 0.819484 0.105247
0.021778 0.821733 0.080436
0.115851 0.823663 0.055419
0.227690 0.825854 0.028342
0.302983 0.828272 0.012016
0.366438 0.830765 0.007443
0.423984 0.833403 0.002404
0.476112 0.834538 0.000068
0.526200 0.836395 0.000104
0.574765 0.840110 0.000770
0.625134 0.842218 0.002910
0.669571 0.842986 0.003370
0.710309 0.841848 0.000770
0.754814 0.843518 0.000691
0.803214 0.849685 0.000484
0.836462 0.853524 0.000253
0.883517 0.861084 0.001514
0.939864 0.872566 0.000900
0.980711 0.876607 0.002162
0.997872 0.877028 0.004549
1.000000 0.869938 0.000000
0.000740 0.841656 0.090815
0.000738 0.845953 0.094488
0.000738 0.846092 0.094606
0.000738 0.845988 0.096886
0.001823 0.845167 0.098970
0.002046 0.845592 0.107335
0.002481 0.845513 0.114211
0.000564 0.846439 0.124541
0.004033 0.844121 0.132844
0.002044 0.847951 0.138457
0.003296 0.847085 0.147413
0.004322 0.848579 0.156476
0.005026 0.850392 0.150274
0.014718 0.852293 0.134912
0.103811 0.852663 0.120556
0.216781 0.854618 0.094525
0.294914 0.857282 0.057971
0.357723 0.859318 0.027560
0.412725 0.862183 0.010117
0.465726 0.863954 0.002983
0.518085 0.866664 0.000387
0.566912 0.869951 0.000254
0.612638 0.869653 0.002863
0.658870 0.869539 0.005589
0.702201 0.869859 0.000547
0.739295 0.871784 0.000261
