ml_luts/presetpro_warm_tones__lut3d_33.cube
TITLE "Presetpro - Warm Tones.jpg"
DOMAIN_MIN 0.000000 0.000000 0.000000
DOMAIN_MAX 1.000000 1.000000 1.000000
LUT_3D_SIZE 5
0.003937 0.003937 0.000000
0.108597 0.028977 0.010338
0.399994 0.001953 0.020691
0.766678 0.000763 0.003708
1.000000 0.196075 0.000000
0.002937 0.137459 0.059128
0.064907 0.174627 0.034493
0.471180 0.153931 0.001324
0.798870 0.154506 0.000835
0.997047 0.328751 0.002617
0.000000 0.436233 0.141098
0.002926 0.437927 0.149650
0.425026 0.516197 0.001961
0.829437 0.534874 0.000614
0.997086 0.547058 0.002975
0.033691 0.722343 0.324737
0.205025 0.719721 0.326681
0.460358 0.733795 0.299312
0.763102 0.774561 0.154940
1.000000 0.813950 0.000000
0.639221 0.941162 0.666656
0.654365 0.940628 0.664932
0.708847 0.944092 0.688232
0.789665 0.970047 0.655876
0.945099 1.000000 0.564697
0.000763 0.028221 0.161003
0.113226 0.048428 0.160553
0.430874 0.003021 0.156463
0.772621 0.007477 0.187717
0.999779 0.252952 0.192017
0.001167 0.172294 0.178746
0.120124 0.194596 0.191841
0.478228 0.198597 0.188515
0.798768 0.217710 0.180558
0.998316 0.356571 0.175430
0.007881 0.474903 0.278473
0.071392 0.471917 0.263505
0.483806 0.525356 0.206301
0.834423 0.526665 0.116566
0.998924 0.554966 0.101181
0.289375 0.729073 0.405527
0.351624 0.728928 0.408359
0.514483 0.735329 0.400884
0.772128 0.780006 0.314242
1.000000 0.810625 0.186453
0.654373 0.938988 0.687256
0.668543 0.940109 0.694521
0.722152 0.943615 0.710701
0.798996 0.969090 0.687985
0.941162 0.996063 0.614708
0.002014 0.079392 0.433334
0.178379 0.092388 0.441117
0.555336 0.085724 0.464569
0.823276 0.092228 0.439590
0.999054 0.240234 0.428405
0.001705 0.224418 0.449509
0.217713 0.243302 0.461637
0.576193 0.285307 0.478277
0.825370 0.302347 0.452350
0.999119 0.363384 0.441738
0.042427 0.515716 0.468193
0.301382 0.525434 0.478508
0.599014 0.547520 0.505306
0.821627 0.549658 0.483097
0.992188 0.584885 0.473503
0.539017 0.749645 0.593216
0.584143 0.750325 0.599357
0.636061 0.747658 0.585133
0.792169 0.783226 0.555596
1.000000 0.789066 0.489346
0.707031 0.949021 0.760849
0.713688 0.948109 0.756969
0.744583 0.952377 0.758690
0.814640 0.967903 0.758701
0.954895 0.995117 0.706833
0.259819 0.175056 0.723305
0.424631 0.188124 0.731607
0.693184 0.265137 0.742412
0.877837 0.387983 0.754930
0.999557 0.469399 0.729424
0.294262 0.318968 0.728211
0.447027 0.335678 0.734900
0.693520 0.400499 0.741865
0.867089 0.494455 0.755235
0.989401 0.543856 0.728220
0.215164 0.545383 0.716884
0.394013 0.553424 0.723985
0.669529 0.594183 0.745550
0.847920 0.659062 0.763147
0.987388 0.669304 0.752518
0.516291 0.770248 0.744711
0.568484 0.768808 0.744375
0.685487 0.779037 0.755427
0.829625 0.797358 0.774707
0.992470 0.790596 0.747585
0.728516 0.958390 0.834419
0.746147 0.959427 0.839175
0.801327 0.963467 0.846218
0.850189 0.969816 0.843018
0.972534 0.995529 0.823441
0.678436 0.513733 0.937256
0.720581 0.539207 0.938233
0.811707 0.584381 0.935303
0.919823 0.662979 0.935738
1.000000 0.705872 0.929413
0.678436 0.580375 0.938233
0.720623 0.595953 0.937634
0.808186 0.636028 0.933670
0.915192 0.694137 0.931097
0.997826 0.729180 0.931687
0.647125 0.685333 0.936310
0.689212 0.694069 0.937832
0.788269 0.719132 0.936722
0.909207 0.763412 0.937241
1.000000 0.797089 0.933273
0.618408 0.826477 0.942825
0.642158 0.826452 0.942164
0.718937 0.821308 0.940407
0.881918 0.846840 0.945152
0.997826 0.888016 0.941704
0.725494 0.988220 0.949005
0.742157 0.988441 0.945320
0.792160 0.990265 0.946106
0.878212 0.992378 0.951958
0.996063 0.996063 0.949005
