ml_luts/presetpro_fuji_astia__lut3d_33.cube
TITLE "Presetpro - Fuji Astia.jpg"
DOMAIN_MIN 0.000000 0.000000 0.000000
DOMAIN_MAX 1.000000 1.000000 1.000000
LUT_3D_SIZE 9
0.000000 0.000000 0.000000
0.071659 0.001373 0.006863
0.168389 0.013519 0.001518
0.315666 0.002457 0.001991
0.468567 0.002975 0.000946
0.612366 0.002457 0.002461
0.732582 0.004471 0.000000
0.856823 0.116577 0.000000
0.988220 0.239227 0.003937
0.011272 0.064308 0.007389
0.079928 0.070873 0.002400
0.199199 0.081111 0.002402
0.348313 0.075975 0.003670
0.496935 0.064853 0.003889
0.627432 0.067069 0.001434
0.746344 0.109397 0.002618
0.867948 0.188582 0.001627
0.989479 0.281803 0.004806
0.000000 0.178741 0.011543
0.034584 0.189708 0.002930
0.212118 0.217070 0.000667
0.387254 0.232903 0.000283
0.537674 0.230275 0.000820
0.662029 0.233733 0.001061
0.771605 0.260029 0.000191
0.886116 0.307499 0.002108
1.000000 0.376465 0.000000
0.002461 0.332855 0.000954
0.004154 0.332198 0.001113
0.144816 0.357105 0.001637
0.368219 0.391714 0.003524
0.552374 0.407671 0.002163
0.684090 0.407787 0.001629
0.806578 0.428675 0.003361
0.914624 0.457106 0.001153
1.000000 0.493610 0.000950
0.000946 0.474518 0.031372
0.000463 0.470674 0.034468
0.079330 0.483433 0.004463
0.309826 0.509283 0.001806
0.511360 0.541145 0.003006
0.687282 0.573631 0.000355
0.809135 0.582748 0.000000
0.923939 0.603540 0.001196
0.999054 0.623459 0.002914
0.000526 0.598049 0.117333
0.002284 0.594984 0.113875
0.076838 0.598595 0.112607
0.295499 0.618422 0.064038
0.473146 0.649711 0.002186
0.647990 0.684117 0.000555
0.813926 0.720336 0.002614
0.930911 0.731039 0.000094
0.998096 0.742184 0.000000
0.001510 0.726478 0.207183
0.006897 0.727788 0.203666
0.151615 0.726784 0.199970
0.319175 0.742496 0.181815
0.475163 0.761799 0.149437
0.623839 0.788131 0.067191
0.774430 0.814240 0.002758
0.936732 0.841833 0.001322
0.998802 0.843361 0.005890
0.160309 0.865242 0.312656
0.199394 0.865135 0.313847
0.272768 0.864896 0.314841
0.376043 0.870471 0.311862
0.497207 0.883421 0.291658
0.628829 0.897762 0.262485
0.760698 0.913507 0.216184
0.898018 0.927351 0.108752
1.000000 0.935250 0.000095
0.388245 0.992157 0.513733
0.411183 0.988712 0.517113
0.439125 0.987686 0.514176
0.494606 0.991207 0.520535
0.578491 0.995056 0.513733
0.666698 0.997543 0.498985
0.769180 0.999023 0.472107
0.876465 0.999546 0.420773
0.992157 1.000000 0.317657
0.025486 0.000046 0.076427
0.084362 0.000089 0.066893
0.164920 0.008266 0.061377
0.318355 0.000119 0.062090
0.471100 0.002413 0.053358
0.608872 0.000903 0.036307
0.731371 0.007623 0.005215
0.851800 0.124929 0.000850
0.984757 0.235291 0.001327
0.012957 0.072953 0.075509
0.083117 0.079563 0.079029
0.204794 0.079445 0.074128
0.349502 0.076442 0.068062
0.494630 0.067864 0.053698
0.624348 0.073869 0.024885
0.742821 0.116593 0.003455
0.863382 0.186523 0.002760
0.984497 0.278341 0.005835
0.005566 0.200593 0.090137
0.068471 0.201525 0.085199
0.220284 0.222213 0.063929
0.392093 0.232157 0.044125
0.538561 0.230899 0.033930
0.656984 0.236104 0.006793
0.766979 0.262048 0.002011
0.879133 0.311519 0.002248
0.996495 0.374309 0.000836
0.000662 0.346332 0.104772
0.002537 0.346028 0.103810
0.171070 0.360290 0.084665
0.374294 0.393406 0.018246
0.555005 0.410061 0.001290
0.682038 0.412295 0.001527
0.802763 0.430818 0.001573
0.910265 0.459362 0.000966
0.999621 0.494998 0.001974
0.000710 0.484247 0.137369
0.001382 0.482120 0.134476
0.131830 0.483973 0.126439
0.324737 0.511820 0.083156
0.518468 0.543424 0.006696
0.689043 0.572546 0.001118
0.808673 0.583272 0.000260
0.922751 0.605264 0.001903
0.999746 0.620760 0.004208
0.002728 0.604490 0.187196
0.004395 0.603585 0.188348
0.126902 0.601227 0.184740
0.309464 0.620589 0.162863
0.477777 0.649777 0.114566
0.648175 0.683297 0.017126
0.812153 0.719639 0.001468
0.930500 0.731280 0.002257
0.998848 0.737920 0.003660
0.000661 0.735848 0.252075
0.038312 0.732846 0.245339
0.185131 0.729420 0.248194
0.328637 0.741354 0.238476
0.475678 0.763709 0.215255
0.623934 0.786627 0.171490
0.774168 0.816545 0.075949
0.936226 0.841318 0.002871
0.996937 0.843082 0.000482
0.179817 0.866332 0.342240
0.213319 0.868276 0.347663
0.281146 0.868536 0.344183
0.374093 0.871926 0.340176
0.500864 0.882418 0.324646
0.627190 0.896976 0.304971
0.758960 0.914710 0.268562
0.894386 0.926468 0.193016
0.999506 0.932920 0.010737
0.387837 0.988724 0.525532
0.408246 0.989415 0.537652
0.442832 0.991101 0.534207
0.494568 0.991248 0.539282
0.571474 0.992861 0.529268
0.668026 0.996434 0.518251
0.769413 0.997535 0.487584
0.876955 0.999960 0.449116
0.992157 1.000000 0.366318
0.017868 0.000000 0.210327
0.106012 0.000702 0.212300
0.225323 0.000544 0.205722
0.317247 0.001359 0.177827
0.464393 0.001308 0.171807
0.597755 0.001523 0.160594
0.717134 0.059587 0.169601
0.845384 0.139569 0.152307
0.974297 0.230629 0.120125
0.005154 0.066103 0.224118
0.100666 0.073181 0.222922
0.235475 0.069137 0.212075
0.337935 0.082407 0.195880
0.484640 0.067419 0.184311
0.608161 0.111258 0.185246
0.727820 0.149765 0.175510
0.851634 0.200004 0.158828
0.972609 0.276876 0.116934
0.000111 0.214939 0.233551
0.090926 0.220900 0.230529
0.240005 0.229983 0.232008
0.384475 0.235741 0.223440
0.518635 0.241299 0.211823
0.639788 0.250162 0.200014
0.754929 0.275877 0.186424
0.867943 0.315132 0.158225
0.987316 0.372112 0.118959
0.066215 0.371066 0.252006
0.146427 0.374031 0.258636
0.228297 0.373459 0.242583
0.392319 0.397952 0.230224
0.555255 0.412460 0.222590
0.678508 0.418699 0.219239
0.787620 0.432849 0.202838
0.895885 0.458190 0.173804
0.998970 0.493154 0.129968
0.034092 0.505001 0.269833
0.108751 0.503455 0.270563
0.216660 0.498059 0.271164
0.349405 0.515074 0.258180
0.527353 0.547377 0.233736
0.686121 0.575643 0.211101
0.807114 0.587436 0.208929
0.921388 0.607352 0.199875
1.000000 0.622009 0.172753
0.046634 0.621079 0.300493
0.117621 0.620126 0.300337
0.217684 0.615923 0.298392
0.335285 0.622491 0.290269
0.489811 0.651742 0.274454
0.653138 0.686897 0.246375
0.810071 0.720553 0.201323
0.928948 0.730991 0.196046
0.996464 0.740805 0.188991
0.096111 0.745378 0.340792
0.155992 0.744127 0.341327
0.238904 0.741194 0.337924
0.340238 0.740430 0.333571
0.480552 0.761851 0.322582
0.625911 0.789051 0.303112
0.776449 0.815833 0.273760
0.931608 0.843756 0.210665
0.999811 0.842951 0.195660
0.208556 0.872570 0.410865
0.234563 0.873733 0.411449
0.299796 0.869442 0.409326
0.379295 0.868445 0.404414
0.495822 0.882077 0.396914
0.625816 0.897185 0.382346
0.756306 0.913750 0.359590
0.897414 0.924875 0.321303
0.999693 0.939485 0.239820
0.403023 0.991623 0.573074
0.415610 0.990406 0.570368
0.446718 0.990149 0.574974
0.500924 0.991119 0.579445
0.575806 0.992832 0.577152
0.666592 0.998570 0.564700
0.769272 0.998865 0.543814
0.877079 0.999823 0.508525
0.986587 0.997047 0.434616
0.001507 0.003937 0.379917
0.097989 0.000831 0.382374
0.253665 0.000422 0.377654
0.400158 0.001547 0.373409
0.469088 0.000097 0.323784
0.582447 0.003091 0.311053
0.701959 0.008321 0.301046
0.825275 0.066033 0.291504
0.951477 0.211349 0.299042
0.002736 0.062033 0.396718
0.097675 0.058262 0.392092
0.257384 0.043799 0.390749
0.410874 0.024320 0.379198
0.478620 0.092713 0.334222
0.594500 0.112267 0.323669
0.711763 0.124510 0.303900
0.828768 0.176681 0.300871
0.957167 0.261308 0.300264
0.000712 0.205953 0.405760
0.023325 0.204730 0.401811
0.256971 0.223084 0.400026
0.410271 0.230322 0.390986
0.496949 0.249049 0.363135
0.612964 0.251487 0.345627
0.725759 0.272577 0.335095
0.846448 0.310828 0.327519
0.973948 0.355682 0.310899
0.004499 0.385151 0.414407
0.100812 0.390941 0.412376
0.261764 0.398578 0.413853
0.406368 0.408218 0.412622
0.534106 0.411393 0.401885
0.646129 0.418232 0.388416
0.758714 0.429377 0.374236
0.872844 0.452740 0.354088
0.988689 0.482216 0.330426
0.181696 0.531132 0.424191
0.234093 0.533620 0.429575
0.320622 0.533170 0.433174
0.396075 0.529011 0.423136
0.536251 0.556186 0.414316
0.680341 0.576665 0.411925
0.799711 0.589275 0.406789
0.907362 0.601916 0.395346
1.000000 0.615532 0.366245
0.248744 0.648701 0.459017
0.266654 0.648121 0.455174
0.306011 0.646780 0.439023
0.381778 0.638217 0.432835
0.500278 0.657971 0.426331
0.654759 0.692842 0.419403
0.807047 0.721304 0.408285
0.922228 0.731371 0.405656
0.997800 0.738539 0.404608
0.203360 0.764131 0.460958
0.235121 0.763690 0.460217
0.296696 0.758261 0.460865
0.375218 0.754379 0.451006
0.484322 0.762040 0.446126
0.622881 0.790528 0.439282
0.775502 0.820210 0.426210
0.930493 0.842925 0.408243
0.998946 0.842275 0.401577
0.246686 0.879407 0.502707
0.272091 0.882394 0.504885
0.323520 0.880170 0.503395
0.397132 0.875751 0.496125
0.489306 0.880605 0.494120
0.617815 0.895487 0.486695
0.753802 0.913043 0.478799
0.893807 0.927661 0.455615
0.999764 0.935944 0.410714
0.416767 0.993107 0.631401
0.435018 0.992943 0.629391
0.464521 0.993438 0.632251
0.510402 0.990829 0.633791
0.577341 0.990951 0.640240
0.667702 0.997084 0.632863
0.766386 0.999046 0.615553
0.874803 0.999293 0.593389
0.990223 1.000000 0.540199
0.002975 0.000000 0.536362
0.096073 0.001465 0.541097
0.258347 0.001385 0.537640
0.418501 0.001247 0.530526
0.556694 0.001488 0.523399
0.602944 0.002611 0.469923
0.688621 0.095154 0.452656
0.806782 0.121525 0.449587
0.939224 0.131362 0.439209
0.000317 0.039411 0.550894
0.111255 0.031765 0.545222
0.272201 0.014854 0.543175
0.427763 0.002760 0.540350
0.561877 0.005848 0.531361
0.607907 0.120329 0.475376
0.694462 0.172562 0.455889
0.813330 0.182891 0.457033
0.943283 0.187075 0.444571
0.001633 0.194889 0.558643
0.111498 0.208636 0.559375
0.277310 0.213187 0.554794
0.432204 0.217097 0.549643
0.560360 0.230463 0.538362
0.609962 0.268832 0.492954
0.703947 0.282173 0.482106
0.827982 0.281920 0.464763
0.955174 0.284069 0.445240
0.000492 0.372293 0.562878
0.017121 0.372774 0.565429
0.236473 0.380250 0.566704
0.421465 0.397104 0.563043
0.554312 0.406462 0.554858
0.619224 0.415601 0.521931
0.728524 0.409471 0.503839
0.843911 0.409802 0.481431
0.964829 0.433884 0.464729
0.079063 0.544617 0.572647
0.177048 0.546690 0.572855
0.296829 0.550863 0.572535
0.422007 0.556928 0.576842
0.543857 0.565674 0.578133
0.659076 0.567885 0.565251
0.766914 0.566696 0.544523
0.878258 0.573066 0.522213
0.994599 0.587151 0.500854
0.274279 0.675510 0.595495
0.304154 0.678421 0.593191
0.370468 0.678513 0.594727
0.455388 0.677082 0.594598
0.521646 0.670681 0.577007
0.658904 0.700120 0.577744
0.798009 0.720734 0.574603
0.916420 0.728465 0.573690
0.999880 0.729071 0.561249
0.348324 0.784115 0.624931
0.366851 0.786261 0.626613
0.400267 0.784889 0.616982
0.432239 0.780298 0.592395
0.499823 0.771627 0.576775
0.620380 0.792387 0.575377
0.773502 0.822820 0.578113
0.926506 0.841955 0.577647
0.997730 0.840706 0.570209
0.336416 0.893376 0.635446
0.339725 0.890421 0.629066
0.369153 0.890556 0.620038
0.427962 0.890136 0.612777
0.502288 0.884203 0.602389
0.610743 0.892397 0.601210
0.747375 0.911622 0.600776
0.890306 0.927163 0.593417
1.000000 0.931349 0.574814
0.448944 0.995193 0.704940
0.461388 0.993433 0.704901
0.489079 0.992313 0.704323
0.534086 0.993328 0.707899
0.591674 0.994141 0.707886
0.666566 0.995348 0.710487
0.765961 0.999291 0.702011
0.873722 0.998278 0.686977
0.982346 1.000000 0.654969
0.049233 0.002461 0.691227
0.161824 0.002530 0.684953
0.300917 0.002071 0.688096
0.447971 0.001161 0.680883
0.588192 0.000996 0.678676
0.693649 0.002762 0.666828
0.725959 0.060993 0.613137
0.809340 0.162662 0.600500
0.917225 0.205921 0.611687
0.082628 0.003412 0.692862
0.182239 0.002105 0.692872
0.311387 0.001144 0.689948
0.450026 0.002583 0.686870
0.590664 0.000754 0.680339
0.696746 0.014681 0.668372
0.729842 0.163828 0.618587
0.807314 0.216311 0.605301
0.920271 0.242801 0.608421
0.106225 0.196794 0.699728
0.190946 0.197508 0.700157
0.320964 0.197760 0.700657
0.459641 0.199428 0.693107
0.589557 0.211769 0.686172
0.695319 0.237867 0.679493
0.730174 0.291382 0.630040
0.812893 0.309521 0.613837
0.931133 0.317436 0.618710
0.001066 0.345345 0.713026
0.030854 0.349517 0.712668
0.284898 0.371166 0.704993
0.443178 0.384079 0.705255
0.579723 0.391215 0.698770
0.688726 0.403889 0.688479
0.730908 0.423653 0.646278
0.820489 0.420280 0.629521
0.948260 0.409672 0.617747
0.003517 0.535293 0.720154
0.058805 0.537649 0.713913
0.240523 0.539120 0.719918
0.388217 0.539078 0.719615
0.548639 0.551033 0.717344
0.675733 0.558181 0.707574
0.736896 0.554813 0.670909
0.843458 0.537302 0.646174
0.970064 0.524324 0.614563
0.189749 0.687471 0.721182
0.233970 0.688128 0.727345
0.324377 0.688969 0.725530
0.433604 0.694790 0.726595
0.548771 0.701534 0.731803
0.663833 0.710033 0.728429
0.774463 0.707719 0.715849
0.882379 0.699568 0.692537
0.994110 0.700231 0.672187
0.354956 0.813616 0.750344
0.382206 0.810797 0.747807
0.429303 0.811393 0.749193
0.499423 0.811134 0.746770
0.578581 0.807260 0.743317
0.640498 0.800190 0.724474
0.776733 0.828613 0.729813
0.913756 0.842318 0.730239
1.000000 0.837639 0.731854
0.448310 0.907025 0.775505
0.461347 0.905728 0.775270
0.497320 0.905407 0.772355
0.543310 0.904040 0.767469
0.565388 0.901125 0.742397
0.624784 0.893676 0.726025
0.744088 0.910201 0.723884
0.888435 0.927592 0.734528
1.000000 0.930925 0.731466
0.598328 0.989174 0.826172
0.588780 0.992891 0.820914
0.585839 0.993137 0.814598
0.583264 0.994382 0.794965
0.626028 0.994411 0.789720
0.688138 0.994835 0.785106
0.771123 0.997758 0.788934
0.874675 0.999783 0.785359
0.978886 1.000000 0.764743
0.238457 0.000984 0.832275
0.290736 0.000792 0.829865
0.390091 0.000622 0.829913
0.508123 0.000951 0.827381
0.629776 0.002956 0.822472
0.745126 0.000286 0.818941
0.827923 0.001987 0.803866
0.855705 0.139499 0.763965
0.938553 0.229187 0.751206
0.251276 0.000566 0.835376
0.298480 0.000361 0.833812
0.392857 0.000562 0.832918
0.513037 0.001001 0.830817
0.633434 0.001287 0.826940
0.740684 0.003107 0.819708
0.834259 0.066222 0.810881
0.864855 0.204413 0.769170
0.935892 0.265732 0.754946
0.251869 0.176167 0.836935
0.303938 0.174854 0.836459
0.393083 0.176563 0.835682
0.510260 0.179679 0.832013
0.626935 0.190277 0.828125
0.737026 0.215957 0.823252
0.826984 0.254417 0.813657
0.856248 0.310119 0.770999
0.941223 0.340950 0.758671
0.167227 0.350410 0.841236
0.253345 0.360152 0.841639
0.366844 0.362567 0.840757
0.487468 0.368540 0.839769
0.608421 0.374589 0.835942
0.724360 0.386425 0.825960
0.822088 0.403015 0.820479
0.849778 0.433029 0.775853
0.943041 0.434529 0.761992
0.001293 0.514526 0.847241
0.001681 0.513878 0.850654
0.221424 0.507225 0.847153
0.412886 0.519662 0.843609
0.569794 0.530491 0.839542
0.699731 0.537021 0.835582
0.809050 0.546900 0.825997
0.846258 0.554988 0.780225
0.947384 0.543693 0.769409
0.034247 0.677911 0.853084
0.131075 0.678061 0.849304
0.257042 0.678411 0.847566
0.383089 0.679837 0.851396
0.513192 0.679037 0.849143
0.666922 0.690325 0.847410
0.790582 0.695421 0.836244
0.848898 0.683181 0.800968
0.963615 0.662099 0.778549
0.286272 0.813957 0.856819
0.316209 0.815268 0.855483
0.376955 0.816097 0.855140
0.469136 0.817635 0.851774
0.570493 0.823364 0.856434
0.678125 0.829702 0.854750
0.791441 0.834583 0.858366
0.887010 0.827618 0.841888
0.990395 0.816435 0.822786
0.485331 0.921922 0.871071
0.499421 0.921894 0.868554
0.531326 0.923602 0.870133
0.584261 0.921719 0.867519
0.649381 0.922837 0.867942
0.723117 0.915527 0.865688
0.765603 0.909321 0.843909
0.892172 0.933027 0.852525
1.000000 0.931518 0.850962
0.641624 0.996063 0.895104
0.645294 0.994783 0.895341
0.667757 0.994121 0.895407
0.696658 0.995029 0.895677
0.744148 0.992927 0.893669
0.747395 0.996862 0.874724
0.796484 0.991634 0.868521
0.889431 0.999886 0.875274
0.985077 0.999779 0.870819
0.401528 0.007355 0.950878
0.429539 0.001111 0.947047
0.497928 0.001933 0.949971
0.590794 0.001035 0.945744
0.687695 0.001206 0.941708
0.790714 0.000213 0.939659
0.890900 0.003059 0.932984
0.974380 0.069396 0.939130
0.998665 0.219948 0.911435
0.405477 0.000006 0.950987
0.432907 0.000689 0.950336
0.497597 0.001519 0.949551
0.591837 0.000839 0.950070
0.689254 0.001625 0.946093
0.786908 0.002278 0.943051
0.888138 0.053806 0.942498
0.970145 0.174499 0.925166
0.998194 0.263039 0.902136
0.396863 0.154784 0.949508
0.427541 0.153536 0.949939
0.494006 0.156898 0.950708
0.580967 0.165931 0.948492
0.679503 0.183349 0.946984
0.782289 0.213496 0.942289
0.881627 0.248621 0.938508
0.965209 0.290590 0.928021
0.996168 0.345765 0.900936
0.351240 0.351671 0.951112
0.384024 0.352488 0.950736
0.457306 0.353182 0.952193
0.552189 0.358402 0.948834
0.657382 0.367376 0.947080
0.762336 0.380075 0.943458
0.867982 0.396456 0.937118
0.957902 0.416148 0.933724
0.986566 0.451417 0.900164
0.087547 0.479521 0.955990
0.194163 0.480023 0.952950
0.351359 0.500431 0.953018
0.488922 0.514086 0.949398
0.612770 0.517426 0.944983
0.729077 0.527016 0.942908
0.841969 0.537590 0.940485
0.943242 0.548331 0.931995
0.977024 0.567035 0.902184
0.003312 0.661720 0.948019
0.068736 0.656235 0.950302
0.235210 0.655241 0.949712
0.378971 0.650220 0.949810
0.536403 0.659116 0.949394
0.691066 0.671773 0.945274
0.816834 0.679166 0.938785
0.927903 0.682924 0.929045
0.974820 0.684946 0.900295
0.257593 0.801791 0.946151
0.286551 0.805604 0.946963
0.354072 0.803628 0.946704
0.440835 0.802841 0.946081
0.544826 0.804367 0.946286
0.652302 0.807797 0.946828
0.794749 0.815281 0.940298
0.911257 0.818778 0.935020
0.970014 0.801899 0.904594
0.450022 0.918158 0.948610
0.460985 0.917028 0.939541
0.502200 0.918689 0.944589
0.563926 0.920835 0.945247
0.642805 0.921193 0.942697
0.728862 0.924848 0.945300
0.820881 0.930356 0.940513
0.918046 0.935374 0.949162
0.993472 0.924110 0.932042
0.669106 0.996113 0.949551
0.680947 0.996189 0.953342
0.701482 0.999044 0.949824
0.736795 0.997289 0.953148
0.780228 0.998278 0.954479
0.826990 0.997142 0.953638
0.877352 0.993609 0.954042
0.907783 0.998773 0.944639
0.989597 0.997009 0.943047
0.533325 0.003937 0.996063
0.549023 0.000000 0.999557
0.598037 0.000755 1.000000
0.661304 0.000000 1.000000
0.745102 0.001953 0.997086
0.832397 0.001904 0.999050
0.920594 0.138023 0.998047
1.000000 0.232857 1.000000
0.996063 0.313721 1.000000
0.532898 0.000000 1.000000
0.549799 0.000414 0.994379
0.595234 0.001221 0.999870
0.662021 0.000880 1.000000
0.741480 0.022987 0.999506
0.826994 0.128695 0.999586
0.918700 0.205414 0.999146
0.999061 0.278925 0.999580
0.999020 0.343682 0.999954
0.517639 0.184517 0.999779
0.540424 0.185443 0.999659
0.583193 0.195801 1.000000
0.650944 0.214894 0.999205
0.727547 0.244091 0.998722
0.820393 0.277889 0.999623
0.910500 0.321511 0.999834
0.998264 0.362792 0.999889
1.000000 0.407402 0.999237
0.482460 0.368572 1.000000
0.503248 0.365057 0.999506
0.551769 0.371559 0.999763
0.621889 0.381782 0.999406
0.704712 0.395498 0.998793
0.795989 0.413071 1.000000
0.893495 0.440225 0.999631
0.987975 0.469758 0.999432
1.000000 0.501465 0.999046
0.395005 0.506760 1.000000
0.427250 0.510546 0.997837
0.488426 0.515808 0.999134
0.570883 0.521761 0.997450
0.666092 0.530426 0.998581
0.764709 0.544878 0.997278
0.868226 0.564072 0.999054
0.971249 0.585173 0.997915
0.997162 0.607772 0.999054
0.235729 0.629391 0.999046
0.274344 0.629057 0.998651
0.352048 0.626221 0.997067
0.479096 0.641958 0.997413
0.614130 0.666645 0.998434
0.732033 0.675895 0.998493
0.841041 0.689163 0.997816
0.953099 0.702106 0.997922
0.998524 0.718563 0.998520
0.335090 0.787712 1.000000
0.352408 0.788357 0.999446
0.402767 0.788269 0.999645
0.471381 0.785090 0.997424
0.566856 0.784195 0.997765
0.687298 0.794541 0.999108
0.819556 0.812696 0.999754
0.929893 0.820414 0.997307
1.000000 0.826256 0.998482
0.512344 0.906967 0.999546
0.529625 0.906640 0.999613
0.555094 0.908389 0.998462
0.600561 0.909198 0.997830
0.661876 0.910694 0.998106
0.732960 0.913603 0.999165
0.813197 0.914743 0.995910
0.919083 0.922634 0.999960
1.000000 0.925583 0.999500
0.682343 0.988220 0.996063
0.698029 0.992157 1.000000
0.714470 0.991402 1.000000
0.743069 0.991203 0.999474
0.786270 0.991150 1.000000
0.838749 0.996635 0.998493
0.888992 0.996826 1.000000
0.943093 0.997009 0.996555
1.000000 0.996063 1.000000
