ml_luts/presetpro_agfa_ultra_100__lut3d_33.cube
TITLE "Presetpro - Agfa Ultra"
DOMAIN_MIN 0.000000 0.000000 0.000000
DOMAIN_MAX 1.000000 1.000000 1.000000
LUT_3D_SIZE 5
0.000000 0.000000 0.000000
0.156197 0.027237 0.001739
0.450912 0.075516 0.000000
0.747078 0.140968 0.000000
1.000000 0.270599 0.000000
0.002395 0.167626 0.002937
0.167873 0.195740 0.001162
0.475010 0.235565 0.002193
0.748245 0.280897 0.002268
0.997826 0.365669 0.004593
0.000946 0.491211 0.002975
0.002460 0.504002 0.002907
0.464264 0.542694 0.000503
0.779446 0.554947 0.002552
0.998047 0.568695 0.000000
0.000000 0.778969 0.009766
0.003731 0.781481 0.046879
0.319515 0.798008 0.001564
0.726747 0.815483 0.003014
1.000000 0.839233 0.000000
0.000000 0.996063 0.333344
0.002937 0.995849 0.354378
0.337310 1.000000 0.382294
0.646835 0.999237 0.218834
0.933319 1.000000 0.000000
0.000000 0.000763 0.197822
0.172004 0.000023 0.209228
0.484467 0.002014 0.207997
0.757372 0.116428 0.218912
0.997047 0.269836 0.228730
0.000023 0.176504 0.206035
0.179185 0.189384 0.217784
0.490539 0.218805 0.212816
0.760027 0.270748 0.204474
0.998362 0.360640 0.216770
0.001114 0.498146 0.232086
0.002202 0.505562 0.233496
0.477795 0.541250 0.185184
0.773320 0.540753 0.136251
0.997280 0.562878 0.152939
0.000732 0.778957 0.279669
0.002844 0.782613 0.296819
0.361156 0.795827 0.296664
0.728481 0.816193 0.155412
0.998812 0.831450 0.001842
0.001518 0.997826 0.431374
0.001135 0.996452 0.441813
0.384987 0.999020 0.484963
0.665012 0.999245 0.389799
0.934098 1.000000 0.002937
0.000946 0.000000 0.522506
0.008579 0.001797 0.526466
0.480263 0.001449 0.551460
0.796635 0.004082 0.518391
0.999054 0.305008 0.537384
0.001675 0.200413 0.528312
0.002830 0.177911 0.539979
0.494718 0.175842 0.557518
0.791249 0.255508 0.530410
0.993210 0.423985 0.557106
0.001045 0.489624 0.533195
0.007046 0.498411 0.542078
0.505089 0.529869 0.565926
0.756704 0.543261 0.542830
0.994660 0.582351 0.529480
0.001587 0.767021 0.555306
0.133499 0.772421 0.570725
0.453682 0.787985 0.586414
0.745377 0.812989 0.556665
0.999104 0.816681 0.493061
0.002914 0.998108 0.603927
0.035774 0.997669 0.610054
0.455376 0.998993 0.641182
0.699283 1.000000 0.635384
0.941239 0.999054 0.507843
0.002174 0.000221 0.796310
0.002174 0.000378 0.792580
0.381454 0.002216 0.805103
0.759054 0.003492 0.819287
0.999237 0.217865 0.800537
0.000378 0.174689 0.796875
0.001616 0.173974 0.799146
0.393266 0.175015 0.807175
0.765806 0.215893 0.823026
0.999834 0.362004 0.803300
0.001449 0.489113 0.783596
0.002730 0.495029 0.789925
0.420851 0.493263 0.802675
0.764527 0.533442 0.819898
1.000000 0.593781 0.801990
0.000946 0.757032 0.786018
0.001731 0.758857 0.791607
0.421697 0.769559 0.798405
0.768121 0.802400 0.822355
0.992582 0.802639 0.797113
0.003158 0.999237 0.786500
0.002039 0.997580 0.789019
0.488457 0.998478 0.813519
0.759039 0.999456 0.840416
0.964920 1.000000 0.811996
0.003937 0.117645 1.000000
0.000763 0.068847 0.997826
0.353958 0.000000 1.000000
0.726265 0.055885 0.999779
1.000000 0.270599 1.000000
0.000000 0.221779 1.000000
0.001898 0.223579 1.000000
0.369282 0.235459 0.999382
0.731418 0.282376 0.997940
1.000000 0.387466 0.997047
0.001968 0.533264 1.000000
0.001339 0.519257 0.999290
0.387222 0.505951 0.999527
0.730072 0.537365 0.998661
1.000000 0.594177 0.999054
0.000763 0.778663 1.000000
0.001682 0.779963 0.997042
0.416111 0.783554 0.999386
0.718887 0.777470 0.996969
0.991394 0.810356 0.994873
0.000000 1.000000 1.000000
0.002174 0.999016 0.999016
0.243881 0.997162 0.999054
0.711761 1.000000 0.998482
1.000000 1.000000 1.000000
