ml_luts/presetpro_fuji_astia__lut3d_33.cube
TITLE "Presetpro - Fuji Astia.jpg"
DOMAIN_MIN 0.000000 0.000000 0.000000
DOMAIN_MAX 1.000000 1.000000 1.000000
LUT_3D_SIZE 33
0.000000 0.000000 0.000000
0.007952 0.000118 0.003666
0.027206 0.003699 0.003670
0.046339 0.003937 0.000343
0.071659 0.001373 0.006863
0.089432 0.007316 0.001225
0.108938 0.011757 0.000000
0.137046 0.017376 0.004745
0.168389 0.013519 0.001518
0.202326 0.012965 0.000000
0.237873 0.008728 0.000860
0.276508 0.003928 0.003915
0.315666 0.002457 0.001991
0.357095 0.000979 0.000000
0.397533 0.000000 0.000000
0.434874 0.002092 0.001005
0.468567 0.002975 0.000946
0.503332 0.002086 0.000000
0.540942 0.001219 0.000000
0.577595 0.000979 0.001599
0.612366 0.002457 0.002461
0.642515 0.002092 0.000913
0.670709 0.000860 0.002178
0.700454 0.001107 0.000811
0.732582 0.004471 0.000000
0.762709 0.013349 0.000000
0.799034 0.046192 0.000618
0.829370 0.081571 0.002781
0.856823 0.116577 0.000000
0.884211 0.150172 0.000343
0.919352 0.181358 0.003679
0.957119 0.208333 0.003937
0.988220 0.239227 0.003937
0.003932 0.011530 0.000000
0.015321 0.015199 0.007246
0.027674 0.015430 0.000686
0.052555 0.018652 0.000022
0.069826 0.019241 0.000214
0.089151 0.022667 0.000138
0.118350 0.024311 0.003121
0.141856 0.026221 0.003385
0.172247 0.024221 0.000816
0.206920 0.021502 0.000000
0.242064 0.021548 0.001795
0.279547 0.013538 0.001006
0.320548 0.004478 0.000062
0.361537 0.000679 0.001738
0.401059 0.002062 0.004523
0.437889 0.001784 0.002797
0.475426 0.001009 0.000148
0.512067 0.001039 0.000063
0.545176 0.000957 0.000000
0.578111 0.001277 0.000795
0.612395 0.000077 0.002098
0.646163 0.001752 0.002405
0.674845 0.004242 0.003289
0.704048 0.003107 0.004343
0.733528 0.010044 0.002808
0.764329 0.036082 0.002356
0.796106 0.072188 0.000642
0.829788 0.102742 0.000205
0.861040 0.131167 0.000946
0.894785 0.162441 0.006441
0.929217 0.195754 0.003337
0.953532 0.215930 0.000245
0.984318 0.243130 0.000359
0.003945 0.023289 0.000229
0.008793 0.026962 0.004154
0.030686 0.030406 0.000275
0.056754 0.031276 0.000104
0.076504 0.028962 0.000014
0.093755 0.036842 0.002614
0.122895 0.038144 0.001176
0.151571 0.038281 0.000315
0.183501 0.034001 0.000050
0.214565 0.034570 0.000000
0.252572 0.030187 0.002652
0.291056 0.026306 0.001476
0.325019 0.020680 0.000086
0.362244 0.013425 0.000112
0.402821 0.007502 0.000420
0.442929 0.002824 0.000286
0.480267 0.000417 0.001781
0.516942 0.000063 0.001889
0.551094 0.000735 0.000000
0.581739 0.001091 0.000629
0.615575 0.000325 0.002001
0.648695 0.001451 0.002639
0.677243 0.004651 0.001762
0.707443 0.013370 0.000979
0.741154 0.035508 0.002763
0.773731 0.064459 0.003195
0.804079 0.092671 0.003039
0.827078 0.119227 0.000008
0.858358 0.146944 0.000090
0.892107 0.176609 0.001244
0.929428 0.201161 0.006431
0.953419 0.224118 0.000015
0.984306 0.254413 0.000244
0.004269 0.042384 0.007131
0.014675 0.042486 0.010478
0.034094 0.046271 0.003669
0.057301 0.049575 0.000311
0.077462 0.053062 0.000001
0.097817 0.052100 0.000261
0.131273 0.051900 0.000097
0.153175 0.058470 0.000270
0.189006 0.056008 0.000332
0.221006 0.057930 0.000093
0.263612 0.054689 0.003011
0.300397 0.049434 0.001738
0.338367 0.046535 0.003504
0.378639 0.042165 0.003423
0.417321 0.035188 0.002212
0.453292 0.028294 0.001263
0.489993 0.023309 0.000689
0.523405 0.019703 0.000556
0.554638 0.016481 0.001452
0.587951 0.016187 0.002163
0.618588 0.019188 0.000394
0.651824 0.025228 0.000962
0.684756 0.039136 0.001901
0.713350 0.054543 0.001739
0.743286 0.072566 0.002830
0.772627 0.097329 0.000563
0.802855 0.116820 0.000792
0.830439 0.139901 0.002269
0.862342 0.165457 0.000694
0.895499 0.192169 0.003011
0.926385 0.215733 0.001023
0.959611 0.239095 0.003213
0.990399 0.263067 0.006799
0.011272 0.064308 0.007389
0.018989 0.064715 0.011140
0.034548 0.065404 0.007352
0.053811 0.069663 0.009594
0.079928 0.070873 0.002400
0.107419 0.078248 0.003115
0.137102 0.079953 0.005679
0.165510 0.081294 0.001746
0.199199 0.081111 0.002402
0.235980 0.081366 0.002600
0.271831 0.082576 0.001140
0.309415 0.078839 0.000220
0.348313 0.075975 0.003670
0.385881 0.074489 0.002544
0.424414 0.070416 0.001986
0.460676 0.066980 0.001575
0.496935 0.064853 0.003889
0.534251 0.062527 0.006186
0.567575 0.061250 0.004680
0.597885 0.062691 0.003170
0.627432 0.067069 0.001434
0.657466 0.073714 0.002061
0.687492 0.084261 0.000383
0.715726 0.096183 0.000804
0.746344 0.109397 0.002618
0.776555 0.126598 0.005551
0.808866 0.143235 0.002141
0.837262 0.167758 0.001284
0.867948 0.188582 0.001627
0.899105 0.211754 0.006004
0.927059 0.237421 0.000910
0.958056 0.255299 0.001004
0.989479 0.281803 0.004806
0.010775 0.085425 0.012139
0.015723 0.088597 0.012536
0.025512 0.088349 0.013895
0.051844 0.089960 0.014223
0.076452 0.095884 0.004986
0.106895 0.101382 0.003894
0.144396 0.107352 0.001804
0.177447 0.110665 0.002523
0.210942 0.113349 0.002313
0.245818 0.112120 0.000911
0.282845 0.111581 0.000861
0.323192 0.108771 0.001765
0.361247 0.109275 0.001371
0.398778 0.109564 0.000691
0.435292 0.107107 0.000537
0.473406 0.105273 0.001153
0.508461 0.103911 0.004313
0.540525 0.102737 0.005245
0.573824 0.103977 0.002842
0.606010 0.107446 0.001340
0.636820 0.110723 0.000850
0.663503 0.115257 0.001398
0.690020 0.124242 0.000927
0.721959 0.134200 0.002958
0.753375 0.145595 0.002998
0.782761 0.161768 0.002833
0.811785 0.177451 0.001434
0.844539 0.193163 0.000630
0.872929 0.212999 0.000341
0.902824 0.235739 0.001541
0.929944 0.260425 0.000660
0.958269 0.279671 0.000187
0.986142 0.298576 0.003472
0.005167 0.112139 0.019726
0.010579 0.112225 0.014085
0.019120 0.115118 0.007487
0.039691 0.116377 0.007177
0.064187 0.125131 0.004363
0.096529 0.132481 0.001325
0.134596 0.139569 0.000194
0.179263 0.144930 0.000493
0.220101 0.146899 0.002652
0.253893 0.146971 0.000937
0.292746 0.148013 0.000161
0.330999 0.147085 0.000392
0.375038 0.144495 0.003386
0.416075 0.145097 0.004777
0.449287 0.144642 0.002444
0.482521 0.143357 0.001071
0.515111 0.143978 0.001265
0.546535 0.144364 0.002422
0.579161 0.145209 0.004227
0.613322 0.148267 0.003367
0.645290 0.151007 0.000908
0.671986 0.154457 0.000446
0.700575 0.162092 0.001107
0.727264 0.170304 0.001739
0.757427 0.182055 0.000936
0.783743 0.197297 0.001806
0.815230 0.212857 0.001244
0.843660 0.226630 0.000535
0.877393 0.244350 0.002445
0.904268 0.262353 0.000341
0.933660 0.284787 0.002674
0.965138 0.301208 0.005515
0.994715 0.319607 0.001238
0.000861 0.147254 0.019984
0.004492 0.144898 0.017899
0.009196 0.143947 0.011723
0.021491 0.149325 0.012984
0.049470 0.154294 0.007760
0.090351 0.159207 0.005118
0.122430 0.168935 0.000895
0.169683 0.176341 0.000540
0.221503 0.184238 0.000917
0.263132 0.186994 0.000416
0.303939 0.186119 0.001699
0.343146 0.185419 0.000820
0.382077 0.186798 0.000864
0.421492 0.188845 0.002031
0.457099 0.187886 0.001596
0.491121 0.186538 0.000559
0.524784 0.187116 0.000469
0.557077 0.186644 0.000771
0.590207 0.186897 0.002528
0.622875 0.189287 0.003878
0.652809 0.190875 0.002182
0.681912 0.195116 0.000902
0.708518 0.203362 0.000244
0.733037 0.211560 0.000297
0.763027 0.220316 0.000693
0.793047 0.231286 0.002885
0.824734 0.245554 0.002803
0.851889 0.259371 0.000916
0.883982 0.272430 0.002296
0.908333 0.294674 0.003192
0.938129 0.313999 0.000690
0.967055 0.330208 0.001480
0.999306 0.348648 0.000167
0.000000 0.178741 0.011543
0.000769 0.179503 0.012844
0.001680 0.180322 0.011777
0.006531 0.184447 0.009899
0.034584 0.189708 0.002930
0.074177 0.194436 0.003422
0.113789 0.202255 0.002459
0.158189 0.208334 0.000648
0.212118 0.217070 0.000667
0.261477 0.224584 0.000339
0.307883 0.230592 0.002602
0.348880 0.232450 0.001773
0.387254 0.232903 0.000283
0.426448 0.231856 0.000979
0.464391 0.230086 0.000845
0.502055 0.229810 0.000104
0.537674 0.230275 0.000820
0.571519 0.229097 0.000871
0.603364 0.228937 0.000484
0.633305 0.231555 0.000967
0.662029 0.233733 0.001061
0.687300 0.236819 0.001769
0.715583 0.242719 0.001759
0.742579 0.250702 0.000609
0.771605 0.260029 0.000191
0.798787 0.271513 0.000803
0.828052 0.281630 0.000810
0.857916 0.295593 0.000538
0.886116 0.307499 0.002108
0.910470 0.326423 0.001003
0.942353 0.340341 0.000000
0.972210 0.357345 0.000000
1.000000 0.376465 0.000000
0.000811 0.215196 0.006130
0.002767 0.215745 0.006687
0.004516 0.217969 0.008509
0.001771 0.218681 0.007420
0.010059 0.224965 0.002658
0.046837 0.228083 0.002684
0.099534 0.235329 0.001635
0.146892 0.243667 0.000795
0.196265 0.251907 0.000371
0.245508 0.261401 0.000104
0.298702 0.270531 0.001390
0.347985 0.277067 0.002603
0.392732 0.276986 0.001258
0.433551 0.275530 0.000382
0.470038 0.275413 0.001992
0.505002 0.273610 0.001922
0.541541 0.272445 0.001352
0.577009 0.272879 0.001005
0.610193 0.274620 0.000720
0.642458 0.277568 0.000977
0.671087 0.278759 0.000539
0.697592 0.281085 0.001224
0.725679 0.286477 0.000660
0.753762 0.291580 0.000228
0.781493 0.298914 0.000707
0.805026 0.311165 0.002211
0.835301 0.320534 0.000666
0.863610 0.333263 0.003546
0.889774 0.343825 0.003272
0.919127 0.357922 0.001623
0.946741 0.369220 0.001522
0.976721 0.386746 0.000000
1.000000 0.402243 0.000000
0.002178 0.253904 0.001583
0.003028 0.254921 0.004205
0.002077 0.255361 0.003950
0.002059 0.256268 0.007336
0.000842 0.261084 0.004236
0.019468 0.263386 0.001317
0.075384 0.270779 0.004039
0.132925 0.279613 0.002210
0.181536 0.287806 0.000893
0.231647 0.295663 0.000195
0.286437 0.305465 0.000860
0.339674 0.314147 0.003012
0.393360 0.319863 0.001547
0.436915 0.323227 0.000046
0.475345 0.322350 0.001262
0.511901 0.319456 0.002164
0.547593 0.316445 0.001605
0.581657 0.315734 0.000593
0.613680 0.318235 0.000313
0.646560 0.320681 0.000425
0.677057 0.322565 0.000165
0.706007 0.325350 0.000288
0.735264 0.330312 0.000328
0.763067 0.335491 0.000754
0.787734 0.341372 0.000612
0.816224 0.351712 0.001912
0.844599 0.359839 0.000549
0.872379 0.370962 0.002664
0.898750 0.378849 0.001576
0.925688 0.391792 0.003706
0.953710 0.404909 0.000873
0.979650 0.419238 0.000833
0.999140 0.431616 0.000000
0.000913 0.294286 0.000000
0.000913 0.294716 0.001311
0.000057 0.293793 0.000812
0.002479 0.294244 0.002554
0.001358 0.297162 0.002896
0.005364 0.300386 0.000456
0.050929 0.307202 0.003192
0.111740 0.314395 0.002242
0.163345 0.322574 0.001198
0.218090 0.329203 0.001478
0.272621 0.338453 0.000870
0.325673 0.348213 0.002787
0.384024 0.356705 0.003520
0.435473 0.364179 0.001318
0.478486 0.366426 0.000242
0.517344 0.364585 0.000845
0.551860 0.361179 0.001648
0.583852 0.359751 0.001107
0.617719 0.362360 0.000403
0.651829 0.364414 0.000921
0.681339 0.365325 0.000576
0.710787 0.368924 0.000626
0.742216 0.374810 0.002274
0.771395 0.380544 0.002817
0.797820 0.385471 0.002145
0.822960 0.392646 0.002807
0.849581 0.398249 0.000130
0.877006 0.405882 0.000584
0.906331 0.417178 0.000414
0.930446 0.428819 0.003007
0.959630 0.439566 0.000261
0.984035 0.450087 0.002874
0.999570 0.462608 0.001662
0.002461 0.332855 0.000954
0.002461 0.332811 0.000954
0.001566 0.333264 0.000954
0.002451 0.333069 0.000729
0.004154 0.332198 0.001113
0.001486 0.337150 0.002581
0.027583 0.342803 0.001692
0.087198 0.348958 0.000831
0.144816 0.357105 0.001637
0.203232 0.363716 0.001234
0.259353 0.372420 0.000866
0.312539 0.381875 0.003381
0.368219 0.391714 0.003524
0.421288 0.399849 0.002828
0.472044 0.407017 0.002842
0.516183 0.409574 0.002905
0.552374 0.407671 0.002163
0.586883 0.406082 0.000913
0.620688 0.406196 0.001490
0.652839 0.406867 0.002543
0.684090 0.407787 0.001629
0.715251 0.411436 0.001633
0.746834 0.417131 0.002999
0.776999 0.422897 0.003224
0.806578 0.428675 0.003361
0.831278 0.432857 0.002509
0.858073 0.439595 0.000461
0.885373 0.447244 0.002261
0.914624 0.457106 0.001153
0.938448 0.464749 0.000861
0.965855 0.473387 0.000183
0.989815 0.485307 0.002864
1.000000 0.493610 0.000950
0.001599 0.369843 0.000620
0.002916 0.368526 0.000620
0.001103 0.369982 0.000620
0.000979 0.371167 0.000474
0.002238 0.366611 0.001415
0.001203 0.372984 0.002627
0.009170 0.377436 0.000782
0.060673 0.383547 0.000478
0.129267 0.392069 0.001352
0.189114 0.398439 0.000458
0.244101 0.404660 0.000860
0.296784 0.413071 0.001813
0.351305 0.423267 0.001178
0.403814 0.431051 0.001349
0.457589 0.438728 0.001847
0.509323 0.447488 0.004497
0.552294 0.451433 0.004012
0.589297 0.450288 0.001671
0.622435 0.449535 0.001920
0.653275 0.449423 0.001311
0.684996 0.450544 0.001721
0.716346 0.454431 0.002699
0.747059 0.457772 0.002263
0.777414 0.462942 0.002380
0.807799 0.467910 0.002015
0.834981 0.473794 0.000765
0.864111 0.481558 0.000300
0.894189 0.488792 0.001775
0.922869 0.496217 0.002582
0.944740 0.503038 0.001556
0.971921 0.511014 0.001416
0.991117 0.520493 0.002280
0.999021 0.524623 0.002700
0.000000 0.407579 0.006626
0.001868 0.406543 0.006543
0.000249 0.405318 0.004673
0.001102 0.405633 0.005327
0.001021 0.403237 0.004529
0.001300 0.406562 0.004179
0.002330 0.410214 0.002226
0.039366 0.418190 0.001082
0.112139 0.424299 0.000552
0.175806 0.429335 0.000124
0.228373 0.435706 0.001214
0.278869 0.443954 0.000607
0.333262 0.451578 0.000622
0.386578 0.460331 0.000404
0.439438 0.467683 0.000000
0.493424 0.476782 0.003066
0.544583 0.487052 0.003778
0.587980 0.491367 0.002091
0.623618 0.491500 0.001777
0.655716 0.491761 0.000955
0.686473 0.493086 0.002176
0.717857 0.496688 0.002967
0.749219 0.499645 0.000809
0.776805 0.502337 0.001158
0.805773 0.507339 0.001167
0.835308 0.514873 0.000000
0.866272 0.520432 0.000322
0.897151 0.527494 0.001829
0.924167 0.534436 0.002278
0.949004 0.539324 0.001240
0.978575 0.547084 0.001994
0.993557 0.553507 0.001983
0.998283 0.558828 0.003208
0.001005 0.442778 0.016870
0.001816 0.440697 0.017916
0.001225 0.439333 0.016516
0.001018 0.439053 0.016701
0.001319 0.438715 0.016569
0.002137 0.439498 0.015821
0.002228 0.443055 0.010473
0.022934 0.448015 0.003555
0.093268 0.453533 0.000489
0.163244 0.458472 0.000000
0.217095 0.466085 0.002359
0.266742 0.473215 0.002552
0.319098 0.480570 0.001303
0.371260 0.489249 0.000857
0.423330 0.496569 0.000985
0.474882 0.504579 0.001947
0.527577 0.516037 0.002339
0.577685 0.525117 0.001869
0.620346 0.529101 0.002156
0.657056 0.532283 0.001912
0.688153 0.534533 0.001652
0.718708 0.536855 0.001983
0.750372 0.540434 0.000000
0.776987 0.541071 0.000233
0.806777 0.545594 0.000622
0.838680 0.551068 0.000000
0.870146 0.557792 0.001001
0.897175 0.564645 0.004677
0.923306 0.569999 0.001093
0.950909 0.573398 0.001083
0.983100 0.581104 0.001772
0.998037 0.587063 0.000867
0.998165 0.593459 0.002021
0.000946 0.474518 0.031372
0.001005 0.471680 0.032422
0.001007 0.470887 0.034473
0.000260 0.470896 0.034081
0.000463 0.470674 0.034468
0.001469 0.471131 0.034763
0.001226 0.474867 0.027131
0.011154 0.475958 0.013701
0.079330 0.483433 0.004463
0.148948 0.488994 0.002011
0.208849 0.495323 0.002397
0.261185 0.501185 0.002204
0.309826 0.509283 0.001806
0.358561 0.516827 0.001673
0.409661 0.522806 0.001365
0.460795 0.531176 0.002117
0.511360 0.541145 0.003006
0.560966 0.550772 0.002028
0.608191 0.560154 0.001272
0.651861 0.568754 0.001051
0.687282 0.573631 0.000355
0.717431 0.574941 0.000967
0.749545 0.578005 0.000869
0.778557 0.579544 0.000406
0.809135 0.582748 0.000000
0.839401 0.585611 0.000000
0.870262 0.592485 0.000690
0.896062 0.597398 0.003291
0.923939 0.603540 0.001196
0.952779 0.608959 0.001112
0.981625 0.614548 0.000942
0.999852 0.619483 0.000948
0.999054 0.623459 0.002914
0.000000 0.506243 0.051582
0.000000 0.503646 0.050778
0.000000 0.503337 0.052773
0.001084 0.502990 0.053469
0.000149 0.501681 0.052491
0.000700 0.500792 0.055922
0.000830 0.502955 0.051959
0.007851 0.505733 0.038978
0.072814 0.512113 0.024313
0.138104 0.518391 0.016469
0.200512 0.523352 0.007465
0.255615 0.529665 0.001408
0.302192 0.536437 0.002208
0.349633 0.543345 0.002414
0.398602 0.549222 0.000803
0.447260 0.556769 0.001214
0.497389 0.566318 0.002156
0.547645 0.576264 0.001923
0.593974 0.586964 0.000933
0.638610 0.598902 0.000413
0.682807 0.607988 0.001327
0.720076 0.610695 0.001579
0.751145 0.613214 0.001240
0.780755 0.615531 0.001447
0.811304 0.619741 0.000866
0.839026 0.621607 0.000650
0.868945 0.626304 0.001587
0.897074 0.630596 0.001859
0.925452 0.637455 0.001031
0.954978 0.643548 0.001097
0.983967 0.644660 0.000059
0.999937 0.650346 0.000976
1.000000 0.653344 0.002092
0.000000 0.536286 0.073261
0.000000 0.534628 0.072568
0.000676 0.535508 0.074887
0.001156 0.535130 0.072121
0.002136 0.532651 0.073994
0.001195 0.531521 0.076171
0.001809 0.531483 0.077566
0.006438 0.536020 0.068728
0.068568 0.540829 0.056908
0.135566 0.546353 0.045703
0.196179 0.550922 0.029241
0.250217 0.556564 0.014626
0.296553 0.562306 0.005714
0.344631 0.569461 0.002650
0.391368 0.577019 0.001036
0.435975 0.584614 0.000000
0.484971 0.593073 0.000000
0.536532 0.603081 0.000933
0.582505 0.612854 0.001120
0.625102 0.623276 0.000788
0.672219 0.634555 0.002043
0.716662 0.641469 0.001568
0.751102 0.646588 0.000902
0.782946 0.650093 0.001969
0.813979 0.654633 0.001332
0.842300 0.656952 0.001344
0.871419 0.660282 0.003541
0.899792 0.664743 0.004365
0.928223 0.669482 0.000545
0.958051 0.674051 0.002586
0.989130 0.674613 0.000839
0.999977 0.679675 0.001037
0.999279 0.684307 0.002149
0.000000 0.565814 0.095943
0.000601 0.565594 0.096216
0.001537 0.566738 0.100064
0.000891 0.564885 0.094434
0.003340 0.563428 0.094693
0.001185 0.564378 0.095186
0.003868 0.562939 0.098753
0.004777 0.566687 0.091880
0.067585 0.570606 0.087282
0.138089 0.573584 0.078450
0.197073 0.580147 0.062393
0.247732 0.584863 0.043840
0.294280 0.589100 0.025662
0.341767 0.596795 0.012934
0.387268 0.604574 0.004067
0.431508 0.612665 0.000122
0.477451 0.620952 0.000000
0.524220 0.630085 0.000000
0.569804 0.639272 0.000271
0.614425 0.648371 0.000766
0.658518 0.659041 0.000844
0.701437 0.667782 0.000563
0.744977 0.676861 0.001320
0.784373 0.683862 0.002702
0.815791 0.688485 0.001378
0.842944 0.691058 0.001746
0.871748 0.691438 0.003017
0.900174 0.695388 0.003152
0.929598 0.699740 0.000551
0.961891 0.701731 0.002237
0.988631 0.706617 0.002056
0.999902 0.708471 0.001408
0.998402 0.713852 0.002917
0.000526 0.598049 0.117333
0.001450 0.597144 0.117185
0.001480 0.598971 0.118456
0.001280 0.597435 0.118082
0.002284 0.594984 0.113875
0.002752 0.596589 0.115402
0.004804 0.594811 0.119307
0.009171 0.595195 0.114708
0.076838 0.598595 0.112607
0.144303 0.601929 0.105634
0.199661 0.609892 0.092578
0.248181 0.614165 0.077254
0.295499 0.618422 0.064038
0.341175 0.626467 0.045507
0.385315 0.632702 0.022106
0.429494 0.640040 0.007628
0.473146 0.649711 0.002186
0.516501 0.657734 0.000000
0.559867 0.665504 0.000417
0.604470 0.675254 0.000566
0.647990 0.684117 0.000555
0.688588 0.692240 0.000987
0.734123 0.703327 0.001106
0.778396 0.712128 0.003309
0.813926 0.720336 0.002614
0.842722 0.722144 0.001507
0.872814 0.722562 0.001448
0.901834 0.726898 0.001004
0.930911 0.731039 0.000094
0.962444 0.730544 0.000973
0.988805 0.735815 0.002948
0.999867 0.737812 0.001009
0.998096 0.742184 0.000000
0.001834 0.629804 0.136642
0.002261 0.628960 0.137059
0.001409 0.629939 0.137690
0.001353 0.630540 0.139278
0.003614 0.627686 0.139381
0.005408 0.627980 0.135869
0.002571 0.627837 0.137553
0.018419 0.625251 0.136177
0.091168 0.629078 0.131862
0.152844 0.634154 0.125684
0.206056 0.638808 0.118481
0.252969 0.641435 0.109710
0.298091 0.648611 0.100113
0.341300 0.656615 0.086090
0.383850 0.661938 0.061388
0.427947 0.668047 0.038300
0.470745 0.676276 0.019335
0.512920 0.684292 0.005023
0.555104 0.691763 0.000725
0.596706 0.699740 0.000626
0.638267 0.707115 0.001242
0.678844 0.716441 0.001517
0.721745 0.728442 0.001048
0.764246 0.736467 0.001666
0.805465 0.746673 0.002229
0.844555 0.750267 0.000156
0.877021 0.754593 0.000816
0.906248 0.758990 0.002781
0.934450 0.761155 0.000676
0.961760 0.761615 0.002433
0.990548 0.762770 0.002743
0.999920 0.764028 0.002678
0.997425 0.767521 0.000913
0.001825 0.662769 0.159233
0.002679 0.660241 0.159152
0.000975 0.661871 0.157928
0.002966 0.660443 0.158901
0.002766 0.660935 0.163172
0.004972 0.662174 0.158308
0.006488 0.661422 0.154591
0.038073 0.661068 0.157217
0.106859 0.660906 0.152950
0.164991 0.665307 0.148090
0.215465 0.669497 0.142883
0.258844 0.674047 0.136350
0.302880 0.680103 0.127345
0.346560 0.685693 0.117132
0.387490 0.690868 0.102303
0.428791 0.696010 0.085740
0.469268 0.703136 0.062806
0.510515 0.712478 0.035250
0.551199 0.719676 0.014947
0.589648 0.726678 0.004611
0.630369 0.736333 0.001943
0.671091 0.744909 0.002055
0.711363 0.753276 0.002365
0.751084 0.759727 0.001681
0.793363 0.768083 0.001233
0.836615 0.776534 0.000311
0.874328 0.783883 0.000889
0.908609 0.788197 0.002215
0.936494 0.789629 0.001122
0.959382 0.792100 0.002681
0.991713 0.790426 0.000168
0.999091 0.790190 0.002666
0.997822 0.793497 0.001825
0.000566 0.694607 0.185168
0.000566 0.694229 0.182233
0.000301 0.694249 0.177796
0.001534 0.694766 0.176710
0.001049 0.694762 0.184669
0.001345 0.696483 0.179195
0.020782 0.694130 0.176820
0.072352 0.693707 0.180183
0.129298 0.693787 0.178909
0.180381 0.696391 0.174045
0.226752 0.700680 0.167528
0.267002 0.705188 0.158966
0.311074 0.710448 0.153754
0.354275 0.715214 0.148400
0.394065 0.719655 0.136157
0.433007 0.725971 0.123629
0.471512 0.731982 0.112886
0.512451 0.738364 0.093713
0.551550 0.744864 0.060872
0.586917 0.751847 0.030242
0.626154 0.762302 0.014643
0.666660 0.770617 0.005145
0.705128 0.776839 0.002125
0.742950 0.783460 0.002511
0.781828 0.790341 0.002523
0.821284 0.800158 0.000610
0.865492 0.809377 0.000239
0.905868 0.815002 0.001165
0.937837 0.815999 0.000496
0.959675 0.818987 0.000000
0.989670 0.817143 0.000140
0.998041 0.818404 0.002226
0.999189 0.817822 0.001639
0.001510 0.726478 0.207183
0.001510 0.731364 0.203496
0.000802 0.731664 0.201402
0.001723 0.732587 0.198741
0.006897 0.727788 0.203666
0.018198 0.729181 0.199424
0.061646 0.726909 0.202388
0.110380 0.726712 0.201759
0.151615 0.726784 0.199970
0.197453 0.728945 0.198639
0.239875 0.731717 0.194167
0.278099 0.734998 0.187560
0.319175 0.742496 0.181815
0.359592 0.746986 0.176285
0.398187 0.749832 0.168075
0.437776 0.755932 0.159650
0.475163 0.761799 0.149437
0.512886 0.767372 0.135923
0.551426 0.774041 0.116673
0.586220 0.781173 0.093685
0.623839 0.788131 0.067191
0.664572 0.793570 0.033583
0.700908 0.801009 0.012312
0.738005 0.807769 0.003882
0.774430 0.814240 0.002758
0.810320 0.822320 0.001669
0.854046 0.831721 0.000563
0.897766 0.839242 0.002071
0.936732 0.841833 0.001322
0.963743 0.843510 0.000000
0.991431 0.843339 0.000041
0.999963 0.843576 0.000827
0.998802 0.843361 0.005890
0.000000 0.761851 0.226927
0.002089 0.764452 0.223185
0.006831 0.763782 0.223084
0.014375 0.764923 0.224978
0.034513 0.762347 0.227508
0.072273 0.762172 0.224329
0.115620 0.763100 0.224150
0.151812 0.762316 0.222001
0.182304 0.762122 0.227455
0.218599 0.764274 0.226539
0.254502 0.764694 0.222183
0.291833 0.767612 0.215440
0.330098 0.773782 0.208528
0.367702 0.777587 0.203973
0.405041 0.780644 0.198519
0.441384 0.784902 0.190779
0.477121 0.790684 0.182021
0.515105 0.797034 0.171272
0.552018 0.802657 0.158330
0.586176 0.808634 0.144585
0.623077 0.814693 0.126566
0.660800 0.820740 0.099735
0.696726 0.827051 0.064510
0.733069 0.832721 0.029588
0.769430 0.840922 0.014726
0.804478 0.845929 0.004089
0.843934 0.851105 0.000484
0.882497 0.858233 0.000216
0.926426 0.865400 0.001230
0.962886 0.868766 0.000151
0.991777 0.869964 0.000019
0.999847 0.867931 0.000446
0.995923 0.869245 0.004745
0.017080 0.798912 0.247444
0.026541 0.799533 0.250820
0.047655 0.796605 0.250277
0.074310 0.797171 0.254573
0.104691 0.795490 0.253056
0.130461 0.797280 0.251394
0.160176 0.797265 0.254518
0.184436 0.795065 0.251418
0.208378 0.795737 0.252107
0.238863 0.795784 0.249653
0.272380 0.796390 0.251206
0.308949 0.800403 0.248026
0.341852 0.806766 0.240403
0.377554 0.810593 0.234996
0.413663 0.813037 0.229459
0.448988 0.815241 0.225197
0.483861 0.820169 0.218875
0.520926 0.826427 0.209759
0.555977 0.831192 0.200933
0.587101 0.836338 0.188066
0.623306 0.842571 0.172533
0.659835 0.849308 0.157547
0.695391 0.852986 0.137252
0.731192 0.856718 0.112377
0.766431 0.863779 0.082033
0.796988 0.869767 0.035864
