ml_luts/presetpro_portra_800__lut3d_33.cube
TITLE "Presetpro - Portra 800.jpg"
DOMAIN_MIN 0.000000 0.000000 0.000000
DOMAIN_MAX 1.000000 1.000000 1.000000
LUT_3D_SIZE 33
0.000000 0.000000 0.000000
0.015196 0.000000 0.000000
0.034540 0.003691 0.000000
0.057010 0.003577 0.000000
0.080353 0.004314 0.006409
0.103973 0.004528 0.001144
0.127203 0.014217 0.001240
0.162606 0.014470 0.003410
0.189965 0.015244 0.003158
0.222739 0.012045 0.000815
0.265917 0.007851 0.001825
0.311364 0.002266 0.003496
0.353378 0.000954 0.003364
0.400226 0.000620 0.002586
0.446302 0.002215 0.001001
0.494081 0.001845 0.001005
0.541183 0.001007 0.000946
0.588286 0.001070 0.000000
0.636772 0.000721 0.000000
0.679542 0.001958 0.000000
0.723595 0.002033 0.000000
0.770702 0.002275 0.000000
0.811887 0.002707 0.000353
0.848664 0.001107 0.001627
0.887253 0.002953 0.003372
0.922926 0.000000 0.003743
0.952591 0.000000 0.000000
0.991826 0.001068 0.000534
0.993546 0.006424 0.003433
0.999325 0.003231 0.003231
0.996330 0.000236 0.000236
0.996334 0.001344 0.000486
1.000000 0.039215 0.011780
0.003666 0.011648 0.000118
0.011645 0.015314 0.000004
0.030756 0.019123 0.000111
0.053654 0.019465 0.000332
0.076291 0.019913 0.000245
0.100528 0.025891 0.000036
0.130258 0.027768 0.000135
0.163134 0.030382 0.004729
0.191280 0.033322 0.002213
0.228663 0.028500 0.002200
0.268336 0.026070 0.001650
0.311967 0.019050 0.000485
0.354236 0.007498 0.001029
0.402769 0.001112 0.005052
0.447919 0.002215 0.003252
0.494003 0.001845 0.000094
0.542085 0.000031 0.000089
0.590070 0.000948 0.000000
0.635316 0.002090 0.000000
0.676300 0.002867 0.001850
0.723022 0.002355 0.002846
0.768986 0.000112 0.001260
0.810579 0.000203 0.002910
0.850575 0.000909 0.001712
0.889293 0.002228 0.002914
0.922360 0.000092 0.002311
0.958105 0.000687 0.001286
0.988398 0.003126 0.005804
0.995984 0.000201 0.000107
0.996165 0.000101 0.000744
0.995850 0.000743 0.006452
0.992754 0.013949 0.000248
1.000000 0.081491 0.000486
0.000236 0.027187 0.000494
0.004850 0.030999 0.003702
0.023531 0.034786 0.006924
0.049663 0.038693 0.003904
0.067606 0.042228 0.001072
0.099258 0.045957 0.002719
0.129862 0.046967 0.000981
0.160586 0.051959 0.002640
0.193125 0.048754 0.000852
0.231794 0.049343 0.000140
0.269193 0.047151 0.000752
0.311253 0.041999 0.003296
0.356835 0.030315 0.001887
0.404067 0.013823 0.001824
0.449441 0.004264 0.001375
0.496545 0.001175 0.000111
0.541228 0.000830 0.000891
0.587580 0.000941 0.000942
0.635176 0.000809 0.000826
0.678887 0.001098 0.001240
0.725031 0.000641 0.001965
0.768106 0.001358 0.003198
0.809579 0.001403 0.000259
0.846481 0.001268 0.000972
0.884846 0.001561 0.002048
0.924029 0.002241 0.000298
0.961428 0.000087 0.001244
0.985076 0.000428 0.002981
0.996063 0.000243 0.000000
0.996342 0.000721 0.000342
0.999055 0.007441 0.003849
0.999203 0.055248 0.006674
0.996309 0.112495 0.000236
0.000332 0.049521 0.010364
0.007765 0.053121 0.008034
0.023274 0.054099 0.004925
0.048878 0.057755 0.007506
0.071900 0.067370 0.001037
0.097076 0.069563 0.000272
0.121615 0.069852 0.000367
0.156330 0.070701 0.000566
0.191654 0.072781 0.000154
0.229573 0.073904 0.000000
0.268822 0.072774 0.000293
0.310171 0.069658 0.001040
0.359219 0.062047 0.000525
0.407700 0.049512 0.000823
0.452818 0.033806 0.001904
0.497660 0.015537 0.001087
0.542275 0.003291 0.000434
0.589364 0.000264 0.000462
0.635219 0.001471 0.000083
0.679930 0.001997 0.000112
0.728675 0.000174 0.000915
0.772082 0.000467 0.001990
0.811026 0.001482 0.000890
0.849597 0.003043 0.001064
0.884593 0.001989 0.002157
0.923339 0.003084 0.000016
0.960815 0.000403 0.000738
0.984148 0.001090 0.003113
0.996378 0.003122 0.000290
0.996394 0.007650 0.000590
0.999406 0.054536 0.005944
0.996644 0.103876 0.000687
0.999631 0.140385 0.000714
0.006027 0.069565 0.018139
0.014057 0.070426 0.011565
0.023043 0.070525 0.013670
0.042348 0.074291 0.014471
0.060747 0.086964 0.002986
0.096511 0.092066 0.003002
0.130293 0.095844 0.000658
0.160443 0.099562 0.000046
0.194814 0.100459 0.000011
0.232778 0.098442 0.000000
0.273500 0.099027 0.000784
0.316395 0.098776 0.003226
0.360436 0.094253 0.001619
0.407370 0.086679 0.000362
0.451720 0.075203 0.000445
0.496285 0.062486 0.000148
0.545754 0.045543 0.000875
0.592536 0.025513 0.000930
0.634506 0.009875 0.000678
0.680862 0.001763 0.003350
0.729018 0.000301 0.005412
0.771224 0.000578 0.004277
0.812867 0.002009 0.003787
0.852498 0.003118 0.003580
0.889972 0.002838 0.002855
0.923209 0.001241 0.000000
0.955568 0.004588 0.001102
0.986519 0.010556 0.004967
0.999511 0.032581 0.000537
0.998999 0.074427 0.003745
0.997317 0.110607 0.001398
0.999345 0.146002 0.000003
0.997009 0.171959 0.000095
0.003849 0.092274 0.023893
0.008827 0.095042 0.019068
0.014002 0.095832 0.017019
0.031554 0.098991 0.017118
0.056736 0.104913 0.011589
0.082491 0.113771 0.009659
0.119304 0.121724 0.004366
0.158672 0.128669 0.000698
0.190256 0.128856 0.000000
0.231226 0.125744 0.000000
0.271242 0.128125 0.000134
0.316000 0.127347 0.001674
0.360445 0.126593 0.004249
0.406171 0.120246 0.003222
0.452427 0.112668 0.002343
0.499533 0.105594 0.001304
0.546131 0.095356 0.002336
0.592700 0.082795 0.002483
0.638811 0.070915 0.001946
0.684952 0.060473 0.003598
0.730219 0.050033 0.002352
0.769411 0.042441 0.002133
0.810041 0.038198 0.001847
0.847024 0.035348 0.001985
0.886871 0.039948 0.001388
0.923228 0.052414 0.001121
0.953908 0.066631 0.002776
0.984909 0.085193 0.000817
0.999571 0.107383 0.000089
0.999603 0.136661 0.000655
0.999334 0.164279 0.000112
0.999691 0.185428 0.000000
0.993904 0.211621 0.000000
0.000618 0.116043 0.025598
0.006512 0.121638 0.028568
0.008614 0.117139 0.025924
0.026103 0.120555 0.025311
0.046934 0.124264 0.015365
0.075884 0.133429 0.014678
0.110716 0.139936 0.008028
0.155161 0.151730 0.003913
0.191164 0.161365 0.002566
0.228618 0.160933 0.000662
0.270902 0.160733 0.000000
0.315185 0.158047 0.000248
0.360098 0.157777 0.002494
0.408041 0.154337 0.002180
0.453449 0.148876 0.002278
0.498644 0.145605 0.001986
0.546112 0.141965 0.000945
0.592926 0.134843 0.000517
0.637453 0.126821 0.001490
0.682363 0.121183 0.002139
0.728651 0.115874 0.000963
0.771721 0.110533 0.002901
0.813143 0.107863 0.003450
0.851565 0.109426 0.000964
0.889136 0.114255 0.000206
0.921090 0.121332 0.000385
0.954870 0.133627 0.001080
0.984024 0.152407 0.000337
0.999537 0.164157 0.002247
0.999634 0.182611 0.002607
0.996802 0.204989 0.000077
0.997518 0.224717 0.001282
0.998144 0.247286 0.002579
0.002384 0.142506 0.034585
0.003749 0.143851 0.035422
0.004081 0.142593 0.029289
0.015603 0.143985 0.030285
0.038127 0.149677 0.029465
0.069835 0.154855 0.024599
0.102642 0.163452 0.018550
0.135076 0.173226 0.008716
0.180246 0.183264 0.002050
0.227122 0.191476 0.000675
0.274784 0.194511 0.001642
0.318210 0.193105 0.000713
0.362363 0.195118 0.003086
0.408073 0.193225 0.003183
0.453434 0.187418 0.002035
0.500656 0.185202 0.003043
0.548079 0.182022 0.003485
0.593642 0.176700 0.002103
0.637536 0.172704 0.001982
0.682210 0.169149 0.001925
0.727137 0.168301 0.000587
0.768221 0.169228 0.001654
0.810236 0.169738 0.002756
0.851342 0.173090 0.003451
0.888912 0.176534 0.000173
0.920835 0.181414 0.001098
0.954905 0.191001 0.002426
0.985352 0.205703 0.001680
0.999212 0.215230 0.000814
0.999854 0.232678 0.002214
0.998206 0.249221 0.000021
0.994752 0.265041 0.000345
0.999833 0.277911 0.000694
0.000763 0.171783 0.037254
0.000852 0.171140 0.037284
0.001305 0.171570 0.035954
0.003278 0.169976 0.035838
0.024427 0.173606 0.032745
0.051225 0.180006 0.029174
0.087756 0.186342 0.023661
0.122909 0.192841 0.015030
0.166130 0.203413 0.003233
0.215001 0.217011 0.000768
0.268671 0.229239 0.004047
0.315746 0.232688 0.001857
0.361834 0.232057 0.003338
0.408038 0.230546 0.002958
0.453212 0.227885 0.002491
0.499000 0.224697 0.002212
0.543045 0.222874 0.001831
0.588341 0.222235 0.002184
0.636784 0.220705 0.001931
0.683208 0.218675 0.001837
0.726148 0.217734 0.002183
0.766834 0.217888 0.002567
0.807729 0.219378 0.001517
0.848273 0.222593 0.001656
0.887226 0.226778 0.000793
0.921801 0.232720 0.003122
0.954258 0.239896 0.002500
0.986764 0.252879 0.001074
0.999685 0.262499 0.003540
0.998967 0.275004 0.002724
0.996409 0.290297 0.000130
0.998441 0.304146 0.002086
1.000000 0.319054 0.002174
0.000000 0.201132 0.043947
0.000033 0.200891 0.043980
0.000203 0.200291 0.043390
0.000756 0.199567 0.045700
0.006188 0.200664 0.041037
0.037858 0.206873 0.040152
0.071788 0.213794 0.033891
0.110518 0.219861 0.023882
0.151011 0.229755 0.007558
0.198736 0.240010 0.003083
0.251100 0.253157 0.002205
0.308500 0.266226 0.001273
0.361167 0.270175 0.002395
0.409305 0.269522 0.002456
0.454686 0.267678 0.005711
0.500665 0.265148 0.004487
0.544035 0.263182 0.000689
0.589492 0.262413 0.000566
0.637812 0.263091 0.001759
0.681141 0.263432 0.002185
0.723950 0.263957 0.002061
0.766498 0.265084 0.003665
0.807825 0.265446 0.001457
0.847267 0.270678 0.000586
0.884123 0.274552 0.001779
0.917859 0.281882 0.002997
0.953831 0.289717 0.001554
0.983211 0.297600 0.001034
0.999331 0.305993 0.006125
0.999468 0.318283 0.002522
0.997189 0.328774 0.001165
0.999033 0.341517 0.000867
0.998004 0.356353 0.000815
0.001825 0.230743 0.052288
0.000809 0.233345 0.053121
0.000049 0.232449 0.053801
0.000320 0.232231 0.053220
0.004977 0.229145 0.051604
0.018939 0.234704 0.049639
0.055118 0.242355 0.046730
0.097353 0.248667 0.037697
0.138104 0.258765 0.020029
0.183720 0.266244 0.011718
0.232175 0.276834 0.003861
0.287675 0.290531 0.001272
0.349357 0.303343 0.002602
0.404720 0.308799 0.001754
0.451945 0.308578 0.003185
0.498962 0.306660 0.003785
0.543808 0.303635 0.001309
0.589349 0.302659 0.000000
0.635580 0.303673 0.001833
0.677833 0.303849 0.003553
0.720273 0.305729 0.002854
0.762139 0.308658 0.002368
0.804042 0.310943 0.000485
0.843386 0.316160 0.000474
0.881857 0.320788 0.002180
0.915999 0.327392 0.003249
0.950382 0.332989 0.001444
0.976363 0.341590 0.000725
0.996488 0.351035 0.004184
0.997934 0.360911 0.000959
0.998168 0.371404 0.000485
0.997074 0.381404 0.000064
0.999132 0.393856 0.000860
0.000913 0.260524 0.057645
0.002015 0.264153 0.060389
0.000128 0.260979 0.061120
0.000454 0.259867 0.060987
0.004719 0.258028 0.062424
0.005118 0.263797 0.057046
0.036636 0.266633 0.052656
0.081741 0.272777 0.047063
0.125205 0.287070 0.031120
0.168864 0.291777 0.018706
0.215742 0.301689 0.007104
0.267558 0.314251 0.001435
0.328200 0.325688 0.002598
0.391853 0.339829 0.001561
0.445795 0.347979 0.001032
0.494913 0.348203 0.001462
0.541876 0.345066 0.001027
0.588323 0.344692 0.000489
0.633556 0.346422 0.001514
0.675694 0.346585 0.004647
0.718822 0.348321 0.005282
0.759580 0.350103 0.002584
0.800557 0.352951 0.001153
0.839397 0.357539 0.001354
0.877324 0.364645 0.001594
0.911805 0.370202 0.003998
0.947253 0.375148 0.001450
0.974935 0.384195 0.001105
0.997048 0.392841 0.001880
0.997570 0.401010 0.000332
0.997816 0.411174 0.000058
0.995568 0.421403 0.000958
0.999079 0.428221 0.002092
0.001507 0.291726 0.068733
0.002427 0.293056 0.070064
0.000154 0.292816 0.070192
0.000899 0.291259 0.070367
0.001416 0.290736 0.072735
0.001431 0.292120 0.067898
0.020807 0.295224 0.062716
0.068439 0.298273 0.059815
0.111898 0.312258 0.048636
0.155773 0.317996 0.035269
0.205223 0.326637 0.019763
0.256125 0.337974 0.006636
0.310766 0.348568 0.001874
0.371509 0.362907 0.000645
0.432259 0.376493 0.001928
0.489782 0.384951 0.001579
0.541145 0.385901 0.000263
0.587480 0.385172 0.000727
0.631429 0.387574 0.001032
0.673886 0.389324 0.002461
0.717254 0.390925 0.004013
0.758532 0.393044 0.002389
0.797197 0.395916 0.000659
0.835728 0.400412 0.000860
0.872398 0.406384 0.001796
0.906587 0.409717 0.004252
0.943862 0.416978 0.000809
0.974787 0.424208 0.002093
0.997368 0.434014 0.002159
0.999042 0.441930 0.000332
0.997662 0.448578 0.000330
0.998019 0.458273 0.005141
0.996460 0.467697 0.000950
0.004658 0.320706 0.081500
0.005606 0.322952 0.079815
0.001270 0.323043 0.081391
0.001394 0.322347 0.080122
0.001036 0.320379 0.078937
0.002648 0.318942 0.079103
0.010841 0.321876 0.073786
0.056470 0.325274 0.071722
0.103912 0.335575 0.066895
0.148758 0.343765 0.054655
0.194923 0.352628 0.037851
0.242655 0.361045 0.017640
0.294986 0.373296 0.005085
0.349013 0.385914 0.000883
0.406638 0.395771 0.001866
0.472238 0.411440 0.002894
0.535587 0.423810 0.002519
0.586131 0.426224 0.002246
0.628377 0.427624 0.001541
0.670248 0.429783 0.000979
0.712932 0.431927 0.001269
0.754549 0.434567 0.001150
0.794395 0.438351 0.000209
0.831256 0.442849 0.001147
0.867795 0.446982 0.002816
0.904899 0.450963 0.003681
0.940224 0.457212 0.001845
0.969374 0.464122 0.001339
0.992744 0.473535 0.001092
0.999908 0.481917 0.000262
0.999079 0.486726 0.001467
0.999818 0.495935 0.003033
0.995703 0.503034 0.001359
0.002710 0.353399 0.089466
0.004590 0.352926 0.089189
0.002109 0.352248 0.090381
0.001924 0.351815 0.091359
0.001487 0.348951 0.087793
0.002704 0.347900 0.090146
0.005982 0.348594 0.085924
0.047979 0.350883 0.083236
0.096813 0.359996 0.080684
0.141664 0.367447 0.069897
0.186388 0.377611 0.054455
0.230434 0.386927 0.035746
0.281233 0.397753 0.017818
0.332444 0.407952 0.004713
0.385090 0.416527 0.000683
0.448218 0.431378 0.001495
0.516264 0.449964 0.001933
0.575498 0.462327 0.001523
0.622706 0.467535 0.000879
0.666229 0.469887 0.002046
0.709485 0.472399 0.002634
0.751205 0.476134 0.000254
0.792848 0.480413 0.000154
0.828128 0.484267 0.001041
0.864879 0.487764 0.002493
0.900477 0.491612 0.002394
0.934872 0.497379 0.001224
0.963472 0.505175 0.000237
0.988260 0.511715 0.000399
0.999004 0.518844 0.002987
0.999004 0.524212 0.001015
0.998944 0.531517 0.001243
0.997059 0.539423 0.001997
0.001005 0.384781 0.101369
0.001989 0.383007 0.102172
0.002021 0.381947 0.101180
0.002008 0.381188 0.103601
0.001417 0.380879 0.100878
0.001065 0.380071 0.102208
0.004577 0.379058 0.101448
0.041250 0.378992 0.097660
0.090809 0.383797 0.096009
0.136825 0.390501 0.087530
0.179740 0.401146 0.072159
0.220973 0.411356 0.057261
0.269916 0.420421 0.042218
0.321126 0.430724 0.020088
0.372062 0.441404 0.004056
0.428710 0.452996 0.000061
0.490611 0.468981 0.000064
0.553165 0.487223 0.000068
0.611146 0.501923 0.000440
0.662019 0.509715 0.002380
0.706255 0.513019 0.002743
0.747106 0.517084 0.000602
0.789256 0.520238 0.001705
0.825708 0.523105 0.001537
0.861343 0.526638 0.001277
0.893854 0.531051 0.000794
0.929222 0.535711 0.000201
0.960421 0.541598 0.000903
0.987262 0.546935 0.000333
0.997349 0.554958 0.002411
0.999170 0.560544 0.000194
0.999133 0.566488 0.003036
0.997979 0.575873 0.000830
0.000946 0.412766 0.114746
0.001064 0.412706 0.114746
0.000954 0.410931 0.115561
0.001803 0.411324 0.116888
0.000851 0.411497 0.113027
0.001706 0.410716 0.114118
0.003541 0.408411 0.115975
0.035238 0.407914 0.112816
0.085754 0.407524 0.109977
0.134041 0.414041 0.103898
0.175060 0.424677 0.091774
0.216401 0.434478 0.080385
0.262009 0.443430 0.069445
0.310136 0.454380 0.049821
0.360062 0.465484 0.025363
0.413238 0.475579 0.007917
0.468697 0.488808 0.001556
0.528361 0.506085 0.000946
0.590649 0.524293 0.001060
0.649871 0.541441 0.001125
0.701321 0.551283 0.000629
0.742935 0.553466 0.000567
0.783218 0.557919 0.001781
0.821357 0.560602 0.001633
0.856621 0.565189 0.000378
0.888176 0.570292 0.000220
0.923850 0.573458 0.001007
0.953269 0.578061 0.000850
0.982626 0.584320 0.000126
0.997155 0.592349 0.000913
0.998927 0.597036 0.000241
0.999939 0.603060 0.003740
0.998047 0.609741 0.000000
0.000830 0.441637 0.126979
0.000152 0.442558 0.125551
0.000008 0.440754 0.126438
0.000911 0.441543 0.126867
0.000126 0.441427 0.123841
0.002396 0.439789 0.126502
0.002658 0.435466 0.127554
0.034694 0.435599 0.125329
0.084701 0.433654 0.122841
0.131470 0.438689 0.117601
0.172424 0.448223 0.111172
0.214697 0.457505 0.101599
0.256437 0.466950 0.091589
0.301956 0.477724 0.077850
0.350585 0.489109 0.057113
0.400569 0.498164 0.031050
0.451281 0.510537 0.009278
0.507089 0.526892 0.001005
0.566819 0.542829 0.000686
0.626277 0.561445 0.000210
0.687027 0.578576 0.000136
0.739158 0.587877 0.000113
0.778948 0.593728 0.000818
0.816614 0.597876 0.002014
0.852028 0.604252 0.000354
0.883660 0.607587 0.000234
0.916970 0.611334 0.001113
0.945027 0.616651 0.001190
0.974227 0.621782 0.000751
0.995166 0.629241 0.001744
0.997417 0.633812 0.000354
0.998179 0.638798 0.001947
0.998930 0.642665 0.000000
0.002985 0.470606 0.140468
0.002447 0.470131 0.137799
0.000152 0.469899 0.135894
0.000750 0.471289 0.137176
0.000980 0.470704 0.136457
0.002213 0.468101 0.140185
0.002640 0.464471 0.138455
0.037432 0.464711 0.135847
0.090315 0.461769 0.135047
0.132188 0.464384 0.131336
0.172299 0.471807 0.126881
0.212694 0.479579 0.118744
0.253057 0.489023 0.112001
0.298379 0.501946 0.100395
0.344013 0.513466 0.084996
0.390305 0.521963 0.062948
0.439272 0.533720 0.032208
0.492623 0.549900 0.010094
0.548681 0.565372 0.002929
0.603373 0.578764 0.000891
0.663370 0.595448 0.001204
0.725215 0.614941 0.001546
0.773266 0.626396 0.002124
0.812347 0.633163 0.001899
0.846498 0.638723 0.000618
0.880052 0.641818 0.001040
0.912371 0.646561 0.002147
0.941215 0.651758 0.002652
0.968873 0.655666 0.001605
0.990466 0.663417 0.000930
0.997126 0.669245 0.000336
0.996197 0.671655 0.000970
0.998278 0.674547 0.000000
0.003320 0.499525 0.149997
0.003298 0.496678 0.148098
0.000206 0.498761 0.147119
0.001018 0.502114 0.150266
0.002403 0.497757 0.150326
0.003269 0.495433 0.151172
0.003227 0.495743 0.148188
0.042835 0.494148 0.147825
0.096499 0.490693 0.144318
0.135680 0.491370 0.141873
0.175479 0.497442 0.138287
0.214575 0.505446 0.135571
0.253523 0.514288 0.130733
0.295756 0.526194 0.120599
0.339359 0.536458 0.107753
0.383586 0.546588 0.091677
0.432516 0.558676 0.067581
0.484512 0.572501 0.039731
0.536708 0.587021 0.015752
0.589939 0.600167 0.002598
0.644452 0.614377 0.001818
0.701397 0.631783 0.002623
0.757083 0.651098 0.001856
0.805799 0.665942 0.000059
0.842548 0.671683 0.000486
0.874965 0.674856 0.001683
0.909008 0.681219 0.002952
0.936828 0.686764 0.002488
0.963453 0.690568 0.001251
0.987844 0.694852 0.000562
0.997403 0.700322 0.000207
0.997198 0.703168 0.003214
0.997662 0.707369 0.000000
0.000954 0.531357 0.158863
0.001460 0.529003 0.159779
0.001476 0.530340 0.159895
0.001476 0.532698 0.161947
0.002958 0.528650 0.163714
0.003241 0.526345 0.160528
0.006731 0.527228 0.157802
0.053254 0.524721 0.160259
0.103820 0.522622 0.157632
0.143175 0.522437 0.153850
0.179557 0.526248 0.150927
0.218416 0.533763 0.151824
0.255802 0.542221 0.145465
0.295269 0.550406 0.136076
0.338192 0.560452 0.126227
0.380960 0.572885 0.113457
0.426939 0.584947 0.099075
0.476768 0.596748 0.077033
0.527504 0.609844 0.044593
0.579250 0.623849 0.016712
0.630342 0.637823 0.004917
0.680354 0.651084 0.002239
0.733150 0.667755 0.000362
0.789987 0.688718 0.000358
0.836330 0.702113 0.001150
0.869760 0.708526 0.000775
0.901962 0.715273 0.000956
0.930017 0.720350 0.001661
0.956748 0.723723 0.001182
0.984957 0.725943 0.002553
0.997804 0.728999 0.000274
0.997671 0.734871 0.002949
0.998432 0.739738 0.000950
0.000000 0.566630 0.174453
0.002920 0.563700 0.176831
0.002611 0.563281 0.175750
0.003487 0.565015 0.176695
0.002786 0.563524 0.178164
0.003416 0.561181 0.174233
0.015426 0.561035 0.172829
0.065613 0.558464 0.172790
0.115452 0.558805 0.173057
0.152729 0.557252 0.168433
0.185171 0.556269 0.165379
0.222822 0.560199 0.166523
0.261624 0.568301 0.160242
0.299916 0.576657 0.153782
0.338767 0.587112 0.144788
0.379543 0.599027 0.132565
0.423864 0.610121 0.123283
0.471050 0.622945 0.108154
0.519251 0.636541 0.082822
0.567289 0.648316 0.054640
0.615366 0.660995 0.027312
0.664092 0.675301 0.008211
0.713373 0.688899 0.000955
0.765005 0.701924 0.000882
0.817234 0.719470 0.002574
0.861572 0.736439 0.001306
0.894729 0.745127 0.000501
0.922742 0.748885 0.000682
0.952842 0.754348 0.001860
0.978247 0.756351 0.002955
0.995914 0.758714 0.000207
0.997371 0.763181 0.000950
0.997256 0.769666 0.002092
0.000000 0.600395 0.193296
0.001175 0.598008 0.190417
0.000407 0.597282 0.187709
0.002159 0.600958 0.187214
0.001354 0.598983 0.189795
0.005307 0.597243 0.186227
0.034338 0.595218 0.188714
0.086460 0.592304 0.186219
0.130357 0.594552 0.185415
0.161980 0.592874 0.180972
0.193722 0.589115 0.179611
0.229629 0.590194 0.178931
0.268387 0.597583 0.173331
0.305672 0.606322 0.167417
0.341806 0.614670 0.160722
0.382072 0.625716 0.152856
0.426606 0.637207 0.144754
0.470143 0.648695 0.132989
0.513422 0.661514 0.114854
0.558970 0.672488 0.096085
0.604763 0.683901 0.071679
0.652803 0.698924 0.036204
0.702176 0.711966 0.013342
0.747473 0.721600 0.003584
0.794407 0.734042 0.002324
0.842056 0.753586 0.001577
0.884666 0.771145 0.000976
0.917085 0.778340 0.000764
0.947388 0.783189 0.000000
0.971850 0.784291 0.000007
0.991615 0.786518 0.000262
0.999919 0.789341 0.003042
1.000000 0.795845 0.002605
0.000000 0.636899 0.207853
0.000786 0.633097 0.204314
0.000876 0.632910 0.204200
0.002078 0.635050 0.199091
0.001856 0.635167 0.199307
0.018124 0.633637 0.197644
0.065693 0.629077 0.202187
0.114277 0.627433 0.200441
0.148192 0.630779 0.199273
0.177978 0.630294 0.197911
0.208404 0.626977 0.196274
0.240259 0.625155 0.193125
0.273448 0.629565 0.186911
0.309366 0.636252 0.184528
0.347229 0.644741 0.180921
0.387228 0.655538 0.173615
0.429985 0.666391 0.165118
0.470829 0.676844 0.154780
0.513176 0.687159 0.142425
0.557546 0.697050 0.129840
0.599185 0.707547 0.114388
0.647127 0.719651 0.090142
0.696007 0.732308 0.059256
0.738558 0.743775 0.028832
0.780677 0.753442 0.011976
0.822772 0.766827 0.002685
0.868981 0.786312 0.002419
0.908462 0.801395 0.001758
0.940557 0.809344 0.000040
0.968226 0.814262 0.000381
0.990798 0.815352 0.001208
1.000000 0.816363 0.004455
1.000000 0.822110 0.004014
0.001518 0.670815 0.221580
0.000047 0.670637 0.217981
0.001123 0.671146 0.218516
0.011182 0.669653 0.217612
0.020319 0.671230 0.216532
0.060307 0.670416 0.218394
0.100140 0.668415 0.219943
0.140188 0.665680 0.219851
0.168524 0.666261 0.215361
0.197313 0.665723 0.213530
0.225740 0.662934 0.214598
0.256205 0.660503 0.213056
0.284521 0.662700 0.210152
0.317709 0.667562 0.206939
0.356616 0.675816 0.202680
0.395644 0.686182 0.195215
0.434746 0.695823 0.186474
0.474531 0.704607 0.178962
0.516183 0.713923 0.171520
0.559395 0.724524 0.163169
0.601208 0.735092 0.150972
0.643681 0.745709 0.134396
0.687890 0.756902 0.117167
0.730555 0.766345 0.093575
0.771208 0.774454 0.060803
0.813313 0.783456 0.024674
0.852145 0.796142 0.008522
0.890945 0.814435 0.001332
0.930604 0.829945 0.000122
0.965032 0.838286 0.001089
0.987319 0.841310 0.002312
0.999993 0.842780 0.004235
0.999779 0.845336 0.000000
0.018557 0.704566 0.239917
0.016961 0.706460 0.236446
0.023932 0.707809 0.238242
0.048975 0.706669 0.235960
0.084471 0.704445 0.234525
0.114116 0.707473 0.238439
0.139196 0.706468 0.234689
0.171947 0.706612 0.233480
0.195588 0.703283 0.236076
0.223414 0.702721 0.235619
0.250541 0.700790 0.233985
0.277877 0.698438 0.232240
0.303550 0.697619 0.233052
0.335506 0.700726 0.228425
0.371715 0.709145 0.221755
0.409714 0.716712 0.214595
0.444321 0.723760 0.207456
0.481132 0.734219 0.203169
0.523291 0.743765 0.200017
0.564016 0.751720 0.191813
0.603684 0.762538 0.178692
0.640695 0.773065 0.168239
0.680686 0.780438 0.156351
0.721490 0.789217 0.142804
0.763288 0.798674 0.124627
0.800954 0.805018 0.090690
0.840698 0.818193 0.052136
0.873719 0.826470 0.024646
0.915987 0.838121 0.012408
0.956539 0.858545 0.001620
0.989865 0.862756 0.000043
0.999628 0.868511 0.000683
0.998447 0.867214 0.000334
0.078676 0.744863 0.256491
0.091612 0.745558 0.260898
0.108362 0.742305 0.260886
0.124111 0.741711 0.262578
0.144889 0.742542 0.259011
0.162156 0.742166 0.257148
0.182692 0.745434 0.258428
0.207674 0.744247 0.253726
0.229572 0.740456 0.258889
0.255111 0.739678 0.260458
0.278919 0.739452 0.257914
0.303514 0.735798 0.255287
0.326887 0.735209 0.254567
0.354901 0.737624 0.251697
0.388053 0.742834 0.247741
0.420725 0.748421 0.243675
0.455767 0.756869 0.238445
0.494843 0.767164 0.233230
0.532818 0.774396 0.228169
0.569063 0.781037 0.221344
0.606710 0.790233 0.212899
0.645480 0.799657 0.203887
0.683167 0.805321 0.193621
0.719825 0.813472 0.182129
0.757510 0.822491 0.168568
0.793600 0.828163 0.155693
