ml_luts/presetpro_color_400__lut3d_33.cube
TITLE "Presetpro - Color 400.jpg"
DOMAIN_MIN 0.000000 0.000000 0.000000
DOMAIN_MAX 1.000000 1.000000 1.000000
LUT_3D_SIZE 33
0.023376 0.086761 0.066742
0.034492 0.086761 0.066742
0.045809 0.086962 0.070089
0.060063 0.089520 0.067077
0.071609 0.089676 0.069679
0.088894 0.090047 0.067267
0.106779 0.091160 0.066742
0.127181 0.095024 0.068172
0.144493 0.092880 0.069718
0.163049 0.095403 0.065296
0.187365 0.096046 0.066437
0.219013 0.093460 0.066348
0.246933 0.095108 0.067585
0.278986 0.096802 0.066413
0.316269 0.096802 0.064017
0.359257 0.094159 0.062541
0.405869 0.090103 0.060913
0.453267 0.085203 0.059358
0.504317 0.076330 0.056066
0.555516 0.064033 0.049534
0.605045 0.050076 0.042584
0.656479 0.034819 0.035988
0.705328 0.018456 0.026484
0.752258 0.003795 0.015955
0.801865 0.000000 0.007515
0.846878 0.000594 0.002027
0.890530 0.006184 0.000000
0.925546 0.024929 0.000453
0.962360 0.048820 0.002914
0.985702 0.078597 0.002738
0.987339 0.110138 0.000000
0.992225 0.130667 0.000105
1.000000 0.156860 0.003357
0.023376 0.091610 0.066830
0.037528 0.094760 0.069781
0.046115 0.097613 0.067125
0.062727 0.097955 0.069145
0.074873 0.100529 0.064524
0.091707 0.098188 0.066362
0.109907 0.097959 0.068896
0.127979 0.100191 0.069811
0.146252 0.101321 0.063472
0.167437 0.103115 0.065737
0.191227 0.104417 0.068556
0.220131 0.102477 0.068890
0.247709 0.103460 0.066890
0.281421 0.104702 0.065492
0.319521 0.104665 0.062536
0.363326 0.103751 0.062668
0.408145 0.101219 0.062332
0.454722 0.096361 0.057163
0.507803 0.087587 0.055675
0.560210 0.077433 0.051996
0.609765 0.067023 0.041641
0.657214 0.052972 0.036764
0.704961 0.039015 0.027223
0.754446 0.027457 0.010543
0.801983 0.021508 0.001609
0.848841 0.021737 0.002070
0.890652 0.030676 0.000505
0.926533 0.051574 0.000439
0.964781 0.070746 0.002822
0.985720 0.099041 0.002650
0.990387 0.124990 0.000194
0.995232 0.145237 0.000101
1.000000 0.171288 0.003239
0.026495 0.099233 0.069895
0.031654 0.099714 0.069974
0.039753 0.102937 0.072234
0.054332 0.105905 0.070070
0.071437 0.106605 0.067133
0.093677 0.106079 0.069572
0.112895 0.106056 0.067997
0.128307 0.106454 0.064386
0.148777 0.108874 0.067405
0.171814 0.109085 0.067188
0.195821 0.108065 0.068548
0.219044 0.111597 0.067175
0.248295 0.112341 0.062626
0.285651 0.111186 0.063960
0.323622 0.110992 0.063066
0.363364 0.111794 0.058807
0.408190 0.109417 0.056384
0.456440 0.104572 0.054588
0.506689 0.100084 0.050190
0.558499 0.092178 0.048121
0.609312 0.081356 0.045906
0.658472 0.070907 0.032695
0.708165 0.061040 0.023060
0.754139 0.054131 0.014075
0.802345 0.048566 0.000739
0.846827 0.050005 0.000286
0.889259 0.060471 0.000070
0.928859 0.076617 0.001109
0.964491 0.091430 0.005613
0.982774 0.116658 0.002551
0.987541 0.139670 0.000013
0.992495 0.157050 0.000098
0.999799 0.182625 0.003121
0.026427 0.110407 0.073113
0.031327 0.110167 0.067235
0.036973 0.110903 0.067756
0.050975 0.116290 0.067356
0.068283 0.117351 0.066903
0.089144 0.119296 0.071567
0.107884 0.115605 0.067860
0.128712 0.119193 0.068021
0.150386 0.118569 0.067321
0.170148 0.122287 0.063990
0.194907 0.123029 0.064475
0.224183 0.121654 0.064693
0.253515 0.121191 0.064522
0.287436 0.122633 0.061606
0.325063 0.122836 0.063435
0.364456 0.123874 0.062327
0.408658 0.122980 0.058432
0.457587 0.118832 0.055797
0.508071 0.113923 0.051955
0.559415 0.106698 0.048661
0.610693 0.099080 0.041573
0.661442 0.092006 0.031750
0.711299 0.085472 0.022608
0.756498 0.082246 0.009193
0.804090 0.078388 0.000957
0.849055 0.080263 0.002155
0.891562 0.089757 0.000424
0.929478 0.104585 0.001998
0.964785 0.120509 0.000578
0.984904 0.138515 0.000746
0.987723 0.160386 0.002584
0.994957 0.177324 0.000381
0.999704 0.197482 0.003611
0.027412 0.122032 0.071262
0.034212 0.124090 0.072548
0.036813 0.124393 0.065670
0.047264 0.125616 0.066971
0.066437 0.128377 0.064584
0.090768 0.133321 0.067377
0.107705 0.133435 0.069032
0.129963 0.132134 0.068030
0.149034 0.133367 0.068319
0.171651 0.132324 0.066379
0.196935 0.132162 0.065298
0.225763 0.134284 0.064096
0.257385 0.133309 0.065168
0.292827 0.134781 0.061670
0.329441 0.137454 0.058485
0.369285 0.137780 0.058606
0.413847 0.136772 0.057684
0.462019 0.133983 0.052905
0.511614 0.129987 0.045712
0.562081 0.125534 0.039759
0.613627 0.119744 0.032944
0.664102 0.115079 0.025044
0.714489 0.111640 0.018569
0.760568 0.107409 0.007781
0.806197 0.109823 0.000123
0.845858 0.115827 0.000418
0.894545 0.120596 0.000514
0.934343 0.131562 0.000261
0.967444 0.145772 0.000429
0.983557 0.164526 0.003584
0.989767 0.181366 0.004767
0.994785 0.198705 0.000129
0.997024 0.218384 0.000458
0.024029 0.138135 0.075871
0.029050 0.138509 0.076245
0.035966 0.136742 0.074576
0.046561 0.136574 0.070746
0.061822 0.135113 0.072048
0.082402 0.141648 0.071678
0.105773 0.147824 0.070316
0.129430 0.147864 0.065562
0.151317 0.148967 0.064462
0.173501 0.147273 0.065770
0.197128 0.146616 0.065812
0.225371 0.147129 0.063206
0.256420 0.148009 0.064211
0.293962 0.149927 0.062433
0.331377 0.152314 0.058977
0.371879 0.152304 0.058009
0.418173 0.150073 0.054052
0.466187 0.147803 0.048459
0.516281 0.145957 0.044943
0.567588 0.143474 0.040099
0.617875 0.140460 0.032424
0.666636 0.138935 0.020955
0.713538 0.138566 0.008478
0.759204 0.139046 0.002566
0.806479 0.141110 0.002124
0.849468 0.144699 0.000619
0.894826 0.148418 0.002299
0.934193 0.161431 0.000072
0.969883 0.174875 0.000742
0.985351 0.190045 0.002740
0.988091 0.207804 0.003009
0.994608 0.224550 0.000102
0.996205 0.239675 0.002832
0.020649 0.150682 0.074575
0.026924 0.150274 0.074648
0.036555 0.148045 0.074809
0.045030 0.146271 0.073832
0.056734 0.151188 0.071776
0.073943 0.157761 0.071176
0.093386 0.160429 0.070290
0.122672 0.163701 0.069300
0.150260 0.168567 0.066250
0.174321 0.167705 0.062948
0.202977 0.167865 0.065079
0.233518 0.165299 0.061208
0.261670 0.165579 0.058722
0.294963 0.167310 0.059333
0.333863 0.166802 0.058833
0.376070 0.167358 0.057594
0.423265 0.168646 0.050988
0.472872 0.166864 0.045736
0.521541 0.165729 0.042716
0.570358 0.166838 0.032367
0.621170 0.166362 0.022135
0.672036 0.166448 0.014484
0.717248 0.167185 0.005710
0.760240 0.168046 0.001003
0.807107 0.169531 0.001520
0.850308 0.173500 0.002419
0.893795 0.180765 0.001443
0.933445 0.192766 0.000474
0.968920 0.203972 0.000635
0.984970 0.217679 0.000966
0.989643 0.233236 0.003218
0.995121 0.247172 0.000177
0.997066 0.265295 0.003357
0.024645 0.162586 0.079359
0.030303 0.161922 0.079378
0.036327 0.162127 0.079046
0.048123 0.161540 0.079388
0.059694 0.165048 0.079793
0.070063 0.169169 0.073748
0.085722 0.172563 0.071501
0.114282 0.177635 0.072416
0.146256 0.184393 0.071536
0.178591 0.188329 0.066120
0.210433 0.189421 0.062741
0.237421 0.190274 0.057731
0.266714 0.192410 0.053699
0.299977 0.189584 0.052876
0.336875 0.187214 0.051701
0.379961 0.188140 0.050459
0.428017 0.188878 0.047319
0.477290 0.188912 0.041837
0.525220 0.190545 0.032695
0.573780 0.193162 0.019979
0.623339 0.193466 0.010760
0.671149 0.193512 0.005172
0.718726 0.194608 0.001608
0.762690 0.195859 0.000946
0.808169 0.200020 0.002302
0.850693 0.206674 0.001294
0.896498 0.214250 0.002774
0.935228 0.223614 0.000388
0.969244 0.234193 0.001791
0.983773 0.247615 0.001540
0.986777 0.260895 0.001833
0.995291 0.273501 0.000112
0.998810 0.287106 0.000734
0.023353 0.174713 0.084068
0.030619 0.176332 0.083448
0.036776 0.176163 0.083449
0.046283 0.176527 0.084010
0.054676 0.180218 0.082773
0.068531 0.181642 0.078327
0.089050 0.186247 0.078412
0.107252 0.191002 0.074989
0.133686 0.198153 0.070622
0.168750 0.206938 0.066340
0.209947 0.215118 0.064441
0.244118 0.219303 0.057266
0.278403 0.219881 0.052564
0.313431 0.217330 0.050693
0.349430 0.215178 0.049810
0.388216 0.211861 0.045032
0.429749 0.211151 0.037853
0.476367 0.214389 0.032140
0.528122 0.217640 0.023060
0.580320 0.218879 0.011498
0.628137 0.219046 0.004433
0.673818 0.222853 0.001602
0.721464 0.225542 0.001122
0.766132 0.227106 0.002397
0.811670 0.231634 0.003015
0.851817 0.238750 0.000357
0.895067 0.245621 0.001798
0.932624 0.255685 0.002309
0.963825 0.265799 0.001524
0.985309 0.277411 0.003582
0.988727 0.288877 0.000392
0.995323 0.301118 0.000643
0.999809 0.312744 0.000000
0.018324 0.195250 0.088018
0.030191 0.195924 0.090101
0.033998 0.194173 0.085433
0.044576 0.194218 0.087468
0.054047 0.196506 0.087639
0.068185 0.197787 0.084817
0.085521 0.203220 0.083210
0.102928 0.208912 0.081584
0.128493 0.216671 0.077445
0.159182 0.225349 0.069294
0.199579 0.237634 0.061023
0.245344 0.250459 0.052641
0.291276 0.255262 0.043994
0.330998 0.253672 0.039010
0.366879 0.251543 0.033571
0.406617 0.248665 0.028441
0.444246 0.244678 0.025282
0.482770 0.242557 0.021740
0.528961 0.243003 0.013513
0.578178 0.244421 0.005072
0.628374 0.247926 0.002926
0.677312 0.253223 0.001035
0.725199 0.256494 0.001331
0.770685 0.259670 0.002104
0.815340 0.264512 0.001985
0.853469 0.271620 0.001167
0.896069 0.280418 0.001385
0.931260 0.289044 0.002051
0.964954 0.298642 0.000967
0.985843 0.308776 0.001175
0.988945 0.319026 0.000058
0.995222 0.330952 0.000913
0.996578 0.341360 0.000680
0.014469 0.214603 0.089813
0.024863 0.215457 0.092528
0.031795 0.214729 0.092401
0.041921 0.215610 0.094554
0.057020 0.215307 0.091248
0.066600 0.216583 0.087598
0.081451 0.221953 0.087917
0.098581 0.229055 0.085391
0.125990 0.235770 0.081644
0.153597 0.244900 0.072982
0.188541 0.259134 0.063841
0.237542 0.273001 0.055433
0.296617 0.288731 0.039008
0.343925 0.297079 0.023115
0.384034 0.296824 0.013886
0.426041 0.294033 0.009200
0.465051 0.289944 0.007857
0.502247 0.284396 0.006703
0.541070 0.278442 0.003340
0.583431 0.275395 0.001025
0.629845 0.278406 0.000886
0.677307 0.283377 0.001073
0.726166 0.285901 0.002150
0.771196 0.290470 0.001574
0.815099 0.297863 0.002182
0.853023 0.308182 0.001448
0.895504 0.313013 0.001037
0.932400 0.321154 0.001247
0.968417 0.330218 0.004279
0.984178 0.339954 0.000132
0.988458 0.349122 0.001430
0.995282 0.359508 0.001811
0.998512 0.369419 0.002604
0.006048 0.239793 0.091020
0.015763 0.238144 0.094551
0.022904 0.238737 0.096275
0.033119 0.239246 0.097680
0.052591 0.238161 0.094951
0.065291 0.240327 0.094389
0.080150 0.243952 0.094754
0.096900 0.251970 0.093186
0.119138 0.260416 0.084936
0.149725 0.268796 0.077988
0.184591 0.282188 0.071031
0.227963 0.296602 0.061158
0.283119 0.313240 0.043579
0.343875 0.333138 0.018695
0.399281 0.344613 0.005970
0.445906 0.343697 0.002517
0.486459 0.340431 0.001283
0.525615 0.336178 0.001168
0.565128 0.328979 0.000964
0.602715 0.321216 0.001658
0.638818 0.315201 0.000538
0.679093 0.314530 0.000382
0.724691 0.317373 0.001354
0.768317 0.324930 0.002878
0.814204 0.331763 0.004432
0.855298 0.339436 0.001419
0.897799 0.346507 0.001609
0.932160 0.354286 0.003400
0.964923 0.362102 0.002258
0.983645 0.372919 0.001863
0.989022 0.380387 0.000754
0.995226 0.390059 0.001514
0.998578 0.399214 0.001154
0.000813 0.267796 0.098969
0.007568 0.266683 0.099002
0.013529 0.265764 0.100391
0.023917 0.265878 0.100514
0.039936 0.267091 0.101375
0.056158 0.268388 0.099959
0.075636 0.270435 0.100164
0.091500 0.276074 0.097175
0.113755 0.286793 0.089631
0.143734 0.297227 0.084102
0.177325 0.309701 0.076617
0.218036 0.324313 0.062330
0.268291 0.340112 0.045393
0.328978 0.358996 0.021565
0.397658 0.382113 0.005236
0.461388 0.396423 0.000810
0.509270 0.397430 0.001312
0.548609 0.393075 0.001779
0.588898 0.386787 0.001187
0.626683 0.378615 0.001185
0.659239 0.369315 0.000308
0.692603 0.361836 0.000000
0.729921 0.358482 0.000279
0.768319 0.359630 0.001356
0.811396 0.364608 0.002766
0.855207 0.370270 0.002978
0.897783 0.378612 0.001637
0.933760 0.387480 0.002526
0.963990 0.395221 0.000244
0.983285 0.403708 0.001847
0.990116 0.413485 0.000877
0.994107 0.420642 0.001670
0.999187 0.430050 0.000000
0.000000 0.298206 0.101480
0.005813 0.299377 0.102420
0.009887 0.297502 0.102014
0.017502 0.297487 0.101749
0.027021 0.299544 0.106690
0.043844 0.296958 0.104347
0.065971 0.297629 0.103715
0.085473 0.303810 0.101145
0.108668 0.314210 0.097629
0.139646 0.326583 0.090698
0.171985 0.337727 0.083086
0.211289 0.351939 0.067001
0.259416 0.368657 0.048256
0.315361 0.386336 0.023171
0.381847 0.408472 0.005319
0.455626 0.434045 0.000952
0.522289 0.451887 0.001006
0.571223 0.454738 0.002489
0.611074 0.448232 0.002350
0.649476 0.439717 0.000155
0.684215 0.430305 0.000000
0.717630 0.420666 0.000903
0.748054 0.412245 0.002067
0.779312 0.404996 0.001160
0.813660 0.402630 0.001963
0.853894 0.404979 0.001770
0.894683 0.411446 0.001255
0.932333 0.421077 0.000512
0.963166 0.429049 0.000067
0.981697 0.436037 0.000533
0.989682 0.444873 0.000620
0.993712 0.451879 0.001858
1.000000 0.460559 0.000000
0.000000 0.332546 0.104729
0.005486 0.333224 0.106953
0.009366 0.331560 0.105258
0.014527 0.332879 0.105903
0.020186 0.332678 0.111139
0.032428 0.329854 0.109145
0.052711 0.329752 0.109448
0.077706 0.334150 0.109058
0.101409 0.344144 0.105207
0.132541 0.355860 0.097285
0.166399 0.368793 0.089032
0.204494 0.382096 0.076642
0.253159 0.399193 0.056566
0.306353 0.418409 0.025185
0.366900 0.436981 0.005230
0.435484 0.460195 0.001096
0.512254 0.487338 0.000376
0.582831 0.507534 0.001262
0.631927 0.510628 0.002095
0.669370 0.501403 0.001960
0.704919 0.491743 0.002257
0.738283 0.482119 0.001987
0.769281 0.473079 0.001936
0.798968 0.464039 0.000855
0.827943 0.455360 0.001102
0.859636 0.449369 0.000318
0.893051 0.447123 0.001536
0.927610 0.453767 0.001593
0.959035 0.462115 0.000152
0.981847 0.467772 0.001190
0.989697 0.477031 0.000903
0.993732 0.484255 0.000776
0.998970 0.491480 0.000000
0.001783 0.369150 0.111971
0.006502 0.369088 0.112697
0.010279 0.368288 0.111870
0.015052 0.368384 0.112229
0.019515 0.367742 0.117406
0.025300 0.367087 0.114557
0.037785 0.367998 0.115367
0.063362 0.368494 0.114807
0.092248 0.376184 0.112439
0.125384 0.387230 0.106617
0.160677 0.402599 0.097445
0.200772 0.415058 0.086409
0.248232 0.431459 0.067271
0.300146 0.450407 0.035320
0.358246 0.468684 0.009016
0.420156 0.488598 0.001712
0.492264 0.511981 0.002197
0.570091 0.538564 0.001346
0.637281 0.558914 0.001380
0.687640 0.561874 0.002236
0.723061 0.553057 0.002260
0.754870 0.543682 0.001812
0.787224 0.534616 0.001614
0.817542 0.525088 0.001561
0.846142 0.515199 0.000000
0.873813 0.504985 0.000281
0.902582 0.495868 0.001509
0.931095 0.492812 0.002129
0.958029 0.493240 0.000325
0.983517 0.497900 0.000992
0.990449 0.506611 0.000818
0.994499 0.513257 0.001692
0.998283 0.520723 0.000859
0.002487 0.406616 0.118546
0.008030 0.406675 0.119417
0.011127 0.407378 0.119403
0.015996 0.406277 0.119192
0.021006 0.405851 0.121548
0.024343 0.405035 0.119686
0.029317 0.406764 0.119724
0.046753 0.405646 0.119636
0.083012 0.409126 0.119949
0.120272 0.420751 0.115827
0.157326 0.436339 0.107022
0.198508 0.449470 0.094302
0.242842 0.464594 0.078459
0.294437 0.483178 0.052025
0.351192 0.501215 0.020382
0.411116 0.519614 0.004717
0.477425 0.539643 0.002869
0.547975 0.562253 0.002472
0.621118 0.586769 0.002218
0.689771 0.606988 0.001477
0.739336 0.612303 0.001533
0.772424 0.602498 0.002010
0.801597 0.592942 0.001462
0.832631 0.583820 0.002324
0.861862 0.575130 0.000641
0.887744 0.564489 0.000120
0.916473 0.556235 0.000921
0.941386 0.546144 0.002264
0.962888 0.538391 0.000707
0.984270 0.536750 0.000066
0.988962 0.538635 0.000816
0.992968 0.541873 0.002479
0.999192 0.550003 0.000808
0.000859 0.445742 0.126622
0.007241 0.446573 0.128333
0.011039 0.447499 0.128388
0.015758 0.448719 0.129024
0.021105 0.446880 0.127682
0.025000 0.446545 0.127481
0.028474 0.447265 0.127481
0.036792 0.445860 0.127418
0.076418 0.446060 0.129649
0.116564 0.456196 0.124476
0.156120 0.469644 0.118001
0.195846 0.483987 0.104745
0.238905 0.498884 0.092227
0.289547 0.516365 0.072130
0.345494 0.533094 0.041358
0.403259 0.549375 0.012856
0.465647 0.568712 0.001072
0.531509 0.589599 0.001341
0.598645 0.608214 0.001534
0.669122 0.631159 0.001315
0.736217 0.654080 0.001787
0.784748 0.657141 0.001426
0.815119 0.649499 0.000503
0.846731 0.639938 0.001524
0.874221 0.630875 0.001071
0.898272 0.621624 0.000467
0.925687 0.612953 0.001193
0.948389 0.603500 0.002406
0.969329 0.594849 0.001079
0.985086 0.586694 0.000705
0.988854 0.580150 0.000855
0.992820 0.577467 0.002411
0.999142 0.578639 0.000000
0.000854 0.487871 0.137490
0.005696 0.489697 0.139677
0.010231 0.489868 0.139748
0.016234 0.492120 0.139615
0.019827 0.490080 0.139729
0.024683 0.491661 0.139624
0.028506 0.490723 0.140187
0.033928 0.489507 0.139069
0.073496 0.487073 0.143370
0.117561 0.493475 0.138059
0.160043 0.504450 0.133127
0.200079 0.518432 0.121315
0.243050 0.532670 0.110416
0.291602 0.548383 0.095351
0.344632 0.563496 0.071305
0.398876 0.579280 0.038862
0.456550 0.598244 0.012154
0.518337 0.616860 0.001681
0.582452 0.633318 0.001011
0.646435 0.652225 0.001790
0.712106 0.674757 0.000964
0.777374 0.693704 0.000561
0.823140 0.701006 0.000530
0.856348 0.693949 0.002071
0.882114 0.682692 0.002464
0.906520 0.674835 0.000821
0.933464 0.663842 0.001375
0.955380 0.655523 0.002613
0.975190 0.645840 0.001168
0.985122 0.638212 0.000762
0.990687 0.627978 0.000202
0.995243 0.620512 0.003199
0.997274 0.613882 0.002069
0.002523 0.532676 0.153922
0.006059 0.533799 0.154528
0.009398 0.535102 0.154547
0.016640 0.535304 0.153332
0.019156 0.534140 0.153913
0.025167 0.535263 0.155175
0.029458 0.534148 0.156185
0.035665 0.533714 0.154946
0.077268 0.530940 0.156293
0.125342 0.533371 0.154987
0.169213 0.542654 0.152466
0.209271 0.554935 0.143434
0.251709 0.567080 0.133176
0.297594 0.581730 0.119957
0.347166 0.596925 0.104089
0.398069 0.612878 0.080895
0.451844 0.630729 0.049607
0.509138 0.646507 0.019899
0.571157 0.661703 0.004829
0.633352 0.678786 0.002623
0.690573 0.694059 0.001397
0.752041 0.711943 0.001306
0.810697 0.732720 0.000622
0.855869 0.739670 0.002404
0.887525 0.733227 0.002709
0.912334 0.723454 0.000354
0.938397 0.712524 0.000569
0.961794 0.704028 0.002690
0.978601 0.694043 0.000987
0.984682 0.686652 0.001906
0.990575 0.676263 0.000669
0.994720 0.666337 0.004163
0.995517 0.659269 0.003341
0.002098 0.579162 0.175202
0.007493 0.577633 0.172009
0.009491 0.580176 0.173075
0.015141 0.579990 0.172759
0.020449 0.578354 0.174183
0.025848 0.577427 0.175925
0.030733 0.577232 0.175948
0.046693 0.576725 0.175584
0.095032 0.576471 0.172584
0.142495 0.576900 0.174592
0.184181 0.582229 0.176501
0.223086 0.591282 0.170091
0.262982 0.602543 0.161164
0.306641 0.616763 0.149439
0.354412 0.631901 0.137108
0.402673 0.646539 0.122507
0.453490 0.662296 0.101778
0.507089 0.677643 0.069955
0.564416 0.691347 0.037852
0.622830 0.704546 0.019366
0.676504 0.718324 0.007450
0.730483 0.733288 0.000984
0.785407 0.748493 0.000675
0.843145 0.765339 0.000951
0.886144 0.772334 0.000226
0.914870 0.766773 0.000483
0.939354 0.755945 0.000624
0.962086 0.746953 0.002053
0.979307 0.738575 0.000410
0.985393 0.729183 0.003036
0.990169 0.718337 0.000869
0.994445 0.709150 0.003809
0.995831 0.701389 0.001266
0.000000 0.625311 0.198671
0.006723 0.621526 0.195800
0.009446 0.622904 0.197410
0.014686 0.624040 0.197166
0.022214 0.622255 0.200949
0.026080 0.621072 0.199440
0.038925 0.620303 0.198663
0.077092 0.618531 0.202550
0.128780 0.618981 0.200327
0.170691 0.620969 0.201247
0.210201 0.621804 0.203111
0.248015 0.625919 0.198581
0.284177 0.636928 0.191999
0.324792 0.651757 0.184765
0.368403 0.664729 0.174825
0.414470 0.677066 0.165144
0.462052 0.690921 0.152262
0.511561 0.705417 0.135465
0.564153 0.718396 0.112247
0.615340 0.730258 0.080788
0.666020 0.743212 0.052344
0.718336 0.755860 0.031821
0.769161 0.767895 0.016100
0.822872 0.779945 0.002306
0.869799 0.793621 0.000495
0.908113 0.801114 0.001245
0.939013 0.795479 0.001385
0.962184 0.785790 0.003159
0.980678 0.777035 0.000704
0.984689 0.766105 0.000181
0.990082 0.755662 0.000064
0.995226 0.747034 0.001018
0.998578 0.739815 0.000781
0.001497 0.667883 0.229256
0.007238 0.666092 0.229191
0.010719 0.666782 0.227240
0.022774 0.665539 0.229054
0.036481 0.665697 0.229256
0.050216 0.665369 0.227927
0.082864 0.664081 0.228295
0.131645 0.662871 0.231914
0.171381 0.663042 0.231674
0.208978 0.663565 0.232369
0.244561 0.661219 0.234214
0.276599 0.662826 0.230565
0.308175 0.672275 0.225473
0.344828 0.686307 0.221456
0.384902 0.697870 0.216691
0.427075 0.709568 0.209656
0.470338 0.720956 0.201526
0.517025 0.732461 0.191893
0.566376 0.744383 0.178744
0.613905 0.756074 0.163336
0.661751 0.768124 0.145501
0.710472 0.777345 0.119951
0.759319 0.789102 0.083316
0.806117 0.797611 0.048047
0.847656 0.805804 0.033824
0.891284 0.819894 0.020586
0.931333 0.827826 0.009371
0.959437 0.823583 0.003437
0.979702 0.814747 0.001456
0.984896 0.803725 0.000655
0.990687 0.792379 0.000183
0.995319 0.783617 0.001868
0.999704 0.776237 0.000000
0.032883 0.708149 0.261666
0.037962 0.708652 0.261275
0.045571 0.708307 0.259079
0.068705 0.707764 0.263385
0.096031 0.707556 0.262869
0.124430 0.707479 0.265230
0.160203 0.706383 0.267134
0.192158 0.704434 0.264552
0.218492 0.705663 0.265943
0.251217 0.704065 0.266997
0.280503 0.701510 0.268019
0.309295 0.702216 0.267725
0.337806 0.709084 0.266133
0.369420 0.720895 0.262927
0.406579 0.730852 0.259880
0.446606 0.742058 0.255591
0.485767 0.751875 0.249476
0.526767 0.761045 0.241772
0.570683 0.771490 0.233365
0.614123 0.781578 0.226657
0.657428 0.792507 0.216291
0.703192 0.800587 0.201033
0.751545 0.810095 0.186075
0.793788 0.816361 0.162633
0.832128 0.822326 0.136911
0.869586 0.831048 0.100163
0.910754 0.842765 0.066970
0.949514 0.849804 0.045988
0.975998 0.846518 0.035670
0.985886 0.835732 0.020028
0.989375 0.826145 0.002300
0.995307 0.819425 0.002878
0.999320 0.808580 0.000704
0.126694 0.748993 0.299141
0.136753 0.747278 0.298683
0.149272 0.745528 0.300628
0.168222 0.747482 0.305488
0.183489 0.746081 0.303473
0.203227 0.747678 0.303302
0.223779 0.747452 0.303920
0.249093 0.745945 0.303703
0.270870 0.745485 0.307295
0.298654 0.743245 0.307363
0.324632 0.742494 0.309425
0.349929 0.742206 0.309238
0.374933 0.745212 0.309575
0.403545 0.752777 0.308207
0.434158 0.761477 0.305151
0.467591 0.772171 0.302163
0.505306 0.781163 0.299217
0.542209 0.788498 0.293478
0.580974 0.797451 0.287618
0.622511 0.805553 0.284243
0.661183 0.813765 0.277049
0.701859 0.822308 0.265866
0.743996 0.828764 0.253482
0.783898 0.834173 0.241608
0.819429 0.840223 0.231592
0.852919 0.849680 0.214399
0.890160 0.854114 0.192871
0.929669 0.860735 0.170745
0.964652 0.866010 0.152221
0.983539 0.864027 0.104789
0.986541 0.858998 0.050965
0.994680 0.850881 0.033294
0.999352 0.838256 0.024505
0.210359 0.784166 0.340844
0.220592 0.782913 0.341312
0.231472 0.781118 0.342009
0.244186 0.780511 0.344458
0.251656 0.782752 0.345837
0.267635 0.781652 0.344593
0.283729 0.783704 0.343291
0.307330 0.782275 0.344407
0.326366 0.782571 0.347815
0.348227 0.782161 0.349501
0.370234 0.780457 0.353021
0.391897 0.779881 0.353527
0.414732 0.779581 0.353583
0.439091 0.783730 0.353108
0.465174 0.790937 0.349266
0.493916 0.799062 0.348316
0.526630 0.806924 0.349221
0.560853 0.813994 0.346258
0.597836 0.821489 0.343084
0.635537 0.827786 0.337046
0.667337 0.834892 0.328295
0.700183 0.844045 0.325287
0.737637 0.847863 0.319915
0.775713 0.852114 0.314198
0.812232 0.859123 0.305361
0.844393 0.864398 0.289975
0.876615 0.868873 0.275654
0.907198 0.873107 0.257446
0.943024 0.876983 0.248045
0.972895 0.882380 0.238634
0.987419 0.885259 0.207135
0.992597 0.878197 0.161367
0.997973 0.868896 0.123520
0.287336 0.813772 0.385769
0.294221 0.814448 0.385649
0.305007 0.816423 0.387560
0.314292 0.815388 0.388377
0.322862 0.816850 0.391556
0.333926 0.814789 0.390861
0.349264 0.813967 0.389565
0.366864 0.815283 0.391149
0.380779 0.814794 0.388257
0.399874 0.815279 0.390776
0.417455 0.813696 0.393960
0.435730 0.813939 0.397563
0.458628 0.811867 0.398918
0.479172 0.812981 0.400522
0.501503 0.818540 0.398072
0.528182 0.825719 0.395685
0.556172 0.832725 0.396180
0.584115 0.838616 0.393522
0.613827 0.843554 0.390896
0.645421 0.848768 0.390585
0.677276 0.855374 0.386114
0.709913 0.862498 0.380014
0.739872 0.868225 0.377712
0.771500 0.871164 0.375262
0.805793 0.876742 0.367295
0.836020 0.877465 0.356383
