ml_luts/presetpro_portra_400__lut3d_33.cube
TITLE "Presetpro - Portra 400.jpg"
DOMAIN_MIN 0.000000 0.000000 0.000000
DOMAIN_MAX 1.000000 1.000000 1.000000
LUT_3D_SIZE 33
0.000000 0.000000 0.000000
0.003666 0.003666 0.003666
0.004156 0.003927 0.000236
0.018175 0.003937 0.000000
0.034229 0.003937 0.000000
0.050812 0.007233 0.000000
0.079408 0.006504 0.000620
0.108897 0.019737 0.003243
0.135597 0.024284 0.000984
0.169305 0.029449 0.000000
0.212391 0.029547 0.000000
0.255992 0.031381 0.000000
0.303417 0.027550 0.002461
0.350230 0.020591 0.001599
0.394600 0.011280 0.000000
0.444027 0.003917 0.000000
0.489120 0.002975 0.002914
0.532555 0.003107 0.003097
0.577444 0.001940 0.000000
0.622204 0.000979 0.000000
0.667702 0.000000 0.000000
0.704052 0.000000 0.000000
0.744713 0.000000 0.000000
0.780276 0.000283 0.000000
0.817443 0.001739 0.000000
0.852054 0.003770 0.000694
0.888600 0.002699 0.003197
0.919656 0.000541 0.002781
0.949326 0.007023 0.000442
0.987255 0.060723 0.003208
0.999771 0.106851 0.000000
1.000000 0.141538 0.000000
1.000000 0.176483 0.000000
0.003666 0.003932 0.003814
0.003780 0.004047 0.003785
0.007814 0.007602 0.000236
0.015755 0.010840 0.003108
0.036949 0.008900 0.000429
0.057054 0.014269 0.000100
0.078486 0.019845 0.000546
0.111472 0.026785 0.002732
0.141022 0.032119 0.000829
0.173340 0.040299 0.000701
0.216048 0.041195 0.000467
0.259786 0.043649 0.000081
0.302619 0.041012 0.000077
0.352861 0.034487 0.001367
0.402772 0.025133 0.003032
0.449310 0.011594 0.004639
0.492919 0.002177 0.004673
0.538140 0.000153 0.002044
0.582876 0.000826 0.002302
0.621781 0.000979 0.003124
0.663448 0.000920 0.001430
0.706952 0.001610 0.002503
0.748003 0.000037 0.000804
0.785961 0.000127 0.002156
0.818693 0.000357 0.000820
0.855869 0.000949 0.001496
0.889274 0.000751 0.006380
0.921474 0.003665 0.004240
0.959263 0.028257 0.003015
0.981479 0.079793 0.000133
0.999644 0.118492 0.000332
0.996305 0.153064 0.000007
1.000000 0.187865 0.000236
0.000236 0.007835 0.000246
0.000347 0.007724 0.000237
0.007396 0.008299 0.000015
0.015203 0.015298 0.006423
0.036976 0.019177 0.000886
0.060852 0.020785 0.000006
0.080790 0.030453 0.000429
0.110493 0.039850 0.002690
0.139738 0.046548 0.000824
0.172668 0.051116 0.000045
0.216942 0.052258 0.002469
0.265930 0.054777 0.004341
0.310354 0.053760 0.001924
0.357411 0.048167 0.000178
0.404189 0.042745 0.001338
0.448653 0.032349 0.001373
0.494930 0.016385 0.000410
0.540430 0.004168 0.000126
0.582431 0.000149 0.000149
0.626667 0.000197 0.001120
0.670377 0.000864 0.002578
0.707974 0.001512 0.002118
0.748846 0.000074 0.000281
0.785629 0.000872 0.001269
0.819699 0.001886 0.002685
0.853221 0.000054 0.000274
0.885755 0.002688 0.000496
0.919090 0.020420 0.002681
0.957659 0.059598 0.011409
0.980219 0.099335 0.000024
0.999733 0.133580 0.000236
0.999290 0.164596 0.000030
1.000000 0.192380 0.000959
0.000000 0.019205 0.003208
0.000011 0.019194 0.003208
0.004035 0.022573 0.000511
0.011432 0.020568 0.001280
0.028081 0.030783 0.000777
0.053708 0.043206 0.000598
0.082807 0.052572 0.002486
0.115488 0.057459 0.000881
0.146320 0.062573 0.002048
0.179901 0.070339 0.000739
0.220718 0.073063 0.001898
0.269603 0.073403 0.002767
0.313768 0.073318 0.002851
0.361499 0.069334 0.001851
0.408565 0.065064 0.001902
0.455186 0.057279 0.001360
0.500297 0.043870 0.001035
0.543854 0.029116 0.001663
0.585168 0.015627 0.001556
0.626731 0.005682 0.002282
0.671409 0.001069 0.002378
0.709140 0.000358 0.000413
0.749462 0.000111 0.000706
0.785817 0.000683 0.001683
0.818996 0.001742 0.000263
0.856320 0.007246 0.000568
0.891210 0.030085 0.002655
0.920625 0.059236 0.003432
0.955101 0.090726 0.004233
0.980795 0.121900 0.002964
0.999761 0.152253 0.000566
0.996631 0.179803 0.000003
1.000000 0.201037 0.000094
0.000454 0.038193 0.004769
0.000324 0.038296 0.003915
0.000682 0.039287 0.003716
0.010620 0.039048 0.006943
0.020835 0.048730 0.006601
0.051164 0.057878 0.003607
0.079969 0.068836 0.000898
0.115319 0.077262 0.000775
0.152685 0.083832 0.005639
0.190008 0.086686 0.002032
0.231263 0.089646 0.000540
0.275323 0.092803 0.002441
0.320330 0.093384 0.001488
0.368483 0.090570 0.000254
0.413319 0.086351 0.001553
0.457411 0.081507 0.001503
0.502201 0.073679 0.000595
0.546438 0.063592 0.000683
0.588546 0.054712 0.002842
0.629402 0.046183 0.004063
0.673176 0.035888 0.001299
0.713587 0.028376 0.000980
0.750721 0.028022 0.001706
0.787784 0.030358 0.001520
0.824123 0.037765 0.002250
0.860920 0.054004 0.002670
0.893175 0.073202 0.002253
0.923048 0.096666 0.001045
0.950410 0.119256 0.003874
0.977788 0.147915 0.000820
0.996279 0.172379 0.000075
0.998585 0.195474 0.000000
1.000000 0.222599 0.000000
0.008939 0.063683 0.013467
0.000335 0.061532 0.010646
0.000039 0.061556 0.010590
0.001650 0.064566 0.006613
0.017782 0.067219 0.010744
0.041729 0.076232 0.010161
0.069478 0.087625 0.004561
0.105789 0.099684 0.003263
0.154706 0.107040 0.003565
0.193817 0.111407 0.001033
0.239444 0.114490 0.003880
0.284750 0.115752 0.003693
0.329380 0.116998 0.001468
0.376092 0.116380 0.001955
0.420485 0.112824 0.001754
0.465132 0.107968 0.001339
0.506992 0.104440 0.000879
0.549996 0.098088 0.000576
0.594272 0.091102 0.002888
0.634240 0.086855 0.003671
0.677417 0.080594 0.002230
0.718516 0.077025 0.002712
0.753084 0.077680 0.001014
0.789406 0.081251 0.000233
0.826013 0.087584 0.001412
0.859944 0.102218 0.003993
0.894368 0.117770 0.001718
0.922943 0.132067 0.000474
0.952914 0.149601 0.003412
0.977462 0.174772 0.005538
0.993060 0.195213 0.001014
0.997135 0.217981 0.007858
1.000000 0.239203 0.000000
0.004547 0.091661 0.016186
0.003121 0.091683 0.016097
0.000192 0.091196 0.013188
0.000269 0.094434 0.014590
0.005900 0.098021 0.017788
0.028620 0.103388 0.017099
0.057600 0.110801 0.008945
0.095475 0.121473 0.003700
0.145005 0.133523 0.002470
0.191771 0.141360 0.000669
0.240748 0.146993 0.003185
0.288433 0.147241 0.001904
0.333404 0.146781 0.000282
0.381652 0.144094 0.001539
0.425468 0.140223 0.003523
0.470195 0.136198 0.005830
0.514835 0.135270 0.007219
0.557710 0.131331 0.004947
0.598983 0.125750 0.001695
0.637828 0.125480 0.000667
0.680343 0.122179 0.001534
0.720054 0.119912 0.002802
0.755489 0.123503 0.001953
0.788773 0.127094 0.003008
0.825940 0.132733 0.002469
0.864483 0.139707 0.004099
0.898762 0.150375 0.002089
0.925969 0.167339 0.000939
0.949066 0.185251 0.000699
0.977631 0.201448 0.001871
0.995962 0.218405 0.001217
0.998801 0.238834 0.002427
1.000000 0.261889 0.002579
0.001386 0.122743 0.021670
0.001515 0.125166 0.024116
0.000743 0.125113 0.023412
0.001023 0.123386 0.028362
0.001438 0.124553 0.027685
0.010802 0.132372 0.023011
0.041141 0.137696 0.016148
0.082791 0.143469 0.013775
0.130067 0.156508 0.004997
0.183186 0.170147 0.000608
0.237641 0.177205 0.001104
0.287108 0.180095 0.000552
0.338583 0.179378 0.000313
0.388235 0.175545 0.000501
0.429771 0.171429 0.001246
0.474676 0.169310 0.003462
0.521432 0.169250 0.004626
0.564812 0.165888 0.002569
0.605727 0.161184 0.001480
0.645486 0.160028 0.003310
0.685711 0.158998 0.003837
0.722055 0.159489 0.002167
0.758659 0.161723 0.000482
0.793294 0.164250 0.001702
0.828902 0.169233 0.003155
0.861405 0.176971 0.001954
0.898484 0.187551 0.002417
0.928754 0.199995 0.000231
0.952914 0.212427 0.000319
0.980499 0.227074 0.002338
0.996921 0.244600 0.000409
0.994643 0.266598 0.002377
0.999309 0.284732 0.000694
0.000221 0.156853 0.033020
0.003082 0.160445 0.036597
0.002444 0.159831 0.036004
0.002748 0.159278 0.037582
0.003786 0.158811 0.037296
0.002448 0.164758 0.036819
0.013884 0.171573 0.030773
0.057558 0.175077 0.022863
0.107889 0.188089 0.015615
0.163631 0.196752 0.007503
0.225499 0.208989 0.002245
0.281458 0.218562 0.000336
0.333934 0.220198 0.001044
0.385567 0.216749 0.001698
0.434406 0.211641 0.001197
0.481852 0.205663 0.000895
0.527393 0.200669 0.000874
0.570195 0.196880 0.000405
0.610644 0.195194 0.001325
0.651467 0.195385 0.002815
0.689896 0.194805 0.001850
0.722926 0.195799 0.000501
0.761853 0.198061 0.000679
0.799457 0.200625 0.001848
0.832851 0.205406 0.000982
0.864867 0.213438 0.000858
0.897571 0.222933 0.000620
0.926678 0.232927 0.000000
0.957693 0.244474 0.000570
0.983671 0.260232 0.004135
0.997011 0.271586 0.000140
0.998314 0.292018 0.002189
0.999023 0.310791 0.000755
0.000000 0.194479 0.047678
0.001073 0.196338 0.049528
0.000834 0.195528 0.048726
0.001155 0.193603 0.050809
0.001692 0.195246 0.056654
0.003046 0.197726 0.053425
0.002976 0.206462 0.046808
0.033320 0.210910 0.037751
0.085753 0.223057 0.034726
0.144912 0.227594 0.024364
0.203935 0.236138 0.010136
0.271632 0.250262 0.003604
0.331991 0.258828 0.001505
0.384432 0.259883 0.001423
0.435197 0.255446 0.002093
0.483741 0.249788 0.001077
0.530451 0.241845 0.000000
0.574396 0.233231 0.000000
0.615893 0.230644 0.001076
0.656980 0.229774 0.001635
0.694251 0.228698 0.000951
0.728214 0.232194 0.001195
0.764714 0.234171 0.000255
0.801294 0.236986 0.000814
0.837652 0.240931 0.000830
0.866982 0.247102 0.000691
0.900262 0.256205 0.000152
0.930028 0.266373 0.000685
0.958607 0.276655 0.000348
0.985319 0.287572 0.002524
0.998116 0.302116 0.000155
0.998419 0.320458 0.002406
0.999717 0.337038 0.000283
0.000000 0.230383 0.062132
0.000000 0.233327 0.065238
0.000000 0.233162 0.066554
0.000104 0.232289 0.068077
0.004727 0.231203 0.074527
0.002008 0.236673 0.071910
0.006904 0.239842 0.071302
0.014083 0.245309 0.064255
0.065915 0.254313 0.062610
0.127309 0.258506 0.051375
0.187079 0.266656 0.034692
0.251236 0.278620 0.022522
0.318097 0.292963 0.009383
0.379354 0.300836 0.001759
0.433184 0.299539 0.000735
0.483630 0.294748 0.000425
0.530454 0.287980 0.000000
0.576090 0.280586 0.000403
0.619814 0.274404 0.000797
0.660364 0.268127 0.000425
0.698265 0.265535 0.000659
0.731013 0.268097 0.001153
0.767709 0.269253 0.000000
0.805782 0.272247 0.000341
0.840580 0.276906 0.001587
0.867313 0.283562 0.002420
0.903185 0.289375 0.001876
0.932443 0.300784 0.003512
0.958092 0.310889 0.000826
0.984241 0.319695 0.000536
0.999539 0.331526 0.000052
0.999235 0.348138 0.000918
1.000000 0.361883 0.003651
0.001662 0.270327 0.079698
0.003273 0.274130 0.083583
0.000208 0.272695 0.086305
0.000000 0.271756 0.088115
0.003302 0.271670 0.093918
0.003395 0.274173 0.093918
0.003803 0.275638 0.092932
0.002864 0.281664 0.089196
0.047118 0.287370 0.085785
0.109582 0.293302 0.075873
0.170359 0.300290 0.064481
0.230320 0.308451 0.055644
0.295924 0.318408 0.042753
0.362965 0.330684 0.025103
0.423996 0.340324 0.008543
0.479105 0.341528 0.001514
0.528600 0.335899 0.001662
0.575032 0.329379 0.001543
0.620124 0.323422 0.000524
0.661364 0.316108 0.000000
0.699036 0.309398 0.000181
0.735112 0.305483 0.000317
0.772119 0.304218 0.000232
0.809572 0.308050 0.001166
0.844309 0.313163 0.001994
0.871601 0.318527 0.001102
0.904035 0.325116 0.001310
0.930882 0.335316 0.003745
0.954916 0.344355 0.002307
0.983058 0.354160 0.001460
0.999842 0.364613 0.001766
0.999853 0.377012 0.000950
0.999079 0.389758 0.001825
0.000950 0.311787 0.103912
0.002794 0.309374 0.103882
0.001072 0.308405 0.104944
0.000954 0.307869 0.106224
0.002019 0.311064 0.113653
0.001942 0.310919 0.114696
0.000356 0.311966 0.114079
0.000000 0.317091 0.110981
0.030713 0.323040 0.107578
0.095521 0.328526 0.102248
0.159253 0.335068 0.093753
0.218210 0.340850 0.086083
0.279374 0.347894 0.077797
0.342230 0.358057 0.062809
0.407071 0.371239 0.039750
0.470103 0.381781 0.018833
0.524490 0.382254 0.006796
0.572024 0.378023 0.003717
0.617412 0.374108 0.002693
0.659800 0.367901 0.000000
0.700327 0.360410 0.000000
0.739303 0.351958 0.000000
0.774205 0.346319 0.000675
0.811222 0.346343 0.002022
0.845793 0.348564 0.001492
0.872901 0.354161 0.000745
0.903231 0.361263 0.000765
0.932201 0.369002 0.003992
0.958296 0.378559 0.003497
0.984002 0.386338 0.003279
0.999764 0.396584 0.003244
0.999724 0.409525 0.001896
0.994953 0.421982 0.000000
0.000000 0.348891 0.123880
0.000741 0.346463 0.123019
0.001546 0.345400 0.124741
0.003503 0.344792 0.125812
0.002509 0.346953 0.133375
0.001512 0.348316 0.136215
0.001845 0.348762 0.139356
0.000839 0.349464 0.135514
0.021418 0.354699 0.131900
0.087803 0.363134 0.129907
0.153762 0.370378 0.123948
0.213016 0.374264 0.113955
0.267103 0.380957 0.108054
0.323063 0.388525 0.097946
0.384700 0.395050 0.081694
0.450010 0.407903 0.062584
0.513652 0.420799 0.043410
0.567512 0.424106 0.023794
0.612711 0.422715 0.006793
0.655500 0.419002 0.000184
0.698366 0.412061 0.000650
0.739334 0.405113 0.000642
0.773938 0.398282 0.001479
0.809581 0.393759 0.004175
0.842670 0.389742 0.002346
0.875120 0.391086 0.001109
0.904578 0.396236 0.001508
0.933607 0.403841 0.003664
0.960866 0.412120 0.002772
0.983576 0.417848 0.001786
0.998489 0.428496 0.001593
0.999706 0.441020 0.003139
0.994362 0.452079 0.001957
0.000000 0.383570 0.143860
0.000103 0.383622 0.143924
0.000683 0.383831 0.145216
0.003027 0.383445 0.146700
0.001284 0.384358 0.153464
0.003159 0.385216 0.157874
0.003290 0.385070 0.163123
0.001008 0.384007 0.159481
0.016343 0.388955 0.155249
0.081717 0.397063 0.155666
0.148772 0.402687 0.152955
0.207561 0.405850 0.143043
0.259005 0.413829 0.139373
0.312480 0.421124 0.132517
0.369102 0.424644 0.121084
0.427665 0.433800 0.109088
0.492649 0.449382 0.091620
0.556336 0.462699 0.068434
0.607853 0.468097 0.042234
0.651959 0.465767 0.019073
0.695076 0.461353 0.005983
0.734951 0.458025 0.000473
0.771374 0.453454 0.001318
0.805940 0.446968 0.004019
0.839682 0.439358 0.002728
0.875688 0.434408 0.000678
0.905663 0.435529 0.001852
0.932989 0.439881 0.002358
0.961558 0.446384 0.001707
0.983586 0.452712 0.000145
0.997700 0.460348 0.000236
0.996828 0.472735 0.003742
0.997015 0.481392 0.002438
0.001005 0.418248 0.165011
0.001005 0.418248 0.166959
0.000063 0.420971 0.168040
0.001663 0.419272 0.167875
0.000229 0.421180 0.174204
0.003837 0.420885 0.176581
0.003695 0.419014 0.181188
0.000765 0.418830 0.181946
0.018092 0.423077 0.179746
0.084263 0.429348 0.181194
0.149519 0.434371 0.178308
0.205139 0.439051 0.170853
0.256668 0.446342 0.167298
0.308170 0.451649 0.161454
0.360389 0.455934 0.151451
0.412979 0.462832 0.141756
0.470844 0.472498 0.129937
0.534666 0.487113 0.115513
0.594599 0.502612 0.094587
0.645093 0.509639 0.066047
0.689699 0.509501 0.039227
0.730592 0.507697 0.017484
0.768567 0.504637 0.005244
0.803011 0.500436 0.001354
0.836221 0.494548 0.001116
0.869056 0.488512 0.000181
0.902041 0.483485 0.001018
0.931915 0.480491 0.001836
0.960291 0.481498 0.001738
0.984296 0.487694 0.000911
0.996807 0.493169 0.000304
0.996478 0.503497 0.004778
0.999170 0.511103 0.001900
0.000946 0.455857 0.185318
0.001862 0.454009 0.186234
0.000118 0.456681 0.190126
0.000857 0.456006 0.191988
0.000118 0.455690 0.193916
0.003631 0.456147 0.197322
0.003943 0.453250 0.203411
0.002776 0.453300 0.206803
0.030682 0.454925 0.204125
0.097049 0.460761 0.203856
0.156003 0.466343 0.200915
0.208237 0.473363 0.197971
0.256155 0.478386 0.192341
0.304866 0.482997 0.187103
0.355449 0.488041 0.180529
0.405302 0.494338 0.172890
0.455498 0.501526 0.164131
0.511336 0.511747 0.152226
0.572286 0.527028 0.136786
0.631272 0.542849 0.120531
0.682440 0.552525 0.098654
0.724287 0.553678 0.067060
0.763055 0.552114 0.040033
0.798546 0.550812 0.016329
0.831757 0.548687 0.005699
0.862966 0.543195 0.000000
0.896384 0.536811 0.000355
0.926622 0.530818 0.001754
0.953665 0.526537 0.000999
0.982204 0.526822 0.000857
0.995664 0.527816 0.000186
0.999084 0.534398 0.003003
1.000000 0.540223 0.003845
0.000000 0.491748 0.206526
0.001029 0.489840 0.205607
0.000844 0.493351 0.210326
0.000078 0.494391 0.213928
0.000889 0.489427 0.212379
0.003535 0.491124 0.219241
0.002450 0.489252 0.225354
0.006354 0.488017 0.228308
0.048771 0.489242 0.225603
0.111869 0.493016 0.226286
0.164666 0.498679 0.226049
0.214321 0.505629 0.223263
0.258979 0.509732 0.218271
0.304802 0.516207 0.213945
0.353494 0.522267 0.210758
0.400465 0.527737 0.202959
0.445824 0.535897 0.192203
0.496270 0.544128 0.183558
0.552558 0.552911 0.173834
0.610206 0.566344 0.164173
0.666964 0.583233 0.151628
0.716101 0.595560 0.128481
0.756341 0.597783 0.101181
0.791984 0.597791 0.067664
0.825819 0.597687 0.044951
0.857567 0.592195 0.024709
0.889889 0.588653 0.007806
0.919581 0.583319 0.001705
0.947971 0.579789 0.000127
0.974347 0.574595 0.000921
0.992639 0.569221 0.000227
0.999887 0.570145 0.003634
0.998155 0.571430 0.003845
0.000000 0.524535 0.228685
0.001088 0.524653 0.228804
0.002869 0.528684 0.231691
0.002240 0.529899 0.233096
0.003954 0.524396 0.233508
0.003135 0.525836 0.236238
0.001093 0.526245 0.240423
0.013751 0.524986 0.245066
0.070286 0.525246 0.248281
0.129824 0.526837 0.250792
0.176802 0.531984 0.251310
0.221851 0.537706 0.246796
0.264756 0.542415 0.241668
0.308060 0.549323 0.237976
0.352402 0.555991 0.236438
0.396504 0.561242 0.228778
0.441896 0.567599 0.218675
0.491063 0.575917 0.213427
0.541366 0.585295 0.207611
0.590140 0.594339 0.199565
0.643670 0.607285 0.190692
0.700331 0.625142 0.178386
0.747734 0.636312 0.159744
0.787359 0.641307 0.133971
0.820751 0.642039 0.110585
0.850132 0.639020 0.085305
0.882061 0.636358 0.054450
0.913267 0.631584 0.034548
0.940700 0.629129 0.023347
0.964468 0.623533 0.010797
0.988407 0.618731 0.000309
0.999761 0.613872 0.004881
0.997785 0.611252 0.002985
0.001227 0.559951 0.251846
0.002074 0.559469 0.251364
0.003581 0.562682 0.254007
0.003893 0.564457 0.255409
0.004898 0.562939 0.255925
0.002648 0.563675 0.256309
0.002651 0.563655 0.258639
0.033803 0.563722 0.264750
0.093773 0.562842 0.270472
0.150050 0.563334 0.272275
0.191982 0.566847 0.270919
0.233151 0.571828 0.270671
0.272326 0.578013 0.264732
0.312866 0.584665 0.261983
0.354112 0.591168 0.260439
0.395280 0.597138 0.255950
0.440888 0.600978 0.249758
0.489468 0.608273 0.243620
0.535654 0.618405 0.238121
0.580069 0.625784 0.231590
0.626420 0.633726 0.224273
0.676426 0.644628 0.216589
0.729282 0.661421 0.206443
0.777623 0.676631 0.189640
0.814389 0.683036 0.170243
0.843355 0.682090 0.151642
0.874914 0.678774 0.129849
0.904878 0.675815 0.107230
0.929652 0.674098 0.086943
0.956325 0.669535 0.062209
0.982918 0.666369 0.038577
0.997265 0.661986 0.027088
1.000000 0.657253 0.019325
0.002415 0.598023 0.273113
0.002504 0.598093 0.273183
0.002374 0.600627 0.275024
0.002573 0.601698 0.278098
0.004046 0.601972 0.278491
0.002654 0.602886 0.281841
0.009650 0.600871 0.280906
0.062134 0.601146 0.285766
0.117909 0.602228 0.291424
0.169394 0.601178 0.293403
0.209171 0.603437 0.290990
0.248281 0.607205 0.291881
0.284196 0.613082 0.290208
0.321622 0.619285 0.288398
0.360658 0.624686 0.285382
0.398967 0.631525 0.280957
0.440746 0.637224 0.276811
0.485619 0.642842 0.272934
0.529767 0.650109 0.268360
0.573600 0.657020 0.261817
0.616826 0.663987 0.255448
0.660094 0.670932 0.249586
0.707903 0.682364 0.242052
0.756722 0.699147 0.234061
0.800293 0.713428 0.223589
0.836518 0.718627 0.208714
0.869156 0.717141 0.193164
0.897356 0.714816 0.176613
0.923705 0.714937 0.162173
0.949424 0.711506 0.147575
0.973762 0.706014 0.125066
0.992941 0.705283 0.101572
0.999050 0.701458 0.082134
0.001834 0.638120 0.294890
0.003820 0.640188 0.296917
0.002054 0.640057 0.297103
0.003132 0.640796 0.300796
0.004613 0.640038 0.303791
0.005586 0.640498 0.302597
0.037210 0.638993 0.303610
0.094282 0.640933 0.305519
0.148505 0.640687 0.314897
0.192428 0.638548 0.315702
0.228899 0.639494 0.315118
0.263248 0.642520 0.315223
0.297976 0.646664 0.314561
0.334035 0.652297 0.314841
0.370401 0.657616 0.312394
0.406704 0.664763 0.306873
0.444920 0.670989 0.303159
0.485857 0.676770 0.301095
0.526312 0.683615 0.297200
0.567477 0.689582 0.293608
0.609938 0.696060 0.290618
0.650484 0.702298 0.284211
0.693733 0.709311 0.276398
0.736008 0.716260 0.269003
0.780865 0.729646 0.267400
0.825918 0.745860 0.261224
0.863615 0.752297 0.253897
0.891893 0.751229 0.237804
0.919025 0.750228 0.225461
0.943404 0.747744 0.213129
0.966818 0.741828 0.197400
0.991095 0.742702 0.185728
0.998338 0.742621 0.174128
0.002693 0.677599 0.323522
0.002946 0.678014 0.323857
0.001885 0.678588 0.325241
0.005311 0.678474 0.325368
0.014970 0.680011 0.326399
0.039252 0.679481 0.326084
0.093380 0.677507 0.329242
0.140279 0.678210 0.328563
0.181222 0.678614 0.336522
0.217197 0.677773 0.337354
0.251854 0.677668 0.340226
0.282974 0.679083 0.344707
0.315682 0.681716 0.343055
0.347714 0.687757 0.341456
0.380588 0.693508 0.339735
0.415778 0.699908 0.338294
0.452893 0.704320 0.336287
0.492162 0.708155 0.332024
0.529248 0.714417 0.328157
0.564640 0.719063 0.325546
0.603141 0.724223 0.323631
0.642969 0.730819 0.319979
0.683692 0.736012 0.313100
0.722151 0.741394 0.307552
0.759630 0.748723 0.304540
0.804253 0.761857 0.304902
0.850430 0.774974 0.302621
0.885400 0.781249 0.293239
0.911556 0.780619 0.283095
0.933011 0.781071 0.271006
0.961409 0.778123 0.257864
0.986349 0.777512 0.247641
0.999132 0.776508 0.240248
0.019480 0.717329 0.350705
0.022672 0.715358 0.350073
0.029736 0.712594 0.348225
0.041099 0.715771 0.350120
0.074443 0.715899 0.349597
0.119599 0.713280 0.355899
0.153279 0.715350 0.359325
0.186001 0.712815 0.356444
0.216558 0.715953 0.362898
0.246772 0.713650 0.364881
0.277864 0.713982 0.368054
0.306268 0.715163 0.371286
0.335643 0.716918 0.373643
0.366410 0.720835 0.371252
0.396962 0.725178 0.367582
0.429847 0.729878 0.369225
0.463398 0.734592 0.369509
0.496988 0.740142 0.365497
0.531723 0.744773 0.361871
0.565944 0.749243 0.359167
0.601635 0.755165 0.357625
0.639856 0.758726 0.354734
0.678186 0.763933 0.350707
0.715556 0.767312 0.348659
0.749147 0.771000 0.342797
0.784592 0.777324 0.341881
0.826486 0.789295 0.339459
0.870290 0.801874 0.342385
0.899795 0.806537 0.337942
0.924055 0.807418 0.327937
0.954225 0.807626 0.316110
0.977196 0.809217 0.308533
0.996081 0.808630 0.306342
0.090591 0.751740 0.375588
0.103754 0.749241 0.377391
0.121660 0.747880 0.374023
0.143824 0.747553 0.379872
0.162986 0.746454 0.379994
0.187776 0.748044 0.384665
0.204761 0.750506 0.384955
0.233993 0.746905 0.385886
0.260620 0.748499 0.390333
0.286576 0.747559 0.392374
0.309908 0.747479 0.399456
0.335089 0.748658 0.405426
0.363908 0.748407 0.409247
0.393465 0.751168 0.405649
0.420223 0.754783 0.400512
0.448921 0.758970 0.400852
0.476711 0.762817 0.402229
0.505700 0.766343 0.401590
0.540990 0.770946 0.401186
0.575344 0.775616 0.399820
0.607964 0.780557 0.397938
0.642620 0.784570 0.395435
0.676562 0.787892 0.388677
0.708610 0.791295 0.388728
0.740240 0.795078 0.389717
0.773226 0.798821 0.383564
0.807513 0.805926 0.378272
0.846839 0.814503 0.382629
0.885389 0.825502 0.385152
0.916928 0.831218 0.385826
0.947831 0.832317 0.377014
0.971143 0.834120 0.368643
0.991173 0.838790 0.367867
0.193911 0.780205 0.409723
0.200053 0.779957 0.411923
0.209306 0.778619 0.412323
0.221009 0.778514 0.415826
0.232924 0.779600 0.414060
0.249844 0.781276 0.413669
0.263255 0.781098 0.414643
0.287205 0.779220 0.422473
0.303248 0.780728 0.423855
0.325390 0.781853 0.428397
0.350918 0.778844 0.437332
0.372800 0.778942 0.442405
0.397271 0.779217 0.444083
0.423202 0.782393 0.442453
0.446357 0.785293 0.438820
0.471050 0.787232 0.437477
0.496732 0.790009 0.438779
0.524205 0.792450 0.440033
0.554880 0.796431 0.441179
0.583846 0.799556 0.440658
0.613870 0.801187 0.438366
0.646538 0.807500 0.438183
0.676020 0.811480 0.436312
0.707627 0.812683 0.432836
0.739589 0.819254 0.431654
0.766317 0.821333 0.427605
0.798268 0.824944 0.424641
0.833067 0.828614 0.425096
0.865716 0.839772 0.427233
0.900888 0.852115 0.436210
0.936358 0.857165 0.438113
0.963185 0.859058 0.430345
0.982762 0.863257 0.424262
0.272064 0.804420 0.443516
0.277056 0.807635 0.447559
0.284642 0.810301 0.451130
0.290451 0.810028 0.453800
0.302427 0.806724 0.448042
0.313698 0.806779 0.450726
0.323738 0.809572 0.456442
0.340418 0.809838 0.461442
0.355823 0.809600 0.463276
0.372007 0.808807 0.470191
0.393621 0.805523 0.474525
0.414877 0.807046 0.476604
0.436260 0.806690 0.480895
0.457006 0.808775 0.486599
0.477147 0.810869 0.484736
0.499912 0.812667 0.482381
0.523381 0.815650 0.483840
0.548025 0.817895 0.483976
0.572349 0.820878 0.483202
0.596297 0.824223 0.481350
0.623280 0.827633 0.479555
0.649622 0.831762 0.479121
0.678606 0.832935 0.477855
0.708889 0.836205 0.480894
0.740200 0.843498 0.481302
0.765997 0.844009 0.474042
