ml_luts/presetpro_portrait_160__lut3d_33.cube
TITLE "Presetpro - Portrait 160.jpg"
DOMAIN_MIN 0.000000 0.000000 0.000000
DOMAIN_MAX 1.000000 1.000000 1.000000
LUT_3D_SIZE 5
0.000000 0.000000 0.000000
0.141052 0.024857 0.006714
0.431778 0.000808 0.009353
0.757843 0.001739 0.000000
0.987457 0.172546 0.000000
0.002350 0.159974 0.043304
0.110073 0.187755 0.018103
0.485733 0.169323 0.000572
0.781965 0.177586 0.002042
0.991798 0.318840 0.000770
0.000763 0.449097 0.121597
0.051933 0.448399 0.128140
0.448288 0.509468 0.001282
0.798157 0.533153 0.000000
0.996048 0.543930 0.000000
0.020966 0.727700 0.300568
0.203817 0.724768 0.305904
0.456161 0.738823 0.286675
0.734722 0.772785 0.178408
0.995552 0.798638 0.000008
0.470581 0.952942 0.558411
0.537567 0.953911 0.564270
0.630295 0.957641 0.576447
0.747993 0.978218 0.553116
0.934113 0.996857 0.492554
0.001739 0.021347 0.175911
0.146782 0.037005 0.178852
0.456250 0.001144 0.172336
0.761778 0.008815 0.207035
0.986053 0.213142 0.220009
0.002659 0.187395 0.194460
0.159660 0.204586 0.206446
0.489842 0.206132 0.205213
0.781429 0.228103 0.205879
0.987881 0.342881 0.210949
0.012638 0.479523 0.298538
0.133391 0.478083 0.285735
0.487856 0.520014 0.236914
0.801230 0.523915 0.169575
0.993782 0.549389 0.168144
0.212229 0.734701 0.422806
0.315925 0.732311 0.423933
0.491851 0.738418 0.416730
0.740941 0.774556 0.351021
0.992283 0.800005 0.263121
0.480606 0.956680 0.623497
0.545370 0.956074 0.632466
0.640965 0.957237 0.638806
0.756765 0.976742 0.626524
0.937675 0.995727 0.573547
0.001526 0.062789 0.480332
0.182217 0.068874 0.486885
0.539497 0.063881 0.507019
0.793083 0.087193 0.485428
0.992203 0.206360 0.481140
0.000660 0.226536 0.494553
0.219732 0.242140 0.505413
0.555254 0.278053 0.521290
0.793589 0.297090 0.502705
0.988957 0.346890 0.493946
0.022224 0.512573 0.515724
0.282545 0.519692 0.524479
0.560986 0.539608 0.543739
0.781061 0.542713 0.529179
0.971405 0.572235 0.521637
0.400467 0.751152 0.611515
0.488801 0.750403 0.616538
0.579739 0.750248 0.606367
0.752416 0.779162 0.583496
0.988976 0.786697 0.538376
0.531815 0.959213 0.723495
0.584457 0.961864 0.719555
0.660339 0.963127 0.722717
0.772762 0.974285 0.721813
0.945953 0.996094 0.686676
0.198716 0.135330 0.758629
0.383179 0.150505 0.761168
0.638286 0.214706 0.768265
0.829658 0.316460 0.772257
0.977073 0.381783 0.759407
0.226082 0.305273 0.760202
0.398433 0.317141 0.762103
0.637140 0.372689 0.768376
0.817065 0.450952 0.777539
0.968717 0.491241 0.759108
0.152275 0.537228 0.751263
0.348435 0.542373 0.754560
0.612690 0.577141 0.768635
0.799524 0.631276 0.779955
0.964672 0.639866 0.771446
0.382832 0.767608 0.766323
0.474904 0.769187 0.766891
0.617903 0.775692 0.773183
0.784240 0.791249 0.787687
0.976847 0.783321 0.766888
0.551972 0.969238 0.828857
0.616901 0.971203 0.828968
0.715370 0.971798 0.834015
0.808520 0.977505 0.832466
0.968094 0.999039 0.817467
0.520782 0.417267 0.952942
0.601524 0.436241 0.954682
0.726685 0.473022 0.955368
0.861801 0.531761 0.946236
1.000000 0.567841 0.946655
0.520599 0.519791 0.950592
0.603573 0.528904 0.955601
0.723381 0.560867 0.952759
0.863672 0.611374 0.951387
0.999390 0.639008 0.948410
0.490921 0.651337 0.952179
0.574837 0.658672 0.953678
0.706268 0.677681 0.954132
0.856529 0.714024 0.952686
1.000000 0.740753 0.953003
0.463173 0.813164 0.957733
0.532942 0.813105 0.955986
0.645039 0.809136 0.954651
0.832279 0.828304 0.959318
0.998787 0.858849 0.953293
0.549011 0.990570 0.959198
0.614678 0.994843 0.956261
0.708619 0.995331 0.956894
0.837830 0.996064 0.960000
1.000000 1.000000 0.962341
