ml_luts/presetpro_fuji_provia__lut3d_33.cube
TITLE "Presetpro - Fuji Provia +.jpg"
DOMAIN_MIN 0.000000 0.000000 0.000000
DOMAIN_MAX 1.000000 1.000000 1.000000
LUT_3D_SIZE 9
0.000000 0.000000 0.000000
0.042164 0.010788 0.000000
0.130372 0.013291 0.000763
0.292034 0.000950 0.000000
0.484314 0.002975 0.004883
0.673080 0.000000 0.006931
0.833336 0.001518 0.000763
0.980087 0.004772 0.003491
0.996063 0.207855 0.003937
0.002991 0.047886 0.015205
0.048807 0.058330 0.014859
0.163152 0.057758 0.004821
0.318171 0.036210 0.001251
0.502171 0.001223 0.000275
0.679135 0.004176 0.000607
0.841153 0.001011 0.003836
0.977555 0.096982 0.001238
0.999557 0.268680 0.006946
0.002174 0.153915 0.027466
0.000692 0.150171 0.027697
0.150724 0.185311 0.005615
0.360027 0.191583 0.001555
0.527332 0.176571 0.001244
0.693645 0.173298 0.000293
0.853901 0.203407 0.002520
0.983136 0.275880 0.008037
0.999779 0.377434 0.000000
0.002983 0.293682 0.036274
0.002981 0.289939 0.041091
0.065665 0.307487 0.024706
0.337080 0.359638 0.002579
0.570360 0.379457 0.002119
0.722771 0.375021 0.000651
0.861344 0.394755 0.001265
0.980191 0.442492 0.000579
0.994529 0.512176 0.000950
0.001007 0.442124 0.065659
0.001902 0.435896 0.069643
0.001587 0.429485 0.087700
0.257616 0.475456 0.024875
0.517776 0.537254 0.001549
0.747761 0.585235 0.001226
0.871098 0.589737 0.001007
0.972008 0.611784 0.001190
1.000000 0.652878 0.003036
0.000526 0.583828 0.111778
0.004032 0.578458 0.117391
0.002981 0.575861 0.123241
0.203663 0.585727 0.123778
0.445471 0.646473 0.040371
0.681368 0.711723 0.002061
0.869025 0.761825 0.001749
0.957634 0.769353 0.000840
0.999474 0.785332 0.000000
0.002953 0.743149 0.172096
0.001582 0.744990 0.170592
0.000654 0.739325 0.181591
0.194276 0.728740 0.197325
0.420566 0.763119 0.178264
0.628320 0.811593 0.140894
0.814167 0.852257 0.051670
0.939889 0.885706 0.001518
1.000000 0.883866 0.000000
0.003433 0.891224 0.290493
0.009206 0.884310 0.293669
0.096322 0.886159 0.303020
0.317892 0.884817 0.316796
0.474016 0.886076 0.329948
0.646832 0.906299 0.330973
0.792304 0.927039 0.331948
0.904080 0.943431 0.312735
0.999954 0.956967 0.264171
0.474518 0.992157 0.564697
0.494564 0.992611 0.573974
0.535515 0.989983 0.576469
0.607872 0.990677 0.600456
0.674515 0.990204 0.629470
0.747612 0.989700 0.646110
0.820831 0.997505 0.646843
0.897640 0.996567 0.639267
0.980377 0.996063 0.615692
0.007950 0.000000 0.062214
0.053128 0.003887 0.066032
0.139680 0.010343 0.054999
0.302782 0.001673 0.058800
0.491007 0.000378 0.057707
0.678191 0.000454 0.043033
0.836581 0.001950 0.012740
0.980366 0.010213 0.003333
1.000000 0.230404 0.000000
0.000081 0.057880 0.069923
0.044311 0.066299 0.070607
0.163115 0.066038 0.070060
0.329457 0.047515 0.066047
0.510688 0.005448 0.055835
0.683972 0.000378 0.033319
0.842519 0.005152 0.003026
0.987250 0.133690 0.005574
0.999229 0.281618 0.000511
0.000107 0.171974 0.092355
0.004250 0.170384 0.086968
0.169920 0.193518 0.078406
0.362518 0.193469 0.061040
0.535080 0.187160 0.040220
0.701898 0.188698 0.014856
0.855090 0.218008 0.000945
0.980400 0.288010 0.002771
0.996983 0.385151 0.001997
0.003537 0.311787 0.106260
0.002243 0.308958 0.111313
0.105033 0.312469 0.111170
0.350607 0.363903 0.057344
0.571353 0.383298 0.004985
0.722550 0.380268 0.001151
0.859522 0.402706 0.002667
0.980561 0.449899 0.001390
0.995069 0.517227 0.001668
0.000103 0.457907 0.130823
0.004057 0.454072 0.134058
0.018145 0.445327 0.141560
0.274558 0.479163 0.122215
0.524157 0.542274 0.032685
0.747870 0.584909 0.001637
0.871131 0.588986 0.001967
0.971820 0.611612 0.000372
0.998140 0.653288 0.003294
0.000835 0.596212 0.165873
0.001000 0.595134 0.173385
0.002083 0.587262 0.178512
0.225526 0.589660 0.183020
0.453913 0.649358 0.141786
0.684222 0.714611 0.039534
0.870390 0.763161 0.002713
0.958825 0.767071 0.000660
0.998859 0.787631 0.001102
0.003371 0.750050 0.207604
0.002134 0.749677 0.213260
0.002216 0.743582 0.222551
0.211213 0.737610 0.235913
0.425355 0.762844 0.229122
0.632479 0.811425 0.205201
0.813930 0.854378 0.165301
0.937606 0.884702 0.086138
1.000000 0.887777 0.084649
0.001373 0.891882 0.317426
0.002669 0.890634 0.324030
0.108842 0.890467 0.324274
0.325775 0.886727 0.345315
0.476308 0.885593 0.356957
0.646111 0.906656 0.364547
0.790820 0.925372 0.362015
0.902072 0.943745 0.355524
0.998389 0.954642 0.314947
0.475006 0.995670 0.577404
0.496840 0.989683 0.587789
0.536486 0.994460 0.595361
0.600775 0.992095 0.613851
0.671585 0.987802 0.637790
0.745288 0.989042 0.655305
0.817460 0.995814 0.655949
0.891424 0.999960 0.652321
0.980831 0.999546 0.638241
0.000000 0.000221 0.183868
0.060750 0.000375 0.176380
0.183048 0.001276 0.175695
0.324267 0.001130 0.173564
0.512474 0.003662 0.167778
0.685964 0.000724 0.177300
0.842083 0.000677 0.183681
0.983906 0.091433 0.177377
1.000000 0.255661 0.149308
0.002243 0.051299 0.200859
0.045323 0.056160 0.198607
0.196518 0.055901 0.189436
0.340310 0.063376 0.189402
0.521355 0.014309 0.188053
0.687958 0.037734 0.194931
0.846445 0.079664 0.189152
0.978656 0.182632 0.170121
0.998691 0.301907 0.153839
0.002552 0.184038 0.213920
0.000207 0.191308 0.215093
0.192309 0.201730 0.215676
0.370054 0.209278 0.212799
0.540587 0.212736 0.208080
0.703711 0.220427 0.198363
0.853758 0.249234 0.187711
0.980407 0.309980 0.175655
0.998066 0.397238 0.147499
0.001519 0.344533 0.225937
0.004243 0.348331 0.236043
0.175936 0.343376 0.237238
0.372860 0.375153 0.224724
0.572187 0.386094 0.210292
0.723195 0.390337 0.200744
0.865022 0.414853 0.186527
0.978824 0.459430 0.164533
0.997487 0.524435 0.142266
0.000221 0.493668 0.254624
0.001612 0.490158 0.250041
0.112591 0.482186 0.249930
0.310887 0.487317 0.257592
0.541535 0.551628 0.229813
0.748013 0.586323 0.204505
0.866622 0.593166 0.182940
0.967228 0.616741 0.159914
0.999622 0.659378 0.143253
0.000549 0.626524 0.269154
0.001773 0.625422 0.267433
0.018824 0.616843 0.275043
0.272287 0.604149 0.281225
0.470411 0.653651 0.274938
0.691313 0.719839 0.249447
0.867390 0.765049 0.215584
0.953266 0.771658 0.197770
0.998761 0.786751 0.185917
0.003786 0.768211 0.301714
0.001549 0.765733 0.303265
0.005483 0.759907 0.310130
0.251240 0.750055 0.315477
0.438069 0.763151 0.319759
0.634078 0.814329 0.317010
0.813335 0.854371 0.307724
0.939125 0.884346 0.295080
0.998936 0.886408 0.282655
0.003309 0.897714 0.381891
0.007155 0.899355 0.381825
0.131131 0.895124 0.385615
0.333681 0.891586 0.396687
0.479935 0.885716 0.413394
0.644785 0.905064 0.426654
0.785476 0.927138 0.432028
0.898622 0.943478 0.435655
0.993180 0.956141 0.421556
0.469826 0.996284 0.611008
0.488945 0.996015 0.612135
0.535971 0.993465 0.620268
0.598809 0.992157 0.639929
0.669823 0.990009 0.661354
0.741973 0.991655 0.685128
0.813604 0.995909 0.689974
0.888230 0.999886 0.685092
0.983559 1.000000 0.671119
0.000950 0.000000 0.349537
0.029632 0.000454 0.346790
0.234189 0.002384 0.347992
0.397700 0.001574 0.343094
0.533447 0.001072 0.331266
0.711890 0.000658 0.344968
0.864139 0.001903 0.328352
0.985844 0.059636 0.336311
0.998493 0.287239 0.359226
0.002283 0.043079 0.360279
0.028684 0.035079 0.364052
0.243516 0.008830 0.365596
0.405651 0.007142 0.353217
0.541344 0.052124 0.348557
0.714050 0.042272 0.355435
0.861619 0.032741 0.341760
0.981356 0.200399 0.356428
0.998369 0.328644 0.356942
0.001042 0.161848 0.379215
0.001845 0.165120 0.379106
0.227161 0.186442 0.382727
0.410188 0.199449 0.371744
0.557907 0.238597 0.377673
0.718702 0.236767 0.367785
0.858444 0.273147 0.366665
0.976673 0.337676 0.364298
0.998013 0.415643 0.357768
0.002751 0.358860 0.392247
0.000942 0.365048 0.392339
0.159447 0.373853 0.397492
0.400831 0.392109 0.404195
0.572135 0.399633 0.399187
0.723586 0.412765 0.391609
0.862410 0.434714 0.383167
0.973885 0.476091 0.374530
0.998133 0.532036 0.358302
0.001137 0.524845 0.392782
0.004390 0.526871 0.395317
0.177615 0.531279 0.404721
0.375130 0.525366 0.412169
0.564090 0.565981 0.412966
0.741010 0.587107 0.403089
0.861746 0.597430 0.388756
0.961953 0.624945 0.377716
0.999740 0.662355 0.371389
0.000894 0.663293 0.418424
0.001470 0.665483 0.420560
0.158745 0.664225 0.422518
0.339463 0.651185 0.414819
0.493773 0.663648 0.420193
0.701614 0.731177 0.425266
0.861585 0.764963 0.419080
0.944962 0.770361 0.404134
0.999803 0.786314 0.392089
0.002260 0.792718 0.439446
0.002423 0.794212 0.436909
0.013863 0.790184 0.422682
0.295960 0.781098 0.429180
0.456903 0.768403 0.433847
0.638193 0.814189 0.445453
0.811743 0.857507 0.459664
0.927816 0.887062 0.467001
0.996906 0.886882 0.457799
0.000312 0.909920 0.474885
0.004527 0.908025 0.475680
0.145239 0.903495 0.480225
0.348398 0.901786 0.483461
0.490413 0.895545 0.493739
0.634534 0.903132 0.513391
0.780406 0.927180 0.530520
0.890402 0.943392 0.547498
0.993740 0.957304 0.551394
0.458916 0.998096 0.656959
0.474383 0.998194 0.660022
0.521921 0.996246 0.665330
0.591190 0.993816 0.679981
0.665245 0.992964 0.697750
0.733901 0.991364 0.720415
0.809489 0.994431 0.733115
0.885188 0.998965 0.735046
0.976471 0.998493 0.725091
0.000946 0.000946 0.520630
0.034738 0.001007 0.521162
0.259266 0.001720 0.522221
0.455448 0.001659 0.519406
0.608208 0.001488 0.516060
0.720901 0.001978 0.500540
0.878586 0.074158 0.542488
0.992447 0.166443 0.536822
0.999054 0.272675 0.527588
0.002873 0.007143 0.530823
0.050599 0.001390 0.532125
0.270571 0.001399 0.532658
0.464888 0.001135 0.530427
0.614643 0.002039 0.527497
0.724497 0.056980 0.516525
0.877775 0.186772 0.545596
0.990960 0.235979 0.537480
0.998592 0.317398 0.527813
0.000614 0.149349 0.543434
0.010727 0.162517 0.543728
0.264418 0.160666 0.547913
0.466761 0.154771 0.547225
0.617477 0.181389 0.540775
0.732690 0.270202 0.539305
0.875145 0.320715 0.558276
0.983269 0.347298 0.542823
0.997658 0.414612 0.537865
0.000830 0.329104 0.558653
0.001522 0.332895 0.562192
0.125872 0.341866 0.564403
0.430517 0.369814 0.571252
0.611017 0.393158 0.566104
0.734973 0.448065 0.574775
0.867028 0.456269 0.565279
0.966055 0.487842 0.553129
0.998529 0.548795 0.552780
0.001991 0.534820 0.567711
0.002257 0.537135 0.571064
0.085028 0.549418 0.574248
0.380058 0.564248 0.584041
0.585751 0.585468 0.595047
0.730738 0.598462 0.588350
0.854872 0.609987 0.577215
0.950017 0.632509 0.565414
0.999023 0.668625 0.555847
0.001844 0.698668 0.564739
0.001690 0.701562 0.569462
0.060447 0.702989 0.571007
0.372334 0.706913 0.579139
0.541135 0.700756 0.582780
0.709608 0.744839 0.600418
0.845125 0.764225 0.598287
0.930606 0.770836 0.581165
0.995443 0.789995 0.571716
0.002316 0.818298 0.573227
0.003711 0.818389 0.576220
0.089881 0.816793 0.574829
0.357546 0.815977 0.582259
0.496874 0.804407 0.575953
0.639270 0.815314 0.586087
0.808394 0.863657 0.618953
0.912015 0.886773 0.629287
0.983009 0.887184 0.619377
0.007128 0.918717 0.609009
0.039049 0.918411 0.612230
0.241375 0.917670 0.612711
0.361402 0.914470 0.596923
0.503786 0.906970 0.603211
0.628834 0.898878 0.610699
0.770783 0.924664 0.638098
0.880637 0.946290 0.666644
0.984550 0.956047 0.682550
0.459778 0.998993 0.726440
0.467606 0.998640 0.722782
0.500672 0.997986 0.722126
0.571247 0.997047 0.730055
0.655815 0.993645 0.746552
0.727921 0.990996 0.767374
0.802994 0.995388 0.783966
0.881464 0.999678 0.785612
0.970581 0.999054 0.789184
0.014252 0.000000 0.688331
0.152957 0.000385 0.692977
0.321605 0.000604 0.691239
0.507331 0.002130 0.693604
0.678021 0.001598 0.689465
0.800085 0.001892 0.695089
0.876116 0.011090 0.665693
0.985084 0.278930 0.716247
0.999046 0.404431 0.724617
0.023286 0.001033 0.698828
0.161934 0.001919 0.694293
0.332550 0.002076 0.700773
0.512591 0.001622 0.699182
0.679777 0.000804 0.697469
0.802222 0.003471 0.699554
0.875585 0.137219 0.679798
0.981515 0.338676 0.719753
0.999452 0.438375 0.729173
0.012088 0.133840 0.708805
0.155437 0.127599 0.704486
0.330396 0.110711 0.709182
0.512145 0.084360 0.712886
0.680269 0.085423 0.709530
0.799346 0.165601 0.709984
0.877230 0.314158 0.694770
0.975041 0.444292 0.730571
0.997474 0.509715 0.731669
0.000236 0.290121 0.718821
0.000891 0.294452 0.719911
0.238716 0.324044 0.719576
0.479704 0.336929 0.725629
0.660905 0.350938 0.723081
0.788963 0.395777 0.723742
0.866845 0.490858 0.722726
0.950978 0.568283 0.742310
0.998980 0.597857 0.732261
0.001820 0.508898 0.724151
0.002710 0.511365 0.729263
0.022332 0.516930 0.730165
0.356630 0.525998 0.736086
0.605281 0.556297 0.742452
0.760633 0.593954 0.740585
0.845497 0.658287 0.751491
0.934534 0.671393 0.742809
0.994095 0.692873 0.730280
0.005162 0.703996 0.730204
0.002758 0.708084 0.733933
0.001388 0.712988 0.732961
0.330530 0.722912 0.740346
0.548081 0.738760 0.749618
0.722695 0.761536 0.764841
0.827319 0.770924 0.756753
0.909787 0.781577 0.743460
0.977883 0.795672 0.735255
0.002009 0.846635 0.725137
0.002519 0.847003 0.722787
0.003237 0.845904 0.729238
0.317472 0.845118 0.728779
0.536409 0.844300 0.734754
0.674356 0.838498 0.740149
0.800754 0.872299 0.761544
0.895736 0.884949 0.768742
0.965020 0.887548 0.755987
0.002201 0.933335 0.734411
0.003831 0.933107 0.732132
0.105552 0.932327 0.732853
0.370313 0.927800 0.733996
0.540679 0.924893 0.736350
0.647822 0.914636 0.730360
0.757507 0.922104 0.749294
0.870023 0.946206 0.782921
0.969724 0.953318 0.797255
0.350025 0.997543 0.787224
0.379352 0.999197 0.789964
0.454974 0.999020 0.789934
0.560741 0.998353 0.804792
0.640690 0.997683 0.804914
0.719793 0.996690 0.814449
0.792028 0.993863 0.832906
0.877875 0.999662 0.842711
0.974010 1.000000 0.847027
0.261787 0.001739 0.844131
0.322416 0.000637 0.847498
0.442824 0.002037 0.847465
0.586562 0.000283 0.846498
0.739376 0.001072 0.845963
0.871330 0.000241 0.842950
0.956978 0.000734 0.847025
0.983168 0.192771 0.813187
1.000000 0.441620 0.839218
0.272172 0.001582 0.846384
0.329352 0.003180 0.845670
0.443030 0.001813 0.846132
0.587725 0.001782 0.846333
0.737368 0.001771 0.848212
0.870681 0.002711 0.846151
0.952131 0.003432 0.849661
0.983109 0.268089 0.819673
0.998097 0.486119 0.844970
0.258106 0.053624 0.853884
0.321678 0.042153 0.850589
0.438653 0.018332 0.851998
0.582444 0.003336 0.852530
0.729211 0.003421 0.852268
0.864470 0.035674 0.850753
0.943439 0.211609 0.849204
0.972178 0.394753 0.826096
0.999434 0.568500 0.851246
0.093722 0.285688 0.855736
0.228854 0.294330 0.856283
0.388242 0.297504 0.859589
0.548909 0.297450 0.858628
0.707381 0.306799 0.859662
0.841959 0.342728 0.854865
0.925150 0.423001 0.857320
0.951362 0.549360 0.835572
0.993211 0.678298 0.863350
0.000976 0.470612 0.860252
0.001785 0.470408 0.862310
0.060475 0.467314 0.859137
0.427019 0.492149 0.860847
0.646360 0.518576 0.861786
0.803550 0.547307 0.861722
0.892248 0.606167 0.859495
0.919306 0.697774 0.853542
0.967945 0.768829 0.867222
0.001326 0.680983 0.855047
0.002416 0.681046 0.855107
0.002837 0.682330 0.856195
0.303267 0.687262 0.860998
0.528013 0.695866 0.861421
0.733438 0.730169 0.867630
0.845978 0.768122 0.865044
0.891989 0.822059 0.873098
0.957076 0.832245 0.866111
0.002014 0.841635 0.851643
0.001336 0.844027 0.854652
0.003277 0.844330 0.858947
0.317134 0.849373 0.855555
0.528612 0.856305 0.860837
0.689696 0.865506 0.867305
0.804595 0.884673 0.873657
0.876391 0.886442 0.871877
0.954294 0.891313 0.865153
0.003872 0.950013 0.852648
0.001365 0.947792 0.846911
0.014747 0.946181 0.850310
0.336537 0.944462 0.848802
0.524690 0.940524 0.851774
0.674132 0.935454 0.849692
0.773081 0.929459 0.853774
0.868367 0.949284 0.872054
0.960984 0.955426 0.879353
0.248566 0.998489 0.870155
0.301532 0.999772 0.869990
0.390097 0.999567 0.865963
0.498127 0.998620 0.868830
0.607864 0.998959 0.870770
0.712147 0.999104 0.878413
0.787142 0.997711 0.881281
0.866052 0.998320 0.889186
0.972984 1.000000 0.902939
0.484013 0.000000 0.954956
0.515239 0.000500 0.955798
0.589360 0.000194 0.950439
0.694991 0.000661 0.953236
0.813175 0.001495 0.950989
0.924644 0.000603 0.952427
0.996076 0.000299 0.946169
0.999134 0.029044 0.942300
0.999557 0.383339 0.919949
0.478323 0.000387 0.954424
0.513988 0.002516 0.950103
0.586026 0.003573 0.954131
0.695471 0.001948 0.953659
0.813463 0.000426 0.955956
0.923825 0.001874 0.952975
0.997131 0.002739 0.948743
0.998753 0.175473 0.949837
0.999563 0.424699 0.916184
0.466320 0.000855 0.957116
0.499266 0.001032 0.953857
0.579032 0.001701 0.954727
0.683492 0.001093 0.953399
0.803924 0.001028 0.954938
0.909457 0.003745 0.953306
0.992041 0.127127 0.947722
0.998602 0.330350 0.948623
0.998785 0.513712 0.916393
0.409044 0.255156 0.953796
0.448380 0.254790 0.955716
0.535803 0.250336 0.956115
0.651287 0.249845 0.955855
0.773066 0.256598 0.953695
0.892265 0.301120 0.953615
0.974299 0.377441 0.950915
0.999261 0.492306 0.945646
0.999751 0.627042 0.916572
0.043932 0.414309 0.958732
0.141826 0.420856 0.958476
0.377931 0.448416 0.951658
0.564311 0.471668 0.952782
0.714562 0.481146 0.952879
0.845276 0.508678 0.949936
0.933192 0.562822 0.947891
0.977713 0.644861 0.943862
0.978197 0.743479 0.921967
0.002575 0.647893 0.948414
0.002099 0.646699 0.951995
0.007969 0.644269 0.947998
0.340719 0.636510 0.947728
0.588788 0.660114 0.946827
0.769980 0.695036 0.943271
0.877672 0.730776 0.939564
0.937598 0.782903 0.939141
0.952063 0.844993 0.930885
0.007280 0.825815 0.941429
0.001641 0.826254 0.941554
0.004299 0.824832 0.944194
0.303428 0.825620 0.939926
0.513163 0.827243 0.938807
0.674771 0.834424 0.940647
0.815174 0.859109 0.941430
0.896061 0.887099 0.940679
0.947212 0.918195 0.944442
0.001655 0.942542 0.932276
0.000329 0.942415 0.931603
0.172942 0.939714 0.935473
0.386620 0.939785 0.934515
0.544260 0.940720 0.937805
0.678308 0.940123 0.938281
0.782440 0.946453 0.937726
0.882876 0.961701 0.946042
0.958592 0.954023 0.945713
0.190242 0.996517 0.939221
0.253166 0.996710 0.942012
0.344066 0.999917 0.943226
0.460186 0.999764 0.940153
0.576639 0.999332 0.940064
0.683145 0.999830 0.940937
0.779234 0.999486 0.939460
0.873191 0.997308 0.939825
0.985256 0.996555 0.953438
0.670593 0.000000 0.996063
0.693188 0.000046 0.996555
0.741486 0.002953 0.997826
0.816658 0.001507 1.000000
0.902985 0.001968 0.999054
0.979424 0.001507 1.000000
0.998482 0.000984 0.999237
0.997009 0.153915 1.000000
1.000000 0.392151 0.996063
0.666706 0.000000 1.000000
0.683262 0.003014 0.999960
0.735245 0.001280 0.998073
0.810644 0.001689 0.999419
0.897774 0.001055 0.998291
0.979371 0.001052 0.999615
0.996356 0.002561 0.999131
0.998878 0.229632 0.998524
1.000000 0.430382 0.999500
0.654907 0.001518 1.000000
0.670129 0.000011 0.998081
0.723528 0.000299 0.999456
0.800486 0.002695 0.999283
0.884693 0.001373 0.999748
0.964708 0.003575 0.998294
0.996168 0.179279 0.997053
0.998200 0.356090 0.999659
0.999245 0.507630 0.999023
0.605911 0.203926 0.996052
0.633514 0.202425 0.997953
0.688755 0.201796 0.998928
0.767387 0.201681 0.997939
0.858427 0.213101 0.999411
0.940438 0.290333 0.999671
0.996227 0.388910 0.997831
0.997374 0.498816 0.996989
0.999474 0.614147 0.999050
0.480271 0.431244 0.998993
0.522177 0.438700 0.999172
0.594570 0.445515 0.999291
0.695664 0.449068 0.998671
0.802369 0.460342 0.998108
0.895876 0.490610 0.999523
0.964886 0.560646 0.998718
0.999111 0.640368 0.999977
0.996140 0.721573 0.998993
0.005390 0.592156 1.000000
0.097956 0.592575 0.997890
0.312122 0.587661 0.997745
0.527793 0.615193 0.995481
0.706556 0.658150 0.998785
0.826067 0.678700 0.997540
0.907531 0.717612 0.998870
0.976040 0.764842 0.999511
0.999046 0.817673 0.996605
0.004372 0.810806 0.999779
0.001645 0.811277 0.997524
0.173696 0.808197 0.995769
0.388025 0.808308 0.999723
0.554199 0.804382 0.998787
0.715647 0.816280 0.999834
0.841233 0.844619 0.997738
0.937763 0.865120 0.998247
1.000000 0.892166 0.991714
0.021748 0.938229 0.999115
0.139720 0.937764 0.995101
0.293065 0.936313 0.999439
0.434503 0.934230 0.997051
0.565659 0.930456 0.997246
0.680096 0.931251 0.998598
0.776310 0.929078 0.994635
0.895161 0.941610 0.999981
1.000000 0.953041 0.999557
0.372559 1.000000 1.000000
0.392163 1.000000 0.999557
0.449776 1.000000 0.997383
0.531883 1.000000 0.999046
0.614746 0.998031 0.999054
0.704914 1.000000 0.999474
0.787476 0.999237 1.000000
0.886776 0.997009 0.999500
0.996063 1.000000 1.000000
