ml_luts/presetpro_gold_200__lut3d_33.cube
TITLE "Presetpro - Gold 200.jpg"
DOMAIN_MIN 0.000000 0.000000 0.000000
DOMAIN_MAX 1.000000 1.000000 1.000000
LUT_3D_SIZE 33
0.000000 0.000000 0.000000
0.004169 0.000000 0.000000
0.022556 0.000229 0.000229
0.034228 0.003591 0.003591
0.036190 0.000946 0.001373
0.042084 0.008939 0.009556
0.050739 0.006382 0.012874
0.064268 0.009700 0.012107
0.087570 0.005676 0.011002
0.125232 0.003103 0.013484
0.173028 0.001728 0.014368
0.232659 0.002092 0.017607
0.296028 0.001904 0.021961
0.355484 0.001979 0.021572
0.421045 0.001001 0.020096
0.489312 0.001005 0.018708
0.550980 0.000946 0.015625
0.607140 0.000000 0.014616
0.659311 0.000000 0.015686
0.710196 0.000620 0.014099
0.762825 0.001904 0.011780
0.811580 0.001662 0.013605
0.851456 0.000000 0.019455
0.886485 0.000815 0.024873
0.917649 0.002937 0.028427
0.953490 0.002551 0.041624
0.987236 0.000620 0.059559
0.996678 0.000000 0.075805
0.999557 0.000046 0.095688
0.996720 0.006225 0.116857
0.998337 0.069635 0.148109
0.985307 0.173055 0.166052
1.000000 0.231384 0.207855
0.003814 0.003814 0.003814
0.011534 0.007365 0.000119
0.023273 0.000807 0.000118
0.034360 0.003709 0.003231
0.042103 0.003962 0.000575
0.043835 0.004710 0.000841
0.054473 0.007725 0.007101
0.077103 0.010531 0.011158
0.095959 0.010148 0.009834
0.136217 0.004843 0.017157
0.185144 0.000932 0.016343
0.244988 0.000861 0.016340
0.303515 0.000514 0.018118
0.364031 0.001010 0.016963
0.427322 0.001911 0.016921
0.491304 0.001015 0.017606
0.552754 0.001862 0.013718
0.610580 0.002751 0.013346
0.662375 0.001883 0.014047
0.710432 0.001866 0.010746
0.763028 0.001859 0.010716
0.811717 0.001585 0.009974
0.851574 0.001146 0.011170
0.887161 0.003417 0.011747
0.920139 0.002812 0.020593
0.956192 0.002946 0.032341
0.986635 0.002634 0.045795
0.996678 0.000603 0.065539
0.999942 0.000456 0.089727
0.999507 0.007724 0.121187
0.999255 0.087246 0.141982
0.999541 0.180893 0.171987
1.000000 0.243003 0.192512
0.004395 0.011290 0.000961
0.011896 0.011380 0.004160
0.023304 0.008082 0.000944
0.031123 0.011079 0.000917
0.033335 0.011312 0.000324
0.042879 0.012126 0.000578
0.057798 0.014682 0.006705
0.076673 0.017601 0.007718
0.103353 0.016064 0.004281
0.141213 0.006499 0.013924
0.188822 0.002819 0.009793
0.250306 0.001680 0.009697
0.311124 0.003395 0.015544
0.372883 0.001991 0.015308
0.436596 0.000250 0.012887
0.497850 0.001311 0.013875
0.557675 0.001191 0.012469
0.615775 0.000177 0.008121
0.669027 0.001060 0.006344
0.719159 0.002544 0.006275
0.767011 0.003270 0.003993
0.810349 0.003377 0.001796
0.852617 0.001857 0.005527
0.891587 0.000448 0.007656
0.924604 0.000404 0.008381
0.954798 0.000414 0.020626
0.987011 0.000510 0.038089
0.996602 0.001240 0.062730
0.999128 0.002923 0.081427
0.996738 0.010130 0.106275
0.999326 0.106227 0.140960
0.993570 0.185605 0.161816
1.000000 0.246839 0.202717
0.007523 0.016011 0.011411
0.015109 0.015997 0.014648
0.023064 0.018718 0.011308
0.024521 0.019200 0.010452
0.030750 0.019608 0.002020
0.042122 0.022938 0.000180
0.060779 0.021452 0.000897
0.087871 0.025038 0.000775
0.115603 0.021068 0.001321
0.156806 0.014140 0.007824
0.207243 0.005621 0.010657
0.262797 0.001208 0.007354
0.321163 0.002034 0.009570
0.383128 0.001215 0.010313
0.446090 0.000915 0.008067
0.505861 0.004285 0.007538
0.563972 0.003315 0.005282
0.621286 0.000155 0.001699
0.673716 0.001079 0.000547
0.722968 0.002629 0.002336
0.772061 0.003524 0.003541
0.816352 0.002947 0.000953
0.856476 0.001741 0.001383
0.894623 0.002259 0.003019
0.929197 0.002699 0.002598
0.960185 0.000023 0.008986
0.986925 0.000096 0.022123
0.998540 0.000473 0.043365
0.995588 0.002350 0.073907
0.990954 0.023346 0.095100
0.999916 0.125443 0.139130
0.999036 0.196916 0.148138
1.000000 0.254842 0.192533
0.010380 0.027397 0.022606
0.011769 0.027837 0.022565
0.013559 0.030644 0.016527
0.021848 0.031242 0.017950
0.026913 0.037343 0.012154
0.041339 0.041443 0.010259
0.059158 0.041809 0.002641
0.090342 0.040304 0.002539
0.128276 0.037901 0.000879
0.175516 0.028110 0.001305
0.225448 0.014910 0.001836
0.280857 0.004159 0.001051
0.340192 0.000524 0.002222
0.397965 0.000141 0.001942
0.458616 0.000740 0.003247
0.517637 0.002676 0.002779
0.574377 0.003593 0.001677
0.630251 0.001993 0.002926
0.682002 0.001209 0.002755
0.731276 0.001439 0.002711
0.776829 0.001063 0.004311
0.818655 0.001604 0.003234
0.860405 0.000528 0.000883
0.897584 0.000902 0.002315
0.932633 0.002065 0.001035
0.966528 0.000355 0.001437
0.993071 0.000194 0.006319
0.999304 0.001279 0.026628
0.996015 0.007097 0.052644
0.995826 0.048507 0.084126
0.997365 0.148708 0.122704
0.999516 0.211549 0.141994
1.000000 0.265286 0.171913
0.001678 0.046368 0.030228
0.004451 0.051410 0.027256
0.007778 0.050283 0.025869
0.009259 0.050084 0.020407
0.010558 0.054322 0.016283
0.024212 0.060012 0.017495
0.051690 0.062014 0.011439
0.089539 0.067317 0.007023
0.135539 0.062336 0.002033
0.188725 0.053389 0.000253
0.243512 0.041019 0.000459
0.296389 0.019755 0.000636
0.355271 0.004564 0.000905
0.414280 0.001129 0.000431
0.472210 0.001254 0.000946
0.527841 0.001383 0.000788
0.585109 0.002159 0.000468
0.641490 0.001488 0.001389
0.691769 0.000800 0.001453
0.740442 0.001024 0.000761
0.784543 0.000912 0.001135
0.824148 0.002359 0.001334
0.865523 0.001694 0.000136
0.902924 0.001277 0.000899
0.936890 0.002524 0.002231
0.970320 0.000486 0.002234
0.994185 0.000033 0.001193
0.997033 0.000670 0.005517
0.999012 0.012665 0.023011
0.998948 0.086649 0.062533
0.993936 0.174393 0.101340
0.994002 0.232567 0.137268
0.998944 0.274877 0.158777
0.000000 0.076717 0.040943
0.000695 0.077724 0.035304
0.001706 0.076702 0.033709
0.001348 0.076208 0.029648
0.002146 0.077586 0.028463
0.008407 0.086632 0.023040
0.029523 0.093257 0.013180
0.078020 0.099620 0.007351
0.135676 0.101552 0.001829
0.192398 0.091819 0.000096
0.253889 0.080359 0.002554
0.314567 0.063566 0.002722
0.377128 0.036414 0.001317
0.432833 0.012992 0.000746
0.487585 0.002873 0.001424
0.545921 0.000937 0.001412
0.600265 0.001433 0.000519
0.652012 0.001069 0.001930
0.703751 0.000135 0.004537
0.750996 0.000183 0.003119
0.792463 0.000606 0.000638
0.831764 0.001786 0.001679
0.871222 0.002000 0.001125
0.906749 0.001436 0.000295
0.941325 0.000494 0.001903
0.972535 0.000230 0.004642
0.994714 0.000601 0.004384
0.996451 0.004681 0.001488
0.998917 0.038996 0.008935
0.997821 0.128895 0.028948
0.998379 0.199574 0.074500
0.995546 0.252824 0.113873
0.994633 0.292639 0.145454
0.002384 0.113518 0.046895
0.002410 0.113493 0.044210
0.002492 0.113310 0.039313
0.002395 0.113822 0.037639
0.002911 0.114403 0.038058
0.006802 0.120688 0.030599
0.006555 0.130093 0.018844
0.052705 0.134232 0.009445
0.122295 0.139949 0.001911
0.192683 0.137106 0.000015
0.256789 0.131265 0.002092
0.320782 0.117740 0.001409
0.385020 0.097674 0.000625
0.445952 0.071567 0.000740
0.506302 0.039348 0.002342
0.563461 0.012313 0.003062
0.613186 0.002520 0.001661
0.662257 0.001487 0.001158
0.712092 0.000866 0.002419
0.758194 0.001659 0.002761
0.799956 0.000860 0.001841
0.838563 0.000353 0.001551
0.879094 0.000657 0.002201
0.913587 0.000814 0.003957
0.944980 0.000173 0.002682
0.972531 0.000858 0.004173
0.995535 0.005781 0.005749
0.997205 0.035726 0.001124
0.999645 0.104445 0.001494
0.998818 0.167851 0.006495
0.999558 0.224794 0.035919
0.993793 0.270272 0.090150
0.995542 0.314387 0.120792
0.001518 0.157844 0.058380
0.001518 0.158576 0.054359
0.000810 0.158063 0.051755
0.000763 0.156756 0.044420
0.003113 0.156731 0.048598
0.002193 0.161748 0.038016
0.000516 0.170001 0.024874
0.021551 0.172938 0.010939
0.094162 0.180817 0.001938
0.180464 0.184731 0.000000
0.252289 0.182463 0.000456
0.323640 0.174058 0.002902
0.390382 0.159297 0.001628
0.456229 0.139533 0.000178
0.520522 0.114334 0.002131
0.576626 0.084978 0.002111
0.626797 0.056858 0.000492
0.675895 0.031423 0.001026
0.723950 0.012565 0.001698
0.765913 0.004112 0.001497
0.802710 0.001712 0.002377
0.842738 0.002080 0.002849
0.881284 0.001611 0.001958
0.913350 0.001552 0.004031
0.946570 0.005920 0.005455
0.974273 0.021885 0.002757
0.994380 0.057621 0.003704
0.998951 0.108679 0.000829
0.999640 0.161359 0.003164
0.996726 0.207573 0.000676
0.993218 0.255898 0.009384
0.998124 0.296097 0.043847
0.993889 0.335838 0.101349
0.000283 0.204864 0.077038
0.000283 0.205223 0.070060
0.000018 0.203245 0.065595
0.000000 0.204210 0.058425
0.001551 0.203595 0.058525
0.002739 0.204559 0.050983
0.004524 0.209715 0.039249
0.004792 0.216295 0.022271
0.065368 0.223708 0.005632
0.153403 0.230640 0.000407
0.243807 0.232325 0.004630
0.327344 0.229368 0.005707
0.397918 0.218340 0.001938
0.462732 0.205879 0.002436
0.525829 0.188730 0.005020
0.584524 0.167152 0.002688
0.637820 0.141968 0.002040
0.687104 0.116330 0.003230
0.733534 0.098336 0.001399
0.775756 0.084957 0.000703
0.813519 0.072876 0.002021
0.850407 0.066281 0.004502
0.886488 0.064822 0.006255
0.920691 0.069713 0.004822
0.954203 0.082019 0.004156
0.978445 0.107067 0.000845
0.996378 0.139353 0.001496
0.996979 0.178052 0.001165
0.998806 0.208961 0.006956
0.998515 0.249689 0.003570
0.996551 0.284369 0.004786
0.999940 0.319162 0.009392
0.998077 0.356948 0.056542
0.001825 0.252335 0.094118
0.000057 0.254140 0.089983
0.000000 0.253578 0.084578
0.000000 0.253227 0.078432
0.000768 0.253410 0.077195
0.001207 0.253605 0.068770
0.001943 0.254961 0.056338
0.000934 0.261486 0.039358
0.026851 0.267539 0.020455
0.118984 0.275422 0.004481
0.223268 0.282532 0.002657
0.313893 0.284127 0.002905
0.396392 0.280140 0.002988
0.464316 0.270457 0.002916
0.526859 0.256205 0.002315
0.587979 0.240169 0.002404
0.643024 0.222107 0.002670
0.693079 0.204721 0.001730
0.740250 0.189605 0.000397
0.784996 0.175694 0.000163
0.825124 0.164246 0.000579
0.859805 0.157278 0.002151
0.891568 0.157929 0.003965
0.923502 0.161402 0.002822
0.956550 0.171599 0.002532
0.980025 0.188377 0.000458
0.997000 0.206479 0.001702
0.997228 0.231871 0.001188
0.998777 0.255663 0.007037
0.996542 0.288052 0.002989
0.998620 0.315842 0.002080
0.997480 0.346206 0.002112
1.000000 0.376621 0.013592
0.000913 0.302617 0.115865
0.001639 0.305034 0.116457
0.000104 0.304402 0.110020
0.000000 0.302335 0.101450
0.000738 0.303566 0.100060
0.001889 0.303770 0.092238
0.002083 0.301476 0.082459
0.002446 0.304964 0.069291
0.007513 0.313241 0.047393
0.095609 0.317163 0.020283
0.197460 0.325264 0.004083
0.295795 0.331593 0.002126
0.384778 0.334265 0.002742
0.460819 0.332444 0.002837
0.528280 0.321022 0.001318
0.590506 0.305666 0.001208
0.645115 0.292630 0.002184
0.695722 0.281340 0.001543
0.745308 0.267839 0.002043
0.789332 0.253722 0.002069
0.829319 0.243571 0.000346
0.864955 0.236998 0.000904
0.894416 0.236760 0.000733
0.925337 0.237847 0.000848
0.956877 0.243936 0.001809
0.982010 0.252497 0.001348
0.995678 0.264988 0.001098
0.997700 0.282526 0.002573
0.999248 0.299616 0.004665
0.995132 0.324235 0.000730
0.994436 0.348329 0.000222
0.998585 0.375761 0.001041
1.000000 0.401968 0.006318
0.000000 0.353977 0.146099
0.000920 0.354853 0.144554
0.001472 0.351605 0.140127
0.001507 0.351892 0.132160
0.001029 0.353099 0.124340
0.002555 0.353644 0.118702
0.003950 0.353100 0.116070
0.002666 0.352264 0.103159
0.004822 0.358107 0.088569
0.078674 0.361032 0.058138
0.179847 0.367206 0.024733
0.276221 0.372842 0.005986
0.362271 0.379377 0.003407
0.445360 0.386087 0.003544
0.522679 0.382833 0.001808
0.590083 0.370966 0.000727
0.647005 0.359820 0.002083
0.696905 0.350251 0.003655
0.744891 0.338557 0.003355
0.789586 0.326927 0.002136
0.829947 0.318127 0.001473
0.867457 0.310934 0.001535
0.900930 0.306294 0.000298
0.931229 0.303059 0.001102
0.958740 0.304747 0.001699
0.982228 0.311250 0.001839
0.997201 0.320069 0.000685
0.996595 0.332550 0.003325
0.999599 0.345704 0.001432
0.996710 0.362828 0.000432
0.996114 0.382581 0.000005
0.998478 0.404734 0.000209
0.998493 0.429413 0.004318
0.000000 0.403544 0.175595
0.000948 0.403544 0.171301
0.001897 0.401708 0.168348
0.003190 0.401241 0.161244
0.000773 0.402710 0.155268
0.000974 0.402907 0.149941
0.003016 0.402208 0.146785
0.002304 0.398964 0.130883
0.003242 0.401290 0.123114
0.069505 0.406843 0.101353
0.170028 0.412425 0.071124
0.262820 0.416461 0.034547
0.345799 0.422417 0.011086
0.426360 0.429755 0.003883
0.507730 0.432299 0.002458
0.583456 0.430588 0.001159
0.644659 0.425330 0.001590
0.695388 0.416275 0.002977
0.742472 0.405877 0.002346
0.785432 0.396245 0.001440
0.825743 0.388215 0.001762
0.865145 0.380851 0.001751
0.900696 0.374364 0.000866
0.931742 0.368574 0.001741
0.960286 0.364516 0.004452
0.984143 0.366288 0.003412
0.998110 0.370496 0.001404
0.997532 0.379592 0.001667
0.999821 0.389461 0.001937
0.998644 0.401395 0.001168
0.999356 0.419562 0.000003
0.998968 0.437561 0.000152
0.998042 0.458314 0.003320
0.000996 0.451921 0.206091
0.001694 0.450757 0.200967
0.002859 0.449722 0.197008
0.003843 0.449510 0.189912
0.001108 0.452249 0.185148
0.001732 0.450783 0.181235
0.003520 0.447627 0.177389
0.002411 0.446529 0.162537
0.004997 0.446595 0.157505
0.078065 0.447837 0.140621
0.172632 0.452865 0.121365
0.259767 0.460149 0.087437
0.338719 0.466390 0.047255
0.413589 0.472300 0.014062
0.490471 0.475280 0.001412
0.565712 0.479754 0.000640
0.633404 0.482355 0.000527
0.691431 0.478457 0.000803
0.739885 0.470393 0.001214
0.781677 0.459919 0.001328
0.821539 0.452304 0.000849
0.860538 0.447120 0.001492
0.895357 0.439957 0.001786
0.928460 0.433537 0.001720
0.957615 0.427205 0.003414
0.984720 0.423888 0.002514
0.998067 0.422625 0.000814
0.998407 0.427154 0.000234
0.999121 0.433360 0.001647
0.999405 0.442058 0.002558
0.998854 0.457090 0.001060
0.998678 0.472443 0.001027
0.999279 0.488954 0.001989
0.001900 0.497929 0.237855
0.001900 0.497933 0.233330
0.001849 0.496084 0.228025
0.003667 0.495684 0.219824
0.002527 0.498866 0.216271
0.002565 0.496386 0.210322
0.003189 0.494203 0.206906
0.002528 0.495456 0.197255
0.015750 0.494389 0.191616
0.098627 0.492357 0.178050
0.185475 0.495531 0.163745
0.260270 0.501549 0.137365
0.335242 0.506566 0.104215
0.405243 0.512892 0.059475
0.475140 0.516617 0.019074
0.546248 0.522308 0.002712
0.617622 0.527519 0.001038
0.681999 0.531289 0.000534
0.733284 0.530528 0.000976
0.776819 0.521440 0.001325
0.816831 0.514799 0.000511
0.855316 0.508923 0.001302
0.890182 0.500808 0.001410
0.923737 0.494469 0.001966
0.953457 0.489038 0.001868
0.980855 0.484282 0.000837
0.998196 0.479223 0.000140
0.998896 0.479708 0.000672
0.997714 0.479822 0.000710
0.999656 0.485123 0.003482
0.998041 0.494168 0.001009
0.998864 0.505856 0.002785
0.998930 0.519967 0.001070
0.001007 0.541183 0.266663
0.001007 0.543016 0.261031
0.000063 0.541231 0.257101
0.004411 0.539392 0.248831
0.005041 0.542646 0.247280
0.002658 0.540356 0.241100
0.003291 0.537225 0.235859
0.005960 0.539792 0.229819
0.047093 0.538494 0.220108
0.131623 0.537118 0.213069
0.204176 0.539309 0.200821
0.269068 0.541702 0.178791
0.335453 0.545464 0.153843
0.401943 0.551177 0.123060
0.467838 0.555414 0.078066
0.532965 0.561503 0.033704
0.598107 0.567780 0.008209
0.661288 0.576180 0.000503
0.719674 0.582020 0.001028
0.768848 0.578576 0.001780
0.809214 0.573977 0.000946
0.848410 0.566899 0.000836
0.884430 0.558830 0.001040
0.917299 0.553617 0.001829
0.947502 0.548138 0.001495
0.976541 0.542738 0.001256
0.995620 0.537913 0.000650
0.998935 0.535389 0.001061
0.998354 0.528601 0.001354
0.998540 0.528760 0.001795
0.996316 0.534544 0.000296
0.999850 0.542472 0.002840
0.998993 0.554978 0.001007
0.000000 0.584609 0.295656
0.000000 0.585583 0.290636
0.001556 0.584672 0.287762
0.004524 0.583698 0.282184
0.004506 0.583990 0.274150
0.003136 0.583534 0.272303
0.005094 0.580508 0.266592
0.032003 0.582353 0.263021
0.100893 0.579824 0.252945
0.173883 0.578380 0.245843
0.232682 0.579394 0.237257
0.288147 0.579812 0.219175
0.344055 0.583942 0.197117
0.406080 0.590048 0.178456
0.467878 0.595468 0.148342
0.524580 0.600795 0.101138
0.580022 0.607353 0.051909
0.639666 0.616376 0.015093
0.702647 0.623050 0.000560
0.758090 0.625487 0.001506
0.801835 0.626291 0.001211
0.840630 0.621861 0.000341
0.876640 0.615487 0.001531
0.909084 0.610307 0.002470
0.938404 0.604252 0.000625
0.969155 0.598217 0.002085
0.988843 0.594016 0.000841
0.997316 0.590054 0.001758
0.999316 0.582848 0.001174
0.996104 0.578213 0.001832
0.995146 0.578821 0.001141
0.999078 0.580106 0.001068
1.000000 0.589745 0.001016
0.000000 0.627928 0.326456
0.000000 0.627928 0.325275
0.001867 0.627515 0.320835
0.001991 0.628141 0.317290
0.001319 0.625640 0.307484
0.009517 0.625693 0.302715
0.034811 0.626761 0.297544
0.094915 0.626426 0.294219
0.159541 0.624076 0.287461
0.214423 0.623093 0.278261
0.264710 0.622529 0.272534
0.312524 0.619205 0.257699
0.360642 0.620880 0.241917
0.413618 0.628194 0.226105
0.468368 0.634239 0.202096
0.521059 0.638291 0.170829
0.573625 0.644589 0.128625
0.629088 0.653134 0.073782
0.686021 0.658331 0.026001
0.741436 0.663914 0.004239
0.791451 0.671519 0.000733
0.831513 0.671195 0.000135
0.866680 0.667867 0.001225
0.901166 0.662200 0.003020
0.929855 0.655533 0.001150
0.959630 0.649614 0.002124
0.984994 0.645832 0.001399
0.996806 0.641459 0.002868
0.998495 0.638652 0.001594
0.997066 0.631816 0.002370
0.997664 0.625243 0.003049
0.998915 0.621226 0.000685
0.998278 0.624073 0.001219
0.031428 0.669981 0.360538
0.030684 0.669392 0.357992
0.026231 0.668906 0.352795
0.023700 0.669672 0.347243
0.033936 0.669212 0.343597
0.062829 0.668090 0.338936
0.111235 0.668902 0.334090
0.170856 0.667604 0.325736
0.213895 0.666437 0.319826
0.255633 0.665977 0.313147
0.297890 0.665330 0.306203
0.341933 0.661102 0.296543
0.380976 0.660382 0.283688
0.424656 0.665131 0.269281
0.473288 0.669515 0.250576
0.522550 0.674188 0.226630
0.573071 0.680805 0.197904
0.623797 0.688496 0.159503
0.673649 0.692870 0.103973
0.724006 0.698607 0.050222
0.775160 0.708257 0.017982
0.819691 0.710816 0.000487
0.855707 0.711956 0.001412
0.892580 0.708464 0.001582
0.921856 0.702868 0.000979
0.951653 0.696827 0.001062
0.980133 0.693955 0.001611
0.997181 0.689442 0.002596
0.998574 0.685679 0.001815
0.998189 0.679407 0.000534
0.999082 0.673369 0.002684
0.999927 0.668228 0.002367
0.997662 0.666076 0.000000
0.124031 0.710792 0.400044
0.120358 0.709887 0.391858
0.111249 0.709507 0.387989
0.106732 0.710684 0.379794
0.123216 0.710000 0.374282
0.160018 0.709991 0.377792
0.194188 0.707912 0.373161
0.232605 0.706510 0.363110
0.264428 0.705117 0.356746
0.298614 0.703581 0.350574
0.334076 0.702321 0.344151
0.370091 0.701072 0.334958
0.403482 0.699722 0.323153
0.441140 0.701154 0.311514
0.484284 0.705443 0.298841
0.527190 0.711798 0.280013
0.572296 0.716228 0.254734
0.619734 0.721345 0.227972
0.666462 0.727272 0.194205
0.712203 0.732721 0.146288
0.758266 0.739250 0.087646
0.803896 0.742785 0.032182
0.843100 0.748057 0.005109
0.881775 0.748665 0.002057
0.914785 0.746345 0.002506
0.941752 0.741156 0.001476
0.968968 0.737884 0.001482
0.992005 0.735188 0.001420
0.999588 0.727307 0.000938
0.996872 0.722435 0.000952
0.998587 0.718947 0.001991
0.999970 0.711388 0.003272
0.999050 0.709858 0.000526
0.226507 0.747019 0.434991
0.222927 0.747862 0.428365
0.216060 0.746662 0.425980
0.214385 0.749701 0.420030
0.216168 0.747763 0.411357
0.237262 0.747084 0.411924
0.258104 0.744775 0.408265
0.285837 0.744169 0.400974
0.310771 0.744229 0.397210
0.338217 0.741662 0.387611
0.364752 0.739663 0.381685
0.395775 0.739446 0.371062
0.426415 0.736970 0.363837
0.458661 0.737386 0.353591
0.495226 0.739732 0.343543
0.533957 0.744871 0.327111
0.576313 0.748939 0.305302
0.619057 0.752395 0.282545
0.660568 0.758958 0.257691
0.702453 0.764707 0.229739
0.743973 0.769689 0.188832
0.787765 0.775230 0.125561
0.830277 0.780713 0.055415
0.870830 0.783888 0.022525
0.906164 0.784015 0.004520
0.934039 0.781003 0.002584
0.961944 0.777424 0.002180
0.983586 0.776006 0.000623
0.997865 0.770632 0.001537
0.998298 0.764305 0.000911
0.999919 0.758257 0.003250
0.998688 0.752995 0.002093
0.998338 0.746578 0.000921
0.295586 0.780784 0.467421
0.297273 0.782471 0.468258
0.290301 0.782281 0.465007
0.289053 0.783824 0.462291
0.286893 0.782458 0.452264
0.303087 0.779845 0.449541
0.315752 0.779012 0.449085
0.337567 0.777810 0.441377
0.358884 0.778272 0.436976
0.377923 0.778575 0.429133
0.399908 0.777678 0.421816
0.426532 0.776435 0.412996
0.452114 0.774174 0.406890
0.480203 0.773054 0.398437
0.511383 0.772283 0.384212
0.545019 0.775307 0.369320
0.581541 0.780305 0.354906
0.620114 0.784622 0.337487
0.659640 0.788922 0.317589
0.696688 0.792924 0.293758
0.734699 0.798674 0.264585
0.778391 0.804830 0.229468
0.819101 0.809135 0.174522
0.856305 0.812288 0.101594
0.890342 0.815083 0.039967
0.926545 0.814920 0.012301
0.952859 0.812154 0.000324
0.979777 0.810155 0.001458
0.995170 0.806482 0.000060
0.997794 0.800199 0.000717
0.999837 0.793782 0.002901
0.997453 0.791588 0.000752
0.999132 0.781124 0.000000
0.362064 0.814550 0.513337
0.361781 0.815066 0.509520
0.357071 0.816257 0.507280
0.356758 0.817012 0.505965
0.353703 0.814412 0.495452
0.359359 0.812567 0.489829
0.374897 0.811249 0.489697
0.386930 0.811831 0.485677
0.405077 0.811240 0.474407
0.421329 0.811234 0.477170
0.439201 0.810791 0.472070
0.460096 0.809223 0.460012
0.481244 0.807132 0.449689
0.507386 0.806052 0.444157
0.533990 0.804257 0.433295
0.560128 0.805929 0.418998
0.590125 0.810000 0.406206
0.624133 0.813897 0.392434
0.661036 0.818264 0.373623
0.697087 0.821786 0.351091
0.732827 0.825633 0.329498
0.771074 0.830042 0.302374
0.807729 0.833913 0.266581
0.845818 0.836105 0.224285
0.878266 0.837429 0.162865
0.911768 0.842481 0.083476
0.944947 0.844352 0.034207
0.974289 0.841562 0.012671
0.995183 0.836827 0.000265
0.999924 0.832822 0.001650
0.999118 0.828297 0.006631
0.998100 0.823165 0.001131
0.997721 0.820380 0.000815
0.423553 0.839988 0.559052
0.422061 0.842095 0.552185
0.416026 0.842600 0.550376
0.414306 0.844378 0.547380
0.417247 0.846248 0.546453
0.415871 0.843779 0.537403
0.430363 0.840767 0.534238
0.435585 0.843436 0.529801
0.449192 0.842257 0.525772
0.463847 0.841253 0.520517
0.478174 0.840005 0.517232
0.498678 0.837445 0.507711
0.516722 0.836969 0.499510
0.535046 0.837276 0.492361
0.556599 0.835238 0.481053
0.581042 0.836091 0.467486
0.605770 0.839241 0.456444
0.633438 0.841051 0.442792
0.667557 0.842810 0.428068
0.702528 0.845847 0.414751
0.735232 0.849920 0.394237
0.767122 0.853596 0.370176
0.798688 0.857268 0.342531
0.832063 0.859122 0.310177
0.866064 0.861107 0.276304
0.900000 0.864743 0.222572
0.937914 0.866438 0.153348
0.966679 0.866220 0.077631
0.986396 0.864866 0.030274
0.999513 0.861619 0.008962
0.997635 0.857929 0.000388
0.994913 0.853215 0.003763
0.999245 0.850541 0.002395
0.479832 0.865501 0.604627
0.478007 0.868273 0.599176
0.475153 0.869158 0.598975
0.469956 0.869238 0.593452
0.471444 0.867510 0.588827
0.473656 0.868487 0.583806
0.477852 0.867689 0.582931
0.484996 0.870323 0.580741
0.497601 0.865835 0.576839
0.510930 0.865334 0.568997
0.523922 0.865587 0.562908
0.536684 0.866132 0.556531
0.550870 0.864064 0.549237
0.567206 0.864329 0.541571
0.584534 0.864722 0.530639
0.602194 0.863832 0.518871
0.621704 0.863584 0.508658
0.646937 0.865085 0.499218
0.677845 0.867069 0.488780
0.707296 0.868023 0.475280
0.735651 0.870583 0.457508
0.767630 0.874344 0.435930
0.796662 0.877499 0.412601
0.824635 0.881657 0.386114
0.855657 0.884536 0.358643
0.890095 0.885603 0.321394
0.925410 0.888592 0.273431
0.955484 0.888051 0.216812
0.977598 0.887320 0.150838
0.998269 0.885397 0.071696
0.999301 0.883755 0.028029
0.999234 0.877311 0.003670
0.999139 0.876229 0.000691
0.530640 0.889103 0.645475
0.532325 0.891021 0.647277
0.527475 0.890967 0.647242
0.523695 0.891742 0.639155
0.520002 0.892344 0.639908
0.523242 0.891692 0.629972
0.531110 0.891736 0.630284
0.538184 0.892245 0.630704
0.544300 0.890567 0.626104
0.554536 0.890885 0.621995
0.562918 0.891398 0.614224
0.572547 0.891750 0.609089
0.588262 0.889167 0.601837
0.602260 0.888535 0.593002
0.613515 0.887519 0.585063
0.628123 0.885227 0.577120
0.643456 0.885782 0.566841
0.661735 0.887179 0.555384
0.687943 0.889331 0.544044
0.714279 0.891432 0.532765
0.739768 0.892230 0.516981
0.769476 0.895559 0.494967
0.796303 0.897082 0.479717
0.824666 0.899112 0.462231
0.855399 0.900256 0.433414
0.882163 0.904161 0.406093
