ml_luts/presetpro_moody_stock__lut3d_33.cube
TITLE "Presetpro - Moody Stock.jpg"
DOMAIN_MIN 0.000000 0.000000 0.000000
DOMAIN_MAX 1.000000 1.000000 1.000000
LUT_3D_SIZE 9
0.003937 0.050995 0.050995
0.000095 0.054855 0.059818
0.033875 0.057617 0.065903
0.127929 0.066246 0.062878
0.280456 0.060791 0.051987
0.510846 0.001480 0.033318
0.714935 0.000763 0.000000
0.869130 0.000492 0.000046
0.976471 0.000000 0.000000
0.000000 0.081821 0.073097
0.003054 0.078817 0.065290
0.035208 0.097572 0.055596
0.154323 0.108185 0.055720
0.327537 0.108299 0.033852
0.545778 0.069784 0.007998
0.735918 0.003117 0.001636
0.881522 0.000391 0.001157
0.974850 0.008797 0.003433
0.000763 0.155342 0.084412
0.003678 0.151497 0.086447
0.010141 0.156883 0.077574
0.180891 0.178628 0.048060
0.416775 0.203518 0.001480
0.631207 0.209399 0.001985
0.787230 0.208508 0.003502
0.902805 0.210423 0.000000
0.987465 0.232560 0.001198
0.004475 0.286240 0.110824
0.000860 0.285548 0.117642
0.002054 0.279056 0.111554
0.197587 0.286877 0.087137
0.434897 0.307776 0.012253
0.670533 0.338468 0.001468
0.835147 0.371566 0.002295
0.922177 0.395789 0.003254
0.991116 0.406841 0.003921
0.000000 0.462616 0.147995
0.005581 0.457855 0.160892
0.002743 0.448219 0.154949
0.288834 0.437818 0.129755
0.474068 0.445542 0.065216
0.662832 0.464787 0.001238
0.820019 0.501755 0.000755
0.920912 0.539209 0.001770
0.985260 0.570603 0.002029
0.002430 0.635334 0.218498
0.002101 0.631454 0.239460
0.040244 0.624128 0.226093
0.365806 0.606341 0.215367
0.531778 0.602524 0.176657
0.666425 0.611335 0.096298
0.790795 0.626626 0.000712
0.892401 0.654516 0.000997
0.968643 0.683769 0.000000
0.002174 0.762100 0.354698
0.095886 0.760838 0.370105
0.315998 0.754709 0.374794
0.454471 0.746824 0.360546
0.580627 0.735813 0.339599
0.679896 0.738991 0.300515
0.773542 0.745854 0.242931
0.851342 0.757483 0.144734
0.930710 0.779412 0.034256
0.408001 0.848919 0.521981
0.457139 0.851204 0.540522
0.523231 0.845320 0.548630
0.578553 0.843159 0.538961
0.644113 0.838061 0.528601
0.711568 0.833430 0.510234
0.776161 0.840748 0.482879
0.836581 0.848498 0.444362
0.895977 0.855877 0.384758
0.611755 0.925476 0.709808
0.626083 0.928913 0.716706
0.657073 0.926033 0.734627
0.679943 0.924977 0.731858
0.714737 0.922577 0.726578
0.751564 0.924526 0.720505
0.794648 0.924721 0.723533
0.842644 0.932892 0.712296
0.898041 0.937256 0.701965
0.002991 0.054458 0.085350
0.000006 0.055687 0.081528
0.041315 0.060624 0.072208
0.142850 0.077563 0.070018
0.309429 0.084951 0.051952
0.541798 0.047429 0.015136
0.735184 0.000979 0.002277
0.882517 0.000839 0.002656
0.978611 0.003937 0.003937
0.003028 0.085475 0.099047
0.000393 0.092521 0.099627
0.036859 0.098580 0.091671
0.163555 0.108332 0.081373
0.350266 0.113113 0.051966
0.569223 0.099389 0.005005
0.750056 0.075823 0.000603
0.888237 0.051934 0.001220
0.988168 0.080539 0.002857
0.000016 0.166241 0.125556
0.002453 0.161759 0.117229
0.010317 0.169687 0.110128
0.201485 0.189311 0.086191
0.428163 0.202341 0.037259
0.633358 0.199668 0.000695
0.793641 0.214048 0.002290
0.911103 0.232817 0.001327
0.986951 0.248708 0.002783
0.001707 0.297634 0.152002
0.001589 0.301731 0.146471
0.003853 0.292324 0.148777
0.221148 0.296966 0.122977
0.458675 0.314902 0.065567
0.689156 0.342053 0.002435
0.834561 0.365669 0.000746
0.924912 0.390653 0.000765
0.993927 0.411043 0.002493
0.000771 0.472729 0.188509
0.000970 0.472245 0.186412
0.003853 0.462447 0.193037
0.305209 0.449684 0.172699
0.487451 0.455313 0.123871
0.671231 0.472534 0.017332
0.827583 0.504397 0.001088
0.923756 0.541254 0.002014
0.989128 0.566832 0.001852
0.001489 0.640966 0.253829
0.000319 0.639939 0.263067
0.062799 0.630976 0.265723
0.378373 0.613797 0.252824
0.538899 0.607228 0.222019
0.668636 0.616327 0.160014
0.789981 0.630244 0.042750
0.895077 0.657344 0.003100
0.965752 0.685705 0.000461
0.001035 0.767950 0.377794
0.045148 0.765540 0.381537
0.332747 0.760590 0.405161
0.465063 0.751240 0.390971
0.583745 0.739134 0.370206
0.680632 0.741006 0.333601
0.772873 0.749636 0.281858
0.852630 0.759111 0.204595
0.933050 0.781647 0.109193
0.401355 0.849781 0.534509
0.442555 0.852076 0.547026
0.525980 0.848312 0.568330
0.581154 0.846190 0.561567
0.649404 0.840589 0.545884
0.716574 0.832172 0.527598
0.771343 0.841003 0.505000
0.833011 0.850457 0.461769
0.900651 0.857406 0.412450
0.600494 0.925968 0.706364
0.616143 0.925867 0.712235
0.655352 0.925443 0.733621
0.681367 0.924373 0.731674
0.712128 0.923399 0.731291
0.752047 0.923109 0.725590
0.795354 0.924308 0.723843
0.842461 0.932884 0.717939
0.894558 0.937256 0.708042
0.000000 0.058151 0.153687
0.000016 0.060004 0.147554
0.055736 0.067631 0.137815
0.183134 0.063908 0.121443
0.322361 0.048523 0.109627
0.550198 0.001500 0.083344
0.743727 0.000757 0.022636
0.888440 0.004937 0.000637
0.984413 0.035835 0.004455
0.001328 0.101255 0.163720
0.002716 0.100303 0.168429
0.054677 0.103320 0.157375
0.186552 0.104768 0.139127
0.355899 0.091951 0.121898
0.575353 0.044158 0.087073
0.763987 0.015896 0.019346
0.897153 0.089122 0.002305
0.981602 0.147603 0.000399
0.001467 0.183066 0.196612
0.000807 0.184670 0.193379
0.022231 0.188982 0.186325
0.229541 0.191292 0.169060
0.435804 0.189024 0.138205
0.638900 0.175878 0.092663
0.798822 0.179819 0.014999
0.912863 0.220400 0.001773
0.988144 0.273169 0.000544
0.000290 0.322075 0.242692
0.001394 0.322255 0.235087
0.001933 0.327485 0.224384
0.265735 0.322016 0.206349
0.510891 0.331838 0.167701
0.711963 0.346226 0.108702
0.835490 0.351388 0.012935
0.924441 0.367733 0.001857
0.994682 0.403511 0.001684
0.002411 0.492248 0.287743
0.001322 0.492509 0.280426
0.003604 0.489071 0.275169
0.344227 0.471487 0.264394
0.518425 0.474550 0.227621
0.696002 0.490347 0.174701
0.834650 0.517588 0.074904
0.928110 0.541484 0.003061
0.991623 0.554260 0.001900
0.002131 0.651552 0.342820
0.002178 0.650675 0.340500
0.058343 0.648908 0.337413
0.402720 0.631975 0.340845
0.557311 0.621191 0.316604
0.682879 0.630849 0.269761
0.797672 0.641504 0.207143
0.891429 0.666584 0.115862
0.965316 0.691315 0.001210
0.013922 0.772993 0.436489
0.064069 0.771043 0.433787
0.315101 0.766980 0.448670
0.484995 0.758868 0.456509
0.597126 0.746307 0.436816
0.689690 0.746093 0.409067
0.771373 0.755320 0.363512
0.849273 0.762554 0.306621
0.932112 0.786253 0.258636
0.407626 0.853230 0.567218
0.431992 0.852372 0.569875
0.500786 0.852063 0.580540
0.589949 0.846500 0.597398
0.649983 0.842502 0.581719
0.715805 0.837906 0.570117
0.767934 0.843776 0.546985
0.831819 0.849465 0.508941
0.894833 0.855287 0.470576
0.592605 0.930824 0.723213
0.603157 0.927595 0.724193
0.636019 0.924984 0.735546
0.679004 0.925481 0.749683
0.712227 0.922730 0.745266
0.751403 0.924716 0.744997
0.795191 0.924235 0.737618
0.843032 0.933920 0.739480
0.895867 0.938233 0.720452
0.000526 0.068130 0.266060
0.002021 0.070669 0.270472
0.043113 0.073951 0.264544
0.242078 0.053702 0.248902
0.457556 0.001963 0.213465
0.587614 0.001037 0.180845
0.738911 0.002136 0.146596
0.890712 0.001941 0.091454
0.988724 0.004914 0.001041
0.001118 0.109939 0.285327
0.002655 0.111253 0.284908
0.038050 0.115672 0.281841
0.263844 0.101093 0.266968
0.469568 0.019247 0.228157
0.594193 0.000866 0.194211
0.759693 0.000714 0.158765
0.896609 0.000905 0.095983
0.994834 0.061878 0.002639
0.000801 0.208291 0.310173
0.002922 0.208629 0.310988
0.004913 0.204838 0.311042
0.297840 0.198994 0.299371
0.480849 0.173823 0.258821
0.630993 0.144291 0.224845
0.792975 0.131850 0.183257
0.914369 0.156008 0.114939
0.995061 0.216013 0.000981
0.001538 0.349220 0.364126
0.005638 0.350104 0.363926
0.002850 0.349891 0.363711
0.333885 0.354949 0.350185
0.543934 0.345481 0.316298
0.705650 0.335295 0.278308
0.831722 0.333093 0.225258
0.925695 0.343705 0.139321
0.999209 0.369899 0.004225
0.002840 0.519783 0.420032
0.002884 0.521438 0.417578
0.009212 0.521826 0.405648
0.377695 0.517147 0.395858
0.564459 0.507014 0.377561
0.723494 0.523764 0.341364
0.842475 0.538900 0.296840
0.923062 0.537621 0.213234
0.988592 0.537666 0.033104
0.000794 0.670441 0.465896
0.001021 0.670875 0.463302
0.128755 0.666206 0.454022
0.421611 0.663551 0.457624
0.585537 0.644302 0.444593
0.694350 0.650341 0.412724
0.800739 0.663875 0.373977
0.888335 0.685078 0.326512
0.965167 0.699943 0.214299
0.034274 0.776865 0.525668
0.150640 0.778344 0.524114
0.330348 0.774103 0.526014
0.494074 0.773197 0.539291
0.612491 0.759783 0.533290
0.695459 0.754123 0.509016
0.769537 0.762648 0.474601
0.845602 0.774581 0.434713
0.927188 0.792918 0.397446
0.390419 0.858496 0.612548
0.421438 0.860651 0.616871
0.487142 0.857191 0.619787
0.572053 0.854979 0.631963
0.652695 0.846856 0.639761
0.714836 0.842069 0.622197
0.768355 0.846526 0.604476
0.829102 0.851788 0.572741
0.890870 0.859410 0.547547
0.569702 0.932369 0.736336
0.586501 0.928545 0.741621
0.613236 0.932223 0.748669
0.659390 0.929560 0.755863
0.705915 0.926130 0.767279
0.746511 0.927306 0.763487
0.791044 0.926373 0.759590
0.834476 0.933371 0.756059
0.897000 0.936302 0.744957
0.000000 0.085327 0.427505
0.002163 0.085501 0.428681
0.007076 0.083111 0.430584
0.311403 0.029999 0.434191
0.540062 0.001449 0.409599
0.739368 0.001959 0.352779
0.817406 0.001922 0.292366
0.887224 0.000999 0.249840
0.986344 0.002029 0.203995
0.000828 0.127321 0.443098
0.001061 0.128149 0.448701
0.004496 0.125357 0.446730
0.320383 0.096619 0.448731
0.556326 0.003029 0.421018
0.743402 0.000920 0.360741
0.815605 0.002059 0.306336
0.891295 0.001289 0.261599
0.987156 0.004555 0.208017
0.001610 0.235287 0.465496
0.000981 0.231292 0.466380
0.001487 0.216908 0.474300
0.336741 0.213291 0.473670
0.584103 0.175854 0.450153
0.742760 0.135010 0.387290
0.810362 0.116270 0.333950
0.898003 0.108906 0.288644
0.992027 0.151604 0.222279
0.003401 0.366072 0.497028
0.002669 0.369018 0.493572
0.002822 0.368982 0.499005
0.360230 0.366537 0.505546
0.607851 0.367121 0.491998
0.725677 0.352682 0.434998
0.811026 0.331321 0.388708
0.911685 0.327672 0.332348
0.997002 0.325939 0.232649
0.001991 0.533836 0.548073
0.000694 0.535701 0.549561
0.044702 0.540581 0.542318
0.400945 0.542603 0.545254
0.602962 0.551453 0.540924
0.726837 0.546971 0.508333
0.825791 0.536404 0.464407
0.908410 0.525608 0.395016
0.985260 0.515686 0.290771
0.000614 0.684072 0.591558
0.003757 0.685097 0.589217
0.222503 0.685940 0.589673
0.441414 0.686780 0.584153
0.604223 0.681389 0.578943
0.707846 0.677140 0.561359
0.799581 0.693236 0.538579
0.879437 0.709089 0.502093
0.952909 0.702501 0.413544
0.103855 0.789761 0.628849
0.208908 0.790623 0.627684
0.339232 0.789243 0.626829
0.483215 0.783913 0.619946
0.611776 0.778879 0.625103
0.701836 0.769138 0.614797
0.768237 0.772736 0.588625
0.838992 0.785875 0.564444
0.916599 0.804775 0.536762
0.337108 0.867447 0.677030
0.375381 0.867080 0.675260
0.452733 0.862658 0.674708
0.542006 0.860597 0.682458
0.636487 0.857760 0.688787
0.710375 0.850714 0.689666
0.764311 0.849162 0.668684
0.820253 0.857108 0.644143
0.891407 0.865488 0.625366
0.521561 0.937195 0.761719
0.537908 0.935701 0.760380
0.573009 0.937534 0.767746
0.627546 0.934416 0.772114
0.688194 0.930862 0.791176
0.739422 0.930105 0.795550
0.788441 0.928955 0.788388
0.834461 0.934013 0.783798
0.893158 0.939286 0.774430
0.001507 0.105888 0.595169
0.001856 0.106362 0.601278
0.000944 0.096007 0.599094
0.334342 0.029344 0.607827
0.595551 0.001351 0.611904
0.771709 0.001572 0.571244
0.894496 0.000613 0.495566
0.950713 0.003326 0.432432
0.992512 0.000526 0.386651
0.002273 0.146209 0.604437
0.001124 0.148544 0.606107
0.001170 0.143310 0.611031
0.338233 0.110861 0.612450
0.596795 0.013904 0.616186
0.776067 0.000501 0.582689
0.893799 0.001441 0.503018
0.945972 0.004315 0.441198
0.993315 0.048446 0.399093
0.000476 0.251104 0.618319
0.002618 0.238611 0.622123
0.002092 0.237878 0.625208
0.350749 0.229556 0.624930
0.611016 0.211908 0.634872
0.778703 0.192738 0.599827
0.887251 0.206273 0.529341
0.935741 0.214487 0.467107
0.982833 0.231004 0.422769
0.002300 0.387274 0.629342
0.001063 0.389802 0.632266
0.057260 0.389925 0.636660
0.377945 0.378299 0.645825
0.612436 0.394859 0.648751
0.773614 0.402313 0.628787
0.862312 0.410172 0.563811
0.906471 0.387826 0.505346
0.965989 0.372901 0.453319
0.000498 0.536225 0.656912
0.005206 0.538112 0.660977
0.146207 0.541026 0.655689
0.417659 0.546651 0.655071
0.607514 0.561128 0.664050
0.744701 0.582084 0.657257
0.816625 0.568063 0.606507
0.877831 0.533850 0.550415
0.960623 0.518633 0.485556
0.003429 0.681746 0.690295
0.061285 0.683425 0.687308
0.295572 0.685387 0.689140
0.463456 0.690207 0.689278
0.603300 0.700628 0.689988
0.714372 0.712160 0.689882
0.789274 0.706096 0.666600
0.861529 0.697173 0.622512
0.940702 0.684172 0.553723
0.247776 0.798120 0.727484
0.301824 0.797115 0.726085
0.392823 0.795055 0.727991
0.499065 0.795650 0.724909
0.603666 0.797076 0.718543
0.699768 0.794567 0.718088
0.768864 0.791154 0.702045
0.834722 0.804692 0.684567
0.909629 0.815814 0.659224
0.375262 0.876452 0.767015
0.402159 0.872672 0.765466
0.453495 0.873236 0.764048
0.523745 0.871053 0.752994
0.607206 0.868014 0.750272
0.696602 0.863657 0.753546
0.760603 0.858285 0.742226
0.813736 0.864191 0.727908
0.884703 0.872889 0.711583
0.470173 0.944572 0.807843
0.479388 0.943371 0.805523
0.509180 0.943162 0.802181
0.572037 0.938686 0.805294
0.649456 0.936176 0.806593
0.723505 0.936937 0.822689
0.781909 0.931992 0.829413
0.833096 0.934614 0.817331
0.890751 0.941151 0.811344
0.000221 0.139969 0.739982
0.003619 0.133170 0.740495
0.005156 0.125933 0.744518
0.358588 0.087378 0.746956
0.597412 0.006863 0.752239
0.781954 0.000103 0.752645
0.896057 0.005392 0.712404
0.970401 0.095256 0.641887
0.997604 0.209824 0.578766
0.000011 0.182436 0.746749
0.001703 0.182185 0.745689
0.005037 0.173926 0.745680
0.365775 0.154278 0.749162
0.601648 0.116704 0.754594
0.783105 0.089960 0.751993
0.901570 0.110192 0.721467
0.963550 0.201932 0.638636
0.998015 0.268461 0.582432
0.001299 0.267952 0.749675
0.001373 0.268763 0.749505
0.026218 0.269309 0.751938
0.385734 0.263089 0.756420
0.608443 0.267675 0.758979
0.779830 0.282773 0.762383
0.886401 0.301711 0.728441
0.949146 0.348678 0.655795
0.991335 0.374010 0.608519
0.001736 0.418105 0.752519
0.002383 0.420099 0.756721
0.181978 0.408908 0.757583
0.417583 0.406435 0.758585
0.613142 0.424186 0.764976
0.764704 0.460520 0.768576
0.862330 0.473818 0.741655
0.922553 0.500134 0.683801
0.968766 0.493898 0.633622
0.001449 0.548515 0.758617
0.009148 0.550189 0.758811
0.261634 0.554429 0.756458
0.459666 0.564992 0.761165
0.606108 0.571829 0.769028
0.738202 0.604860 0.773491
0.827985 0.622329 0.757434
0.884895 0.625422 0.710022
0.939877 0.597107 0.661930
0.111943 0.685308 0.775319
0.210118 0.686428 0.774402
0.336106 0.686554 0.773658
0.471772 0.691044 0.772495
0.593477 0.696290 0.772378
0.706635 0.714287 0.780017
0.794271 0.734127 0.779163
0.849587 0.718054 0.735083
0.911237 0.689027 0.687464
0.320904 0.792158 0.802506
0.354230 0.793505 0.798686
0.423656 0.793737 0.798847
0.512596 0.794998 0.798473
0.604117 0.798954 0.796154
0.691246 0.807292 0.802295
0.769749 0.817541 0.803916
0.827020 0.810397 0.779138
0.896546 0.803858 0.745412
0.428009 0.873548 0.838286
0.440171 0.876910 0.832978
0.482027 0.875108 0.835624
0.541712 0.875814 0.833931
0.611854 0.875409 0.830975
0.678911 0.877258 0.825912
0.756051 0.872975 0.822805
0.815648 0.871998 0.808881
0.889346 0.882680 0.800088
0.489967 0.944336 0.871567
0.505591 0.943649 0.871899
0.526543 0.945261 0.868634
0.566819 0.945882 0.869363
0.615883 0.943600 0.860234
0.679550 0.942202 0.854770
0.765154 0.938244 0.861573
0.829759 0.935963 0.861829
0.891708 0.941261 0.856194
0.000000 0.205334 0.855976
0.000807 0.198057 0.854602
0.182005 0.193466 0.856192
0.436210 0.182347 0.858761
0.622427 0.177431 0.861426
0.779759 0.206768 0.863479
0.890219 0.253182 0.862397
0.962556 0.308888 0.832980
1.000000 0.372006 0.766220
0.002996 0.240885 0.859890
0.001108 0.240107 0.857792
0.215632 0.235999 0.861489
0.445145 0.232896 0.860658
0.628163 0.235226 0.861525
0.776234 0.268471 0.865493
0.886487 0.314035 0.862129
0.951236 0.355953 0.829340
0.999332 0.413733 0.763865
0.000470 0.325036 0.862215
0.017131 0.327112 0.860656
0.269667 0.327371 0.859113
0.464967 0.332108 0.859205
0.634166 0.345350 0.862908
0.769298 0.384238 0.865606
0.869789 0.426737 0.861624
0.935651 0.456688 0.831492
0.981726 0.496882 0.774058
0.177878 0.466068 0.856846
0.225411 0.459131 0.862150
0.328619 0.448730 0.859985
0.493277 0.459000 0.859340
0.636432 0.479672 0.860977
0.758645 0.516611 0.865942
0.846457 0.556143 0.861126
0.913448 0.570335 0.837265
0.959240 0.592572 0.781760
0.223970 0.589407 0.856350
0.285771 0.588956 0.857731
0.395232 0.595003 0.856252
0.515317 0.597717 0.860515
0.624636 0.602809 0.860694
0.732255 0.630826 0.863068
0.817786 0.665881 0.863026
0.884489 0.673289 0.845087
0.937395 0.684551 0.799816
0.276392 0.703591 0.859924
0.311350 0.704651 0.861733
0.391708 0.705479 0.859373
0.490555 0.706187 0.857276
0.602608 0.713185 0.859954
0.702686 0.722999 0.861330
0.789032 0.749983 0.868348
0.856250 0.761372 0.857102
0.913733 0.762739 0.820526
0.378242 0.801073 0.876241
0.400479 0.803053 0.872010
0.447602 0.804632 0.874313
0.515093 0.803189 0.869968
0.594582 0.802931 0.869735
0.675207 0.805209 0.866193
0.757452 0.818331 0.872287
0.836086 0.830891 0.871871
0.885105 0.820419 0.834492
0.467439 0.877720 0.893408
0.481835 0.874411 0.891429
0.512016 0.876520 0.889983
0.558667 0.874240 0.888885
0.613518 0.874747 0.888483
0.680323 0.876837 0.889042
0.747179 0.880259 0.886179
0.821704 0.890644 0.890891
0.881324 0.881165 0.871707
0.523430 0.947647 0.925541
0.532630 0.947782 0.926705
0.553854 0.946380 0.921232
0.586944 0.946454 0.922065
0.629389 0.948715 0.920754
0.681515 0.944629 0.912937
0.742113 0.948627 0.909669
0.821363 0.947240 0.912002
0.892792 0.945542 0.905037
0.352936 0.349030 0.949005
0.393776 0.356381 0.949055
0.481583 0.356873 0.951966
0.583812 0.371083 0.951950
0.695145 0.395065 0.949082
0.792141 0.435272 0.948506
0.866683 0.491173 0.943467
0.940777 0.529469 0.940674
0.996063 0.552948 0.913727
0.378979 0.385933 0.952450
0.413785 0.387743 0.947405
0.488777 0.391835 0.952936
0.589895 0.404294 0.952098
0.695976 0.430067 0.950024
0.787246 0.467713 0.947860
0.862039 0.520110 0.944207
0.930730 0.553330 0.940593
0.989655 0.572536 0.916764
0.415917 0.460571 0.949479
0.447857 0.463897 0.948669
0.510631 0.469223 0.944666
0.601558 0.482967 0.947497
0.693703 0.503647 0.944496
0.775573 0.539413 0.943676
0.846872 0.580629 0.942118
0.914637 0.605737 0.936212
0.977234 0.620048 0.914261
0.454838 0.564632 0.950135
0.474641 0.564080 0.949678
0.528487 0.570391 0.948633
0.602694 0.578241 0.945713
0.687389 0.595336 0.943129
0.762171 0.620513 0.942620
0.829371 0.652381 0.939696
0.896958 0.672894 0.936163
0.961731 0.675087 0.916683
0.476608 0.670593 0.944092
0.498036 0.675270 0.941914
0.545357 0.678749 0.941559
0.593361 0.667690 0.939491
0.667206 0.676918 0.942154
0.740108 0.694910 0.942066
0.806034 0.717678 0.940277
0.874634 0.738409 0.937508
0.947006 0.737198 0.922516
0.453301 0.755852 0.942116
0.474512 0.757455 0.946014
0.513755 0.755814 0.942633
0.573543 0.756456 0.945322
0.645918 0.757759 0.944799
0.712416 0.761900 0.940027
0.784600 0.779594 0.942089
0.856537 0.797589 0.940329
0.927540 0.797130 0.928024
0.496834 0.832352 0.951210
0.505741 0.832392 0.947765
0.532646 0.832712 0.948196
0.569771 0.830047 0.947126
0.622730 0.826660 0.946690
0.687609 0.826252 0.945967
0.756361 0.831650 0.942612
0.834586 0.847999 0.942744
0.910568 0.850677 0.930832
0.550499 0.891167 0.957749
0.555244 0.888258 0.956665
0.572788 0.890888 0.949451
0.599926 0.891729 0.952568
0.640365 0.892142 0.953022
0.689276 0.890792 0.948717
0.743155 0.889818 0.944905
0.820553 0.895143 0.947702
0.901413 0.902885 0.940735
0.611755 0.937256 0.952942
0.615200 0.944119 0.952942
0.627662 0.937477 0.955338
0.646614 0.942219 0.950516
0.678436 0.943085 0.950027
0.717106 0.946606 0.956863
0.768089 0.948250 0.951210
0.831414 0.948959 0.949116
0.886261 0.949005 0.945099
