ml_luts/presetpro_agfa_ultra_100__lut3d_33.cube
TITLE "Presetpro - Agfa Ultra"
DOMAIN_MIN 0.000000 0.000000 0.000000
DOMAIN_MAX 1.000000 1.000000 1.000000
LUT_3D_SIZE 9
0.000000 0.000000 0.000000
0.047397 0.000442 0.000000
0.156197 0.027237 0.001739
0.291184 0.055431 0.005455
0.450912 0.075516 0.000000
0.611847 0.100551 0.001507
0.747078 0.140968 0.000000
0.872658 0.200100 0.000000
1.000000 0.270599 0.000000
0.002991 0.049549 0.004372
0.056810 0.067926 0.003017
0.168982 0.090885 0.000341
0.300336 0.109724 0.001139
0.456846 0.134580 0.002424
0.614113 0.160408 0.001706
0.748993 0.188180 0.004010
0.873886 0.236117 0.004166
0.998234 0.298344 0.005981
0.002395 0.167626 0.002937
0.007288 0.174125 0.000808
0.167873 0.195740 0.001162
0.326629 0.226055 0.001278
0.475010 0.235565 0.002193
0.617524 0.253936 0.001811
0.748245 0.280897 0.002268
0.875904 0.314842 0.001977
0.997826 0.365669 0.004593
0.000526 0.319614 0.000000
0.001142 0.324278 0.002873
0.088692 0.340391 0.002096
0.316580 0.371808 0.000923
0.515780 0.406113 0.001371
0.639601 0.396193 0.001495
0.756563 0.393859 0.002133
0.879256 0.419440 0.000940
0.999050 0.456295 0.002430
0.000946 0.491211 0.002975
0.000465 0.495037 0.003336
0.002460 0.504002 0.002907
0.236280 0.522140 0.001017
0.464264 0.542694 0.000503
0.669487 0.576542 0.002310
0.779446 0.554947 0.002552
0.889696 0.552545 0.004738
0.998047 0.568695 0.000000
0.000000 0.646057 0.000954
0.004444 0.642842 0.001154
0.002505 0.649110 0.001053
0.069512 0.660284 0.001966
0.388687 0.670860 0.001394
0.599437 0.686664 0.001468
0.791896 0.721090 0.001082
0.911386 0.703436 0.001869
0.998493 0.708801 0.000000
0.000000 0.778969 0.009766
0.001987 0.781449 0.012928
0.003731 0.781481 0.046879
0.002004 0.786874 0.046985
0.319515 0.798008 0.001564
0.536428 0.809079 0.000498
0.726747 0.815483 0.003014
0.909751 0.848819 0.000198
1.000000 0.839233 0.000000
0.000442 0.903931 0.175453
0.000446 0.906931 0.175966
0.002563 0.909444 0.204521
0.000373 0.910752 0.228012
0.285477 0.914307 0.185140
0.504561 0.919301 0.067426
0.681012 0.928088 0.006484
0.846675 0.927814 0.000097
0.997692 0.943077 0.004330
0.000000 0.996063 0.333344
0.006519 0.995620 0.340290
0.002937 0.995849 0.354378
0.052799 0.997539 0.374447
0.337310 1.000000 0.382294
0.502999 1.000000 0.319138
0.646835 0.999237 0.218834
0.793725 0.999508 0.000000
0.933319 1.000000 0.000000
0.000046 0.000000 0.068618
0.056988 0.000414 0.072064
0.167609 0.000208 0.073165
0.296692 0.019863 0.075707
0.463262 0.041939 0.078062
0.617851 0.079338 0.068444
0.749688 0.131131 0.063129
0.877143 0.193484 0.053484
1.000000 0.263637 0.063266
0.000110 0.057915 0.069832
0.059272 0.063997 0.079253
0.171848 0.076818 0.078923
0.304188 0.099042 0.070643
0.469760 0.118567 0.070358
0.618536 0.143199 0.060232
0.750176 0.182185 0.045882
0.874188 0.230461 0.044324
0.998254 0.295266 0.057216
0.000464 0.172493 0.085214
0.010868 0.176861 0.082674
0.170747 0.194452 0.065870
0.331191 0.212634 0.044418
0.480026 0.226596 0.037329
0.622760 0.248562 0.027568
0.755934 0.273215 0.011801
0.877582 0.311626 0.008820
0.996551 0.364728 0.015346
0.002369 0.323389 0.078077
0.000559 0.327647 0.084165
0.086906 0.342133 0.070395
0.319261 0.369749 0.007149
0.516768 0.397925 0.001575
0.640530 0.386441 0.001816
0.754593 0.389766 0.001992
0.881210 0.417228 0.000411
0.997778 0.456569 0.002089
0.000740 0.492251 0.055641
0.001057 0.497891 0.061270
0.003960 0.503113 0.073115
0.240563 0.521557 0.009042
0.469292 0.541831 0.002019
0.669512 0.570599 0.000980
0.776659 0.551214 0.002194
0.888478 0.547129 0.002395
0.999750 0.563192 0.000324
0.001223 0.643162 0.068349
0.000636 0.644634 0.077106
0.002468 0.649356 0.097822
0.084713 0.660889 0.062996
0.397893 0.671038 0.002683
0.601540 0.688839 0.002041
0.795309 0.719014 0.000657
0.909405 0.704624 0.002996
0.997550 0.701160 0.000721
0.000937 0.783885 0.136344
0.003116 0.780675 0.148766
0.004114 0.784404 0.160858
0.004428 0.787676 0.177196
0.329361 0.797326 0.106104
0.543118 0.808259 0.004665
0.728154 0.817374 0.001511
0.910276 0.845262 0.002043
0.998418 0.838605 0.000237
0.004343 0.903860 0.237435
0.000755 0.906683 0.241225
0.004114 0.906061 0.262628
0.003230 0.908373 0.286609
0.308274 0.913239 0.259375
0.509567 0.918231 0.190003
0.683358 0.926760 0.023767
0.849644 0.927569 0.002830
0.997453 0.944803 0.001455
0.000046 0.999954 0.364163
0.006533 0.999945 0.368136
0.001792 0.999112 0.377633
0.089449 0.998507 0.405018
0.352131 0.998546 0.414661
0.505946 0.998713 0.362586
0.653313 0.999886 0.281974
0.790561 0.999954 0.047454
0.935928 0.996555 0.003887
0.000000 0.000763 0.197822
0.029328 0.000111 0.202462
0.172004 0.000023 0.209228
0.321866 0.000103 0.213129
0.484467 0.002014 0.207997
0.629779 0.016814 0.214991
0.757372 0.116428 0.218912
0.875587 0.192711 0.221702
0.997047 0.269836 0.228730
0.001153 0.071456 0.202690
0.006122 0.061845 0.207780
0.171738 0.061828 0.210864
0.324930 0.060686 0.210218
0.484988 0.071091 0.211622
0.630349 0.124234 0.216187
0.760364 0.173280 0.219157
0.879728 0.231270 0.218628
0.995707 0.298333 0.230100
0.000023 0.176504 0.206035
0.001737 0.180994 0.211276
0.179185 0.189384 0.217784
0.334342 0.201473 0.218673
0.490539 0.218805 0.212816
0.633011 0.240371 0.208380
0.760027 0.270748 0.204474
0.881867 0.309957 0.208387
0.998362 0.360640 0.216770
0.000575 0.326278 0.227311
0.003553 0.332959 0.232902
0.117403 0.343674 0.231733
0.335052 0.368487 0.208207
0.512201 0.379776 0.188664
0.636321 0.372162 0.184151
0.760849 0.386610 0.184781
0.881488 0.412381 0.181929
0.996734 0.458084 0.194429
0.001114 0.498146 0.232086
0.003448 0.499505 0.228326
0.002202 0.505562 0.233496
0.256206 0.521730 0.231780
0.477795 0.541250 0.185184
0.667044 0.559144 0.132830
0.773320 0.540753 0.136251
0.884791 0.537546 0.139193
0.997280 0.562878 0.152939
0.001763 0.643315 0.244557
0.002832 0.646234 0.245167
0.002429 0.651607 0.259496
0.154393 0.656612 0.267224
0.409790 0.670505 0.231544
0.605930 0.688493 0.168572
0.797536 0.712311 0.053587
0.905433 0.696681 0.052630
0.999762 0.696606 0.061443
0.000732 0.778957 0.279669
0.002675 0.779634 0.289970
0.002844 0.782613 0.296819
0.059119 0.787356 0.319375
0.361156 0.795827 0.296664
0.552758 0.806680 0.249014
0.728481 0.816193 0.155412
0.916593 0.842978 0.003150
0.998812 0.831450 0.001842
0.003256 0.902859 0.341623
0.003166 0.902389 0.348966
0.003005 0.904940 0.361928
0.043021 0.908062 0.372965
0.342143 0.911721 0.375321
0.527320 0.916459 0.334708
0.690764 0.925004 0.271932
0.847181 0.930275 0.126105
0.997741 0.947745 0.002040
0.001518 0.997826 0.431374
0.005076 0.999292 0.435331
0.001135 0.996452 0.441813
0.173431 0.998652 0.462439
0.384987 0.999020 0.484963
0.526009 0.997998 0.452388
0.665012 0.999245 0.389799
0.802118 0.997054 0.276780
0.934098 1.000000 0.002937
0.000000 0.002457 0.357338
0.000882 0.001189 0.358298
0.133829 0.000000 0.372700
0.318794 0.001507 0.381029
0.499085 0.001707 0.379311
0.658247 0.001180 0.365490
0.776706 0.018734 0.356750
0.882020 0.211725 0.379391
0.998112 0.310215 0.406895
0.000383 0.063434 0.361553
0.000728 0.059280 0.369099
0.122388 0.051413 0.372496
0.325495 0.024708 0.389261
0.506627 0.001282 0.380807
0.656479 0.020664 0.364026
0.773304 0.143840 0.364637
0.880831 0.263183 0.391577
0.995664 0.336620 0.402619
0.001378 0.191356 0.365297
0.004010 0.191064 0.368191
0.117626 0.183000 0.385808
0.334995 0.186366 0.395156
0.516828 0.194181 0.380533
0.648674 0.233216 0.377106
0.763825 0.290377 0.387742
0.879614 0.336611 0.388203
0.998477 0.386741 0.393454
0.000685 0.328335 0.374641
0.000315 0.335111 0.378796
0.091690 0.344949 0.381706
0.345413 0.361976 0.398408
0.507519 0.370183 0.391080
0.639966 0.384391 0.385790
0.760561 0.402233 0.379677
0.879175 0.430049 0.377971
0.995928 0.470036 0.384848
0.001104 0.492718 0.379795
0.002337 0.495440 0.387410
0.091761 0.505220 0.401265
0.314734 0.518336 0.412754
0.493248 0.538686 0.396431
0.653330 0.539483 0.370991
0.764813 0.527731 0.357228
0.879388 0.539937 0.353423
0.998796 0.569628 0.362051
0.003831 0.640119 0.419774
0.001788 0.644102 0.421711
0.033530 0.649066 0.417494
0.267910 0.656562 0.428513
0.443053 0.667937 0.422702
0.617183 0.684648 0.396125
0.787488 0.703670 0.355019
0.894641 0.688032 0.336512
0.998696 0.689489 0.332018
0.002369 0.775986 0.426730
0.000872 0.779225 0.429536
0.002315 0.780034 0.434028
0.214944 0.784365 0.450084
0.404957 0.791349 0.459416
0.570234 0.804733 0.429084
0.736847 0.815423 0.392347
0.914360 0.840140 0.326450
1.000000 0.826279 0.296487
0.001544 0.901277 0.457724
0.002440 0.904513 0.462158
0.004121 0.902162 0.469560
0.180983 0.905208 0.481979
0.393511 0.908655 0.500455
0.549415 0.915063 0.478984
0.699529 0.922302 0.439501
0.851491 0.929139 0.376342
0.999163 0.943157 0.243545
0.000000 0.998524 0.515682
0.001484 0.999076 0.519371
0.002035 0.999006 0.529315
0.249983 0.998717 0.543528
0.421659 0.998669 0.561348
0.553256 0.998888 0.558344
0.676783 0.999447 0.513014
0.807952 0.998287 0.445273
0.937256 1.000000 0.285686
0.000946 0.000000 0.522506
0.002384 0.000095 0.524122
0.008579 0.001797 0.526466
0.278143 0.000591 0.540392
0.480263 0.001449 0.551460
0.654135 0.000952 0.542967
0.796635 0.004082 0.518391
0.905811 0.143778 0.510260
0.999054 0.305008 0.537384
0.001732 0.056659 0.522835
0.001529 0.056606 0.527238
0.006650 0.044871 0.535842
0.280555 0.010966 0.546603
0.486453 0.000676 0.555451
0.656313 0.003356 0.542453
0.797091 0.044734 0.521461
0.901212 0.216051 0.518824
0.998510 0.340922 0.540966
0.001675 0.200413 0.528312
0.000798 0.191966 0.532716
0.002830 0.177911 0.539979
0.281327 0.179219 0.547514
0.494718 0.175842 0.557518
0.662974 0.198689 0.546746
0.791249 0.255508 0.530410
0.893684 0.332758 0.531907
0.993210 0.423985 0.557106
0.001329 0.335169 0.525040
0.002709 0.337423 0.528411
0.023042 0.346473 0.532731
0.302381 0.350089 0.548415
0.502656 0.363382 0.559136
0.657693 0.384198 0.549400
0.772403 0.416661 0.541561
0.876370 0.459021 0.545141
0.993029 0.499378 0.556517
0.001045 0.489624 0.533195
0.002370 0.492012 0.536113
0.007046 0.498411 0.542078
0.317580 0.510225 0.552062
0.505089 0.529869 0.565926
0.638448 0.536726 0.554689
0.756704 0.543261 0.542830
0.874443 0.554890 0.532608
0.994660 0.582351 0.529480
0.001890 0.631052 0.528763
0.002484 0.634818 0.529836
0.022501 0.641475 0.538689
0.331807 0.650175 0.560137
0.480779 0.665431 0.572100
0.630068 0.682459 0.564377
0.773787 0.683028 0.534796
0.879396 0.671393 0.511715
0.998581 0.683502 0.506277
0.001587 0.767021 0.555306
0.002337 0.769328 0.561561
0.133499 0.772421 0.570725
0.313986 0.781079 0.576350
0.453682 0.787985 0.586414
0.594038 0.799999 0.582403
0.745377 0.812989 0.556665
0.907664 0.830447 0.513395
0.999104 0.816681 0.493061
0.000694 0.894900 0.591846
0.000727 0.895804 0.592390
0.051723 0.896411 0.586678
0.260428 0.902414 0.586670
0.436925 0.905650 0.608599
0.574127 0.911637 0.614209
0.712908 0.918212 0.588279
0.860865 0.926434 0.550130
0.999897 0.941891 0.475107
0.002914 0.998108 0.603927
0.003422 0.999096 0.603605
0.035774 0.997669 0.610054
0.298878 0.999029 0.624876
0.455376 0.998993 0.641182
0.583773 0.999525 0.660252
0.699283 1.000000 0.635384
0.815531 0.999260 0.587607
0.941239 0.999054 0.507843
0.002461 0.000000 0.661277
0.001142 0.000461 0.663159
0.004396 0.000395 0.667046
0.195796 0.001519 0.677181
0.428425 0.002588 0.686142
0.624133 0.002103 0.694961
0.784940 0.001089 0.686086
0.922949 0.022913 0.670884
0.997570 0.263725 0.661758
0.000461 0.057798 0.664098
0.002143 0.053451 0.667044
0.001521 0.043247 0.667828
0.197247 0.011712 0.679067
0.432383 0.001154 0.687194
0.628945 0.002279 0.696272
0.785862 0.006023 0.686979
0.914636 0.158764 0.665302
0.998545 0.305625 0.668380
0.003494 0.180765 0.668488
0.000658 0.174955 0.668771
0.001129 0.175188 0.671368
0.203018 0.175604 0.677448
0.439546 0.174620 0.688730
0.634367 0.184769 0.697054
0.788428 0.228946 0.690403
0.912251 0.300137 0.672941
0.998577 0.392536 0.668205
0.000679 0.342006 0.659935
0.001148 0.342115 0.664501
0.002022 0.344868 0.671961
0.232287 0.337632 0.681295
0.455249 0.351586 0.689625
0.636274 0.371128 0.700149
0.782785 0.400777 0.687739
0.903700 0.440044 0.674704
0.999280 0.497158 0.679281
0.000591 0.480469 0.661604
0.001186 0.484506 0.664812
0.002508 0.491570 0.670564
0.286906 0.505563 0.673112
0.467407 0.514201 0.687886
0.638583 0.530871 0.698887
0.777316 0.547410 0.690664
0.886727 0.568682 0.679958
0.990156 0.607065 0.693512
0.000923 0.628542 0.670274
0.003832 0.627224 0.672469
0.003636 0.633903 0.676155
0.269905 0.640796 0.678315
0.474362 0.654372 0.687988
0.638149 0.674671 0.702546
0.759730 0.674400 0.689757
0.876063 0.677181 0.680982
0.990828 0.693460 0.670342
0.002164 0.758996 0.655369
0.001891 0.761787 0.653481
0.002066 0.763630 0.660141
0.250511 0.769843 0.670655
0.476369 0.782068 0.692681
0.622726 0.794788 0.709311
0.755509 0.811559 0.700891
0.895850 0.812035 0.672075
0.999340 0.798941 0.647911
0.001243 0.890872 0.676739
0.000575 0.892504 0.678961
0.015845 0.894315 0.687256
0.321811 0.893741 0.701994
0.480541 0.901170 0.708174
0.602230 0.907796 0.718570
0.732274 0.916113 0.718167
0.866972 0.924135 0.690584
0.999588 0.930553 0.649228
0.003014 1.000000 0.717197
0.074517 0.997029 0.718698
0.267578 0.998558 0.726929
0.377506 0.999245 0.724719
0.481112 0.998869 0.723894
0.614719 0.998687 0.743352
0.726291 0.997873 0.749752
0.833243 0.999539 0.726633
0.949021 1.000000 0.677006
0.002174 0.000221 0.796310
0.000659 0.002457 0.789420
0.002174 0.000378 0.792580
0.075995 0.000512 0.798893
0.381454 0.002216 0.805103
0.581868 0.001728 0.816471
0.759054 0.003492 0.819287
0.908367 0.005425 0.814525
0.999237 0.217865 0.800537
0.000699 0.057045 0.794518
0.001225 0.054251 0.795403
0.002763 0.041864 0.798648
0.074381 0.013573 0.801443
0.386161 0.001228 0.809054
0.588020 0.001265 0.817629
0.759971 0.002538 0.817959
0.907256 0.115282 0.814141
0.999388 0.268754 0.803062
0.000378 0.174689 0.796875
0.000264 0.175832 0.793460
0.001616 0.173974 0.799146
0.084355 0.174513 0.800515
0.393266 0.175015 0.807175
0.591676 0.183657 0.813386
0.765806 0.215893 0.823026
0.905387 0.279256 0.817064
0.999834 0.362004 0.803300
0.001349 0.348851 0.792284
0.002006 0.344497 0.795085
0.003953 0.327153 0.796589
0.127877 0.329489 0.800805
0.409156 0.339906 0.806154
0.600172 0.360793 0.813602
0.765464 0.386385 0.819219
0.900346 0.422475 0.811686
0.998776 0.478080 0.800008
0.001449 0.489113 0.783596
0.001269 0.490586 0.784417
0.002730 0.495029 0.789925
0.237045 0.499988 0.792792
0.420851 0.493263 0.802675
0.600530 0.511971 0.813016
0.764527 0.533442 0.819898
0.899538 0.558300 0.810384
1.000000 0.593781 0.801990
0.000937 0.621169 0.784481
0.001214 0.623068 0.784093
0.002213 0.625246 0.783038
0.214567 0.631972 0.791027
0.439324 0.642957 0.794551
0.602668 0.653295 0.806540
0.765253 0.671684 0.820670
0.894328 0.685705 0.808606
0.997543 0.708633 0.805830
0.000946 0.757032 0.786018
0.000889 0.756630 0.791514
0.001731 0.758857 0.791607
0.147365 0.762863 0.791680
0.421697 0.769559 0.798405
0.610207 0.782398 0.806856
0.768121 0.802400 0.822355
0.881292 0.799129 0.803692
0.992582 0.802639 0.797113
0.000862 0.884321 0.775682
0.001768 0.884743 0.778041
0.004884 0.886090 0.780459
0.036384 0.888293 0.779646
0.397817 0.893546 0.790474
0.614624 0.900049 0.810832
0.760401 0.910462 0.825339
0.881878 0.919728 0.820850
0.999976 0.920277 0.794567
0.003158 0.999237 0.786500
0.002124 0.999728 0.788130
0.002039 0.997580 0.789019
0.233617 0.998150 0.801799
0.488457 0.998478 0.813519
0.653495 1.000000 0.829802
0.759039 0.999456 0.840416
0.859604 0.999564 0.837885
0.964920 1.000000 0.811996
0.000454 0.000000 0.917839
0.000444 0.002617 0.915389
0.001882 0.001001 0.914414
0.006174 0.001453 0.920114
0.349499 0.002024 0.924290
0.561047 0.000680 0.925691
0.734387 0.003289 0.928396
0.895282 0.004280 0.930451
0.996128 0.183135 0.934769
0.002288 0.065739 0.916763
0.000412 0.061975 0.916120
0.001172 0.051648 0.920008
0.009685 0.026647 0.913629
0.358685 0.001611 0.920016
0.560741 0.000823 0.927358
0.738126 0.006271 0.931682
0.893465 0.123081 0.931218
0.999954 0.239778 0.929374
0.000573 0.181801 0.917047
0.000231 0.182133 0.915404
0.003477 0.181002 0.920987
0.021038 0.181020 0.919424
0.363170 0.184011 0.920309
0.567562 0.196156 0.925620
0.742841 0.224929 0.930536
0.895960 0.275706 0.928968
0.998549 0.341789 0.928710
0.001665 0.337609 0.911941
0.002307 0.329939 0.915083
0.000744 0.325060 0.915965
0.042595 0.332574 0.916900
0.379423 0.342165 0.919449
0.575249 0.359409 0.924639
0.745100 0.381860 0.930656
0.893922 0.414330 0.925832
0.998314 0.461368 0.923489
0.000969 0.507296 0.907956
0.001809 0.507827 0.909229
0.002603 0.505596 0.909636
0.113244 0.487493 0.913062
0.377921 0.487255 0.917041
0.574916 0.500333 0.918745
0.741538 0.522263 0.923048
0.892070 0.545508 0.929494
0.999977 0.577738 0.919113
0.003257 0.635023 0.901544
0.002480 0.634828 0.900397
0.004037 0.636331 0.901572
0.151338 0.640993 0.902630
0.406533 0.641917 0.912392
0.566279 0.634618 0.914914
0.734609 0.652393 0.921125
0.890453 0.674676 0.924772
0.998801 0.698553 0.912340
0.002292 0.757830 0.901737
0.002187 0.757089 0.901156
0.005213 0.759766 0.904597
0.060283 0.761287 0.902373
0.382968 0.764893 0.904717
0.571717 0.770753 0.905335
0.734460 0.779511 0.915214
0.888923 0.797428 0.921248
0.999648 0.813217 0.912801
0.003088 0.881171 0.905595
0.003503 0.882967 0.908279
0.001322 0.884530 0.903187
0.006197 0.881294 0.907802
0.342375 0.886540 0.905198
0.556295 0.888082 0.906138
0.738528 0.897890 0.910873
0.898523 0.916923 0.929858
0.990748 0.906143 0.910020
0.001816 0.996509 0.885746
0.002807 0.999223 0.888009
0.005001 0.998744 0.888189
0.001200 0.999050 0.885013
0.203816 0.997875 0.887211
0.550095 0.999160 0.894219
0.760618 0.999966 0.907349
0.895981 0.999586 0.928228
0.980823 0.999954 0.917015
0.003937 0.117645 1.000000
0.000442 0.110310 0.997009
0.000763 0.068847 0.997826
0.006206 0.004490 0.997158
0.353958 0.000000 1.000000
0.555435 0.001904 1.000000
0.726265 0.055885 0.999779
0.882500 0.158813 0.999500
1.000000 0.270599 1.000000
0.003483 0.118099 0.996128
0.000374 0.114563 0.994296
0.002002 0.108905 0.999126
0.013750 0.101874 0.997326
0.356043 0.101858 0.999536
0.557942 0.117328 0.999751
0.724407 0.157088 0.997227
0.877123 0.223074 0.999903
1.000000 0.311375 1.000000
0.000000 0.221779 1.000000
0.003242 0.220573 1.000000
0.001898 0.223579 1.000000
0.025175 0.227446 0.995986
0.369282 0.235459 0.999382
0.564546 0.254757 0.998754
0.731418 0.282376 0.997940
0.874210 0.325228 0.998418
1.000000 0.387466 0.997047
0.001904 0.353836 0.999046
0.001204 0.356781 0.999597
0.000849 0.359709 0.998159
0.074175 0.366997 0.997375
0.386166 0.376167 0.998896
0.573551 0.393011 0.997948
0.731779 0.413153 0.998186
0.878107 0.444001 0.999971
1.000000 0.486713 1.000000
0.001968 0.533264 1.000000
0.004206 0.533449 0.999773
0.001339 0.519257 0.999290
0.083185 0.501261 0.999765
0.387222 0.505951 0.999527
0.569923 0.519350 0.998506
0.730072 0.537365 0.998661
0.870247 0.562737 0.998922
1.000000 0.594177 0.999054
0.002461 0.664715 0.999046
0.003288 0.665435 0.999319
0.003317 0.662155 0.998391
0.238058 0.660945 0.998019
0.403560 0.649408 0.997398
0.562390 0.642885 0.998229
0.722687 0.659941 1.000000
0.866844 0.679353 0.999569
0.997585 0.705425 0.996605
0.000763 0.778663 1.000000
0.001625 0.779526 0.999446
0.001682 0.779963 0.997042
0.191783 0.780967 0.997108
0.416111 0.783554 0.999386
0.581210 0.784184 0.999523
0.718887 0.777470 0.996969
0.862870 0.794063 0.997279
0.991394 0.810356 0.994873
0.003433 0.887314 1.000000
0.000516 0.883600 1.000000
0.000799 0.884459 0.999564
0.025665 0.884222 0.999733
0.375044 0.885247 0.999559
0.566731 0.890030 0.997272
0.736660 0.895802 0.999597
0.876564 0.900768 0.999626
0.998611 0.915237 0.996113
0.000000 1.000000 1.000000
0.000046 0.999557 0.999557
0.002174 0.999016 0.999016
0.000954 0.997017 0.997017
0.243881 0.997162 0.999054
0.525513 0.999474 1.000000
0.711761 1.000000 0.998482
0.870095 0.999073 1.000000
1.000000 1.000000 1.000000
