ml_luts/presetpro_agfa_vista__lut3d_33.cube
TITLE "AGF 11  - Vista.jpg"
DOMAIN_MIN 0.000000 0.000000 0.000000
DOMAIN_MAX 1.000000 1.000000 1.000000
LUT_3D_SIZE 33
0.000000 0.000000 0.000000
0.003932 0.003666 0.003814
0.012242 0.007361 0.000475
0.027113 0.004612 0.003231
0.052494 0.000538 0.000897
0.080344 0.003322 0.007239
0.104408 0.003937 0.013716
0.136883 0.000861 0.008700
0.171562 0.002174 0.008377
0.210693 0.000815 0.018216
0.250073 0.000000 0.016762
0.289661 0.000000 0.014515
0.331356 0.000954 0.018658
0.376717 0.000620 0.016534
0.427473 0.000000 0.019096
0.478139 0.000000 0.022524
0.525558 0.000000 0.018661
0.575582 0.001016 0.019176
0.628424 0.001219 0.020315
0.683329 0.001599 0.017623
0.739757 0.002461 0.014381
0.792412 0.000000 0.008927
0.847289 0.000000 0.015880
0.901032 0.000283 0.019323
0.948052 0.001518 0.012535
0.987197 0.003079 0.012301
0.999380 0.002699 0.015682
1.000000 0.000541 0.023699
1.000000 0.000000 0.032795
0.999631 0.000023 0.044535
0.996309 0.000236 0.063248
1.000000 0.000118 0.086409
1.000000 0.000000 0.101959
0.000000 0.007834 0.000000
0.003932 0.011529 0.000119
0.011992 0.015086 0.000015
0.026739 0.015543 0.000208
0.046988 0.017933 0.000146
0.072759 0.015980 0.003961
0.103444 0.012289 0.011415
0.139121 0.009614 0.014302
0.175183 0.002337 0.012612
0.210397 0.001959 0.012919
0.246008 0.000841 0.012131
0.287138 0.000795 0.012647
0.331437 0.001944 0.013935
0.377995 0.001916 0.013795
0.428158 0.000698 0.016618
0.480024 0.000000 0.018307
0.526401 0.000916 0.017553
0.573678 0.001865 0.017573
0.628296 0.001988 0.018024
0.682796 0.002786 0.015973
0.737920 0.002368 0.014670
0.796291 0.000000 0.016388
0.850333 0.002300 0.010419
0.898037 0.005300 0.008328
0.947291 0.000787 0.010251
0.986432 0.002406 0.007569
0.996860 0.000772 0.011874
0.999900 0.003110 0.014804
1.000000 0.000414 0.031720
0.999656 0.003334 0.043807
0.996320 0.003333 0.056786
0.996186 0.000123 0.082247
0.996186 0.003814 0.094361
0.000000 0.019588 0.011044
0.003821 0.023173 0.007247
0.014981 0.023503 0.003906
0.026821 0.026857 0.000560
0.049060 0.021555 0.006044
0.073814 0.023104 0.002110
0.106307 0.020145 0.002048
0.135203 0.016182 0.005107
0.173877 0.006398 0.012363
0.211180 0.002962 0.011823
0.251184 0.001674 0.010548
0.290633 0.000454 0.012223
0.336801 0.000124 0.016751
0.381116 0.000904 0.015789
0.424640 0.000750 0.017713
0.472468 0.002752 0.017111
0.523768 0.002548 0.013626
0.576340 0.001848 0.015104
0.627952 0.002202 0.013108
0.681841 0.000758 0.009626
0.738369 0.001536 0.010802
0.793075 0.000864 0.008619
0.847569 0.000560 0.006586
0.898866 0.001352 0.005681
0.947230 0.000992 0.008254
0.987053 0.003314 0.006813
0.999570 0.003477 0.011197
0.999801 0.003633 0.012599
1.000000 0.003031 0.018950
0.999979 0.000236 0.034149
0.999555 0.000443 0.055285
0.996421 0.000236 0.072684
0.999525 0.000475 0.101011
0.000000 0.038470 0.015320
0.000358 0.038484 0.008054
0.010991 0.038588 0.007809
0.026029 0.039127 0.003986
0.049444 0.041627 0.001340
0.076380 0.039123 0.003039
0.106298 0.035018 0.006531
0.140010 0.030754 0.007528
0.171341 0.021540 0.004054
0.207459 0.011654 0.006134
0.250570 0.003629 0.012283
0.291707 0.000430 0.012798
0.336771 0.000000 0.010173
0.380563 0.001983 0.010251
0.424461 0.002579 0.013207
0.472202 0.002357 0.015393
0.522857 0.001341 0.012081
0.576591 0.001094 0.007757
0.629784 0.001966 0.006956
0.683460 0.001641 0.005925
0.740367 0.001210 0.004556
0.795217 0.000086 0.003099
0.848415 0.000257 0.001493
0.897738 0.000598 0.002679
0.946502 0.000786 0.002386
0.986558 0.002477 0.004935
0.996409 0.000343 0.002037
0.996918 0.000845 0.007238
0.999710 0.003149 0.014021
0.999720 0.000614 0.031535
0.996955 0.003141 0.053545
0.996110 0.000230 0.064091
0.996769 0.003231 0.088389
0.002991 0.054844 0.019558
0.002991 0.054696 0.015607
0.007314 0.054605 0.014797
0.016553 0.055136 0.017075
0.042520 0.057921 0.002602
0.079628 0.061060 0.005331
0.110314 0.057887 0.006997
0.141465 0.056250 0.007697
0.177244 0.046798 0.009846
0.213109 0.036142 0.006069
0.253015 0.022280 0.007500
0.294425 0.007709 0.006003
0.336037 0.002320 0.010049
0.380875 0.001706 0.010316
0.426478 0.002716 0.008199
0.471770 0.002838 0.008553
0.523596 0.001860 0.009184
0.577019 0.001732 0.008456
0.628496 0.001931 0.004459
0.683273 0.002728 0.000883
0.739565 0.002301 0.001437
0.795586 0.000652 0.001479
0.847439 0.001333 0.000883
0.897652 0.001037 0.002172
0.946113 0.003540 0.000565
0.985209 0.002989 0.000786
0.996063 0.000000 0.001018
0.996133 0.000069 0.001581
0.996572 0.000450 0.003653
0.997168 0.000539 0.021686
0.998542 0.000863 0.046573
0.996158 0.000240 0.068620
0.999103 0.003887 0.080387
0.000534 0.077206 0.029612
0.000534 0.074069 0.025659
0.003678 0.074457 0.019705
0.010758 0.073997 0.022338
0.036560 0.079586 0.014483
0.072515 0.083848 0.010880
0.107904 0.083472 0.002854
0.144456 0.080840 0.003211
0.182700 0.077680 0.006019
0.213613 0.065233 0.002658
0.253673 0.055203 0.005747
0.296227 0.040704 0.007047
0.339662 0.022603 0.006067
0.380796 0.008503 0.006163
0.425494 0.001967 0.004495
0.471432 0.001933 0.002045
0.521369 0.002494 0.001373
0.574271 0.002438 0.001607
0.627630 0.002103 0.001792
0.685607 0.000989 0.002294
0.738900 0.001968 0.001907
0.789508 0.004022 0.000207
0.845849 0.004554 0.000305
0.895897 0.002954 0.000876
0.946461 0.002701 0.002172
0.984260 0.000481 0.005647
0.996164 0.000101 0.001305
0.996519 0.000456 0.000589
0.996450 0.000383 0.000803
0.999221 0.002858 0.008665
0.999634 0.000951 0.031595
0.996608 0.002836 0.050933
0.999919 0.003937 0.078047
0.000620 0.101097 0.028198
0.000620 0.105400 0.024941
0.000618 0.100816 0.025987
0.002424 0.102709 0.028938
0.020515 0.104641 0.022587
0.054558 0.107682 0.013386
0.102741 0.108102 0.006394
0.147394 0.105566 0.003662
0.182215 0.104468 0.002097
0.215668 0.097365 0.001443
0.259957 0.091146 0.002912
0.296668 0.080988 0.002475
0.336344 0.072616 0.001579
0.381270 0.056418 0.001687
0.430154 0.031856 0.001051
0.478727 0.011399 0.000520
0.525312 0.002792 0.000310
0.573751 0.001295 0.001556
0.626695 0.000671 0.003169
0.683101 0.001536 0.003066
0.737967 0.002931 0.002231
0.792013 0.002560 0.000407
0.847397 0.001665 0.000425
0.900011 0.002700 0.001186
0.948424 0.002490 0.001883
0.982588 0.002499 0.004482
0.996086 0.000023 0.001262
0.996505 0.000438 0.000438
0.998341 0.002538 0.001988
0.998807 0.004729 0.002001
0.996961 0.000194 0.014752
0.999360 0.000702 0.033921
0.999380 0.003317 0.069358
0.001550 0.127678 0.027156
0.001550 0.131332 0.027430
0.001215 0.129970 0.027911
0.000890 0.130673 0.026881
0.004854 0.131590 0.030678
0.038623 0.134785 0.018184
0.087245 0.138744 0.008825
0.141343 0.135730 0.002143
0.186926 0.136338 0.002523
0.224110 0.133226 0.001118
0.261074 0.125694 0.000504
0.299275 0.119620 0.000292
0.337308 0.114329 0.001647
0.380492 0.105233 0.004025
0.430925 0.089143 0.004482
0.479523 0.069494 0.001989
0.526750 0.048340 0.001562
0.574559 0.025022 0.002444
0.625260 0.007276 0.002694
0.682307 0.002171 0.003282
0.738427 0.002927 0.001674
0.792242 0.002090 0.000110
0.845951 0.001353 0.000782
0.897470 0.001913 0.002483
0.946029 0.002495 0.002920
0.980931 0.005311 0.003888
0.997869 0.001936 0.002967
0.997744 0.002263 0.005899
0.996654 0.000661 0.001891
0.996684 0.001172 0.001528
0.996908 0.000790 0.003823
0.999158 0.002290 0.018144
0.997449 0.003079 0.048745
0.001198 0.162956 0.036934
0.000466 0.165713 0.039254
0.000385 0.161024 0.030110
0.000485 0.158541 0.027940
0.000736 0.160360 0.029494
0.022155 0.164656 0.022292
0.070691 0.168937 0.017081
0.123488 0.167156 0.004276
0.177345 0.171887 0.000944
0.225126 0.170827 0.000266
0.267089 0.165368 0.001164
0.305496 0.160074 0.000582
0.346695 0.153869 0.001836
0.389211 0.146766 0.002561
0.431750 0.138644 0.002059
0.476644 0.128322 0.000876
0.525177 0.114982 0.000473
0.576138 0.097866 0.000653
0.629472 0.078018 0.002524
0.683524 0.057865 0.004308
0.736189 0.035522 0.001736
0.788983 0.014614 0.000519
0.841951 0.005297 0.001255
0.897014 0.001400 0.001907
0.945311 0.002329 0.004595
0.980423 0.003272 0.003084
0.996641 0.000619 0.002090
0.996693 0.000813 0.002542
0.997079 0.000993 0.004600
0.998601 0.003510 0.002845
0.997212 0.013244 0.000593
0.996783 0.036678 0.004221
0.999237 0.081947 0.029098
0.001095 0.194405 0.044762
0.002775 0.197096 0.047453
0.002048 0.194651 0.043343
0.000280 0.194128 0.037335
0.000141 0.197173 0.035226
0.009540 0.194744 0.030541
0.053328 0.199340 0.022929
0.106421 0.200436 0.008992
0.162929 0.204375 0.001925
0.216701 0.205884 0.000204
0.268942 0.205536 0.000437
0.313472 0.201254 0.000218
0.354805 0.196343 0.000510
0.395650 0.189734 0.002180
0.435165 0.183993 0.001939
0.477079 0.177893 0.001343
0.524799 0.169449 0.002128
0.576710 0.161533 0.001779
0.630490 0.151404 0.001174
0.683235 0.137391 0.001634
0.736980 0.121119 0.001395
0.793476 0.102118 0.001920
0.844647 0.087050 0.002769
0.895689 0.074927 0.001491
0.945116 0.064436 0.002976
0.985067 0.056462 0.001977
0.997703 0.052446 0.001572
0.996366 0.058343 0.003313
0.998204 0.070653 0.002102
0.999522 0.087099 0.002479
0.998417 0.111160 0.000115
0.998083 0.141026 0.001025
0.999189 0.177537 0.007644
0.000353 0.231340 0.054889
0.001203 0.233949 0.053799
0.001048 0.231992 0.053669
0.002550 0.230409 0.047554
0.003459 0.230549 0.046116
0.003254 0.228006 0.041919
0.030197 0.231539 0.034147
0.086276 0.234106 0.016479
0.145042 0.239407 0.003626
0.201360 0.240511 0.000854
0.256788 0.242760 0.000269
0.314107 0.243242 0.001198
0.358984 0.241992 0.000684
0.401256 0.237192 0.001665
0.445077 0.231653 0.002405
0.485762 0.226866 0.001357
0.529603 0.220122 0.002278
0.579899 0.214501 0.003480
0.633048 0.209590 0.002097
0.685246 0.202609 0.000654
0.737700 0.195320 0.001070
0.793150 0.186540 0.002244
0.844659 0.178216 0.001626
0.894676 0.169889 0.001160
0.943577 0.162975 0.002869
0.982229 0.156677 0.001653
0.998358 0.155217 0.001182
0.998826 0.162713 0.001981
0.999223 0.172558 0.004346
0.999692 0.191134 0.004318
0.997822 0.210148 0.003287
0.997879 0.233989 0.000407
0.999647 0.250578 0.002094
0.000000 0.268676 0.067417
0.000078 0.269638 0.066529
0.000084 0.268738 0.063427
0.001234 0.266343 0.058988
0.004481 0.266163 0.053465
0.001133 0.265342 0.054290
0.010534 0.267223 0.047000
0.066608 0.268656 0.031397
0.131970 0.275135 0.013430
0.185751 0.277141 0.002881
0.244979 0.279996 0.000239
0.304715 0.284921 0.000626
0.358332 0.287767 0.001481
0.406566 0.286429 0.001208
0.452497 0.280875 0.000834
0.496593 0.275456 0.001557
0.539965 0.269539 0.001758
0.586125 0.264965 0.002255
0.634987 0.262146 0.002758
0.684773 0.257847 0.001242
0.736800 0.253821 0.002332
0.790066 0.250121 0.004801
0.841859 0.247961 0.001438
0.893450 0.245213 0.000354
0.943233 0.244614 0.001367
0.984114 0.242336 0.001778
0.997449 0.241903 0.002012
0.996956 0.249850 0.001729
0.998780 0.256412 0.002055
0.997904 0.269283 0.001817
0.997679 0.282432 0.001633
0.999064 0.297428 0.000159
0.998338 0.310727 0.005096
0.001507 0.308815 0.078857
0.001551 0.308860 0.078754
0.000097 0.307405 0.073887
0.000000 0.306448 0.071585
0.002891 0.304189 0.067198
0.000516 0.305504 0.068683
0.001692 0.306794 0.057436
0.044914 0.305988 0.044500
0.114852 0.311274 0.029874
0.173249 0.317463 0.010313
0.233139 0.321575 0.002377
0.287670 0.325746 0.001673
0.348804 0.329503 0.002482
0.407922 0.332468 0.001756
0.459087 0.329864 0.002016
0.506447 0.323679 0.002495
0.551380 0.318458 0.002277
0.597699 0.316503 0.001771
0.644915 0.315162 0.001242
0.690399 0.311067 0.001614
0.737514 0.307814 0.004213
0.787903 0.307461 0.005634
0.841143 0.307339 0.000653
0.893991 0.304916 0.000268
0.942387 0.306395 0.001108
0.981596 0.306853 0.001436
0.997639 0.309230 0.001232
0.998276 0.314260 0.002073
0.999392 0.320967 0.000119
0.998851 0.330032 0.001079
0.999041 0.342966 0.002150
0.997587 0.355885 0.000149
0.999050 0.363705 0.002415
0.002339 0.350231 0.088232
0.001092 0.349862 0.087768
0.000983 0.348932 0.085777
0.000765 0.348674 0.085032
0.001473 0.344972 0.080560
0.001898 0.346241 0.081338
0.000367 0.346615 0.072741
0.020966 0.343976 0.057778
0.084955 0.351369 0.046080
0.154545 0.356693 0.024042
0.217062 0.361255 0.007216
0.272557 0.367891 0.004438
0.334646 0.371696 0.003879
0.399213 0.375679 0.002206
0.461198 0.377436 0.002462
0.515273 0.374134 0.001798
0.563658 0.370946 0.002619
0.610443 0.370100 0.002453
0.655452 0.368988 0.000136
0.699659 0.365617 0.000683
0.744608 0.361773 0.002876
0.793361 0.361376 0.003690
0.842898 0.362161 0.000821
0.891285 0.362065 0.002277
0.937332 0.362590 0.001191
0.977679 0.364901 0.000484
0.997903 0.369039 0.000551
0.997312 0.373863 0.002478
0.997674 0.381564 0.001027
0.999599 0.386065 0.007927
0.997716 0.396626 0.004851
0.996186 0.410272 0.000118
1.000000 0.416271 0.000000
0.001001 0.390686 0.102934
0.002228 0.392543 0.102879
0.000818 0.392410 0.101734
0.000564 0.390960 0.096223
0.000454 0.389634 0.092173
0.002314 0.389053 0.091679
0.001489 0.388793 0.087284
0.004981 0.386410 0.075901
0.059410 0.390190 0.066712
0.132496 0.395677 0.046350
0.197786 0.401920 0.018117
0.259224 0.408007 0.006710
0.322158 0.413015 0.003103
0.385612 0.416145 0.002306
0.452978 0.419037 0.002466
0.516680 0.423643 0.001052
0.571970 0.425834 0.002199
0.620401 0.424810 0.002767
0.665490 0.422732 0.000996
0.712012 0.418960 0.001400
0.756592 0.416146 0.002187
0.799713 0.415967 0.001649
0.845976 0.415973 0.000803
0.890440 0.415448 0.002006
0.933580 0.415642 0.000421
0.974104 0.418164 0.000000
0.996553 0.421348 0.000270
0.997133 0.428219 0.001528
0.998031 0.435754 0.002566
0.999611 0.439989 0.006226
0.997457 0.447040 0.002544
0.998331 0.457286 0.000158
1.000000 0.464700 0.003416
0.001070 0.435189 0.117960
0.002858 0.436963 0.118140
0.000182 0.435841 0.114169
0.001704 0.434510 0.106440
0.000235 0.434935 0.106134
0.002334 0.432549 0.104529
0.001344 0.431539 0.101369
0.000222 0.430732 0.093265
0.028795 0.431764 0.083141
0.106119 0.436359 0.068414
0.180908 0.444437 0.038952
0.246111 0.448143 0.014652
0.310201 0.453915 0.003002
0.372524 0.459058 0.001735
0.437973 0.460939 0.001815
0.504622 0.468069 0.000507
0.570720 0.476686 0.000887
0.628135 0.478804 0.001742
0.675471 0.476056 0.002649
0.723181 0.472007 0.003327
0.768085 0.470159 0.001912
0.810248 0.470028 0.000432
0.854483 0.468382 0.000165
0.895707 0.466551 0.000531
0.936438 0.467012 0.000401
0.972842 0.468629 0.000220
0.996399 0.470873 0.000957
0.998852 0.477885 0.001056
0.997489 0.483557 0.002618
0.999828 0.489188 0.001769
0.998280 0.495263 0.001136
0.999901 0.504748 0.001204
0.996839 0.512432 0.002847
0.001953 0.481339 0.129486
0.001037 0.480422 0.128555
0.000063 0.478733 0.124619
0.001604 0.480061 0.120681
0.001276 0.478714 0.120754
0.002171 0.477380 0.118141
0.000441 0.474545 0.114657
0.000000 0.475226 0.107411
0.005298 0.475597 0.096706
0.076158 0.477773 0.085875
0.160850 0.485976 0.064457
0.233280 0.488728 0.032540
0.296574 0.494036 0.007570
0.359641 0.501800 0.000598
0.423253 0.505836 0.000973
0.488002 0.512020 0.000443
0.560273 0.520622 0.000000
0.628781 0.527708 0.000415
0.683891 0.529656 0.002153
0.733148 0.526298 0.002631
0.779362 0.523851 0.000780
0.822707 0.521214 0.000656
0.862838 0.518167 0.001084
0.903270 0.517478 0.001281
0.942356 0.518047 0.000755
0.974605 0.518046 0.000537
0.996488 0.520162 0.002128
0.998816 0.524881 0.000750
0.997711 0.529406 0.000999
0.998814 0.536497 0.000969
0.997264 0.542484 0.001246
0.999818 0.550999 0.002087
0.996078 0.557755 0.001968
0.001005 0.525600 0.140941
0.001750 0.524737 0.140879
0.000996 0.523186 0.138961
0.001592 0.526345 0.137722
0.001328 0.523400 0.133994
0.002037 0.524206 0.131507
0.000943 0.521668 0.128599
0.000144 0.520248 0.123350
0.000802 0.518465 0.116165
0.046876 0.520125 0.103101
0.136770 0.527643 0.088196
0.219126 0.530861 0.058474
0.285319 0.534936 0.022602
0.348915 0.543616 0.003909
0.413465 0.550689 0.001712
0.478583 0.556315 0.001690
0.548158 0.561239 0.000415
0.619482 0.569651 0.000000
0.685825 0.578240 0.000856
0.743514 0.579152 0.001790
0.790682 0.576219 0.002035
0.831160 0.571581 0.002217
0.869791 0.569180 0.001765
0.910902 0.568432 0.002885
0.949526 0.567431 0.001571
0.978043 0.567627 0.001949
0.997066 0.568946 0.001984
0.998898 0.571146 0.000853
0.999845 0.574059 0.002299
0.998679 0.582451 0.000168
0.997968 0.586237 0.000252
0.998866 0.592392 0.002118
0.998995 0.598385 0.003107
0.000721 0.571608 0.155885
0.002085 0.571042 0.156301
0.001195 0.570091 0.157230
0.001911 0.571895 0.155177
0.001125 0.569037 0.150948
0.002450 0.570095 0.148480
0.001423 0.570272 0.145728
0.000246 0.566818 0.139120
0.000000 0.565604 0.132748
0.021561 0.564878 0.121014
0.112880 0.569679 0.111794
0.203959 0.574915 0.087535
0.276298 0.578767 0.050199
0.341129 0.588143 0.018579
0.406184 0.595141 0.004431
0.472249 0.599498 0.001462
0.539525 0.604252 0.000498
0.609102 0.611446 0.000000
0.680278 0.620647 0.000781
0.747188 0.626162 0.001813
0.799930 0.625384 0.002948
0.841325 0.619916 0.003131
0.879872 0.618281 0.000806
0.918644 0.617878 0.002172
0.956403 0.615593 0.001487
0.981164 0.615965 0.002179
0.998402 0.616435 0.000817
0.999087 0.616830 0.001101
0.999849 0.619472 0.003260
0.998906 0.623588 0.000796
0.999920 0.626688 0.001381
0.998721 0.632001 0.003793
0.998999 0.638969 0.001219
0.002578 0.618398 0.174753
0.001678 0.618447 0.171955
0.001021 0.618971 0.174350
0.000092 0.619006 0.172069
0.001189 0.617230 0.170028
0.002091 0.617958 0.165705
0.001581 0.617788 0.162146
0.001359 0.615315 0.154681
0.001218 0.614344 0.148796
0.006760 0.613329 0.141717
0.088854 0.613870 0.137336
0.189684 0.618549 0.116951
0.267521 0.623359 0.087401
0.334670 0.631773 0.050949
0.401139 0.636984 0.017034
0.468497 0.641625 0.001813
0.534574 0.648502 0.000310
0.602152 0.655907 0.000620
0.672826 0.661852 0.001205
0.741602 0.666456 0.001661
0.803759 0.670492 0.002379
0.851935 0.667905 0.002821
0.888310 0.664490 0.000336
0.925317 0.663431 0.001440
0.961282 0.662536 0.001889
0.984115 0.660554 0.000354
0.997925 0.661153 0.000000
0.998802 0.661154 0.000105
0.998773 0.662860 0.000802
0.997310 0.662630 0.001715
0.999846 0.667475 0.001810
0.998978 0.670226 0.004094
0.997661 0.675997 0.000000
0.002987 0.665737 0.194587
0.002551 0.666761 0.191243
0.001571 0.667598 0.191857
0.000878 0.668388 0.190143
0.000102 0.669045 0.186776
0.001764 0.668269 0.183411
0.003467 0.664586 0.182160
0.002437 0.662834 0.178133
0.003299 0.662139 0.174734
0.002363 0.662461 0.165352
0.074096 0.660003 0.162445
0.179047 0.663423 0.148093
0.263503 0.667930 0.126594
0.332249 0.673911 0.095712
0.401682 0.678110 0.053737
0.469596 0.682272 0.016809
0.532505 0.689503 0.001696
0.598016 0.696595 0.001201
0.666754 0.700943 0.001762
0.733212 0.704780 0.002029
0.797994 0.710743 0.002103
0.853766 0.714594 0.001631
0.894504 0.712699 0.000401
0.931168 0.708666 0.002061
0.965042 0.706384 0.003230
0.989064 0.703289 0.000000
0.998259 0.702400 0.000000
0.998858 0.704234 0.000556
0.996458 0.702433 0.003350
0.997154 0.702659 0.001708
0.999730 0.705315 0.000060
0.997983 0.706580 0.000940
0.998493 0.709751 0.000526
0.001834 0.713987 0.220175
0.000941 0.713095 0.218458
0.000460 0.713921 0.219792
0.001719 0.715267 0.216799
0.000883 0.715618 0.212587
0.001232 0.713706 0.210061
0.003912 0.709725 0.209394
0.000987 0.710030 0.206742
0.003343 0.711230 0.204268
0.002631 0.708215 0.190854
0.075390 0.705238 0.189172
0.178212 0.707252 0.179452
0.265429 0.710750 0.161172
0.335584 0.716343 0.138978
0.403663 0.721032 0.108085
0.468147 0.725046 0.060764
0.532045 0.729960 0.021970
0.598443 0.734221 0.006296
0.664340 0.738140 0.002261
0.728718 0.742537 0.002250
0.790105 0.747232 0.000328
0.849722 0.752797 0.000327
0.898883 0.756806 0.000654
0.937162 0.753529 0.000327
0.967708 0.746549 0.000871
0.991820 0.743888 0.000000
0.999865 0.741627 0.000000
0.998819 0.742646 0.000973
0.996534 0.741633 0.005571
0.998120 0.740716 0.000875
0.999942 0.739346 0.000190
0.999079 0.741963 0.003004
0.999087 0.743843 0.001834
0.001825 0.757612 0.251808
0.003017 0.756762 0.249428
0.000997 0.758929 0.249020
0.001975 0.758608 0.248678
0.002324 0.756963 0.246840
0.000666 0.755969 0.241295
0.001399 0.755958 0.239805
0.000821 0.754932 0.238116
0.002648 0.754671 0.236204
0.009351 0.752267 0.223613
0.093801 0.751535 0.222502
0.193000 0.749552 0.211994
0.274570 0.751343 0.199836
0.343623 0.757151 0.182424
0.409402 0.760755 0.157953
0.473473 0.765115 0.125325
0.538557 0.769153 0.084412
0.600609 0.772187 0.042163
0.662053 0.775238 0.014450
0.725931 0.778587 0.005398
0.786907 0.783591 0.001198
0.847377 0.787848 0.001169
0.896037 0.793757 0.003155
0.939372 0.792716 0.001878
0.972174 0.783877 0.000069
0.993710 0.780449 0.000216
0.999651 0.779716 0.000030
0.998268 0.778758 0.000162
0.998827 0.777221 0.000248
0.998019 0.774038 0.000775
0.999928 0.773041 0.000635
0.999943 0.774528 0.008799
0.998175 0.774397 0.002178
0.000000 0.800791 0.286611
0.002741 0.798836 0.284469
0.000241 0.799618 0.283373
0.003310 0.798601 0.281084
0.004943 0.798490 0.283612
0.001725 0.797133 0.275911
0.001973 0.799612 0.273933
0.001538 0.797990 0.276022
0.005568 0.794789 0.271849
0.040567 0.793811 0.261900
0.136698 0.793876 0.258069
0.223616 0.791498 0.250027
0.295760 0.789536 0.240037
0.360590 0.793766 0.226740
0.423686 0.797049 0.207990
0.487393 0.800569 0.185742
0.550692 0.803897 0.161410
0.608988 0.807039 0.120541
0.664797 0.810903 0.067157
0.723370 0.813087 0.029516
0.781506 0.816032 0.009921
0.838543 0.819388 0.002086
0.888940 0.823533 0.005462
0.936550 0.824027 0.005116
0.972530 0.819630 0.000238
0.994425 0.814856 0.000792
0.999234 0.812397 0.000297
0.996057 0.811141 0.000739
0.997112 0.809888 0.001210
0.999248 0.805714 0.001406
0.999818 0.807158 0.002173
0.999717 0.801746 0.007339
0.999717 0.803595 0.000811
0.000000 0.837044 0.331696
0.000000 0.836490 0.329707
0.000436 0.834934 0.328999
0.002906 0.835460 0.325624
0.007898 0.834671 0.327790
0.002112 0.833480 0.323024
0.002118 0.834925 0.317407
0.008451 0.835722 0.315167
0.037779 0.832600 0.313097
0.115068 0.831756 0.304421
0.203166 0.831140 0.297137
0.272328 0.830042 0.293953
0.330234 0.826851 0.287306
0.386321 0.828405 0.276436
0.445307 0.832041 0.260456
0.503900 0.835200 0.242658
0.562618 0.837788 0.222805
0.618650 0.838934 0.196969
0.674097 0.840620 0.161816
0.731074 0.842283 0.112778
0.783208 0.843428 0.059277
0.834342 0.847398 0.021724
0.883197 0.851225 0.005645
0.931038 0.850772 0.003093
0.967301 0.851506 0.001471
0.992859 0.852095 0.000787
0.999371 0.846848 0.000607
0.997471 0.840223 0.000977
0.997061 0.837412 0.002174
0.999237 0.834526 0.002380
0.999190 0.834169 0.004234
0.998482 0.830984 0.002106
0.998482 0.831169 0.000000
0.001382 0.872322 0.376854
0.000742 0.870105 0.374729
0.002117 0.868010 0.375431
0.003624 0.869116 0.376723
0.006888 0.866164 0.373602
0.020370 0.866521 0.373839
0.032003 0.866552 0.366429
0.069273 0.867194 0.359437
0.144801 0.863935 0.359154
0.220493 0.865622 0.356735
0.279428 0.864343 0.347224
0.327498 0.863564 0.342173
0.374795 0.861425 0.341590
0.424487 0.861163 0.332236
0.477590 0.861754 0.319070
0.530913 0.862809 0.301485
0.580883 0.865331 0.282570
0.632435 0.868495 0.263449
0.686954 0.870379 0.239318
0.738886 0.869950 0.207783
0.788529 0.870744 0.165449
0.836281 0.873124 0.106781
0.881270 0.874133 0.043032
0.925486 0.876368 0.018895
0.962609 0.877917 0.005434
0.990416 0.877715 0.000454
0.999309 0.873230 0.001314
0.998891 0.869791 0.000879
0.996674 0.866180 0.000099
0.996986 0.858848 0.000065
0.997605 0.857686 0.000694
0.997427 0.856012 0.000673
0.996754 0.855251 0.000000
0.039345 0.899023 0.430052
0.039467 0.896645 0.427674
0.043946 0.899773 0.429579
0.044625 0.896735 0.426070
0.069183 0.894379 0.426613
0.124161 0.895454 0.424635
0.172603 0.896811 0.417180
0.225960 0.895482 0.415532
0.270414 0.892643 0.412876
0.310612 0.893879 0.409381
0.350662 0.895419 0.403738
0.388593 0.893777 0.398187
0.430391 0.891481 0.393323
0.472487 0.890628 0.383699
0.514167 0.887258 0.375103
0.559899 0.888278 0.367691
0.606115 0.893061 0.350609
0.652349 0.895163 0.328966
0.701307 0.894179 0.310870
0.749872 0.892970 0.286441
0.796130 0.894694 0.255759
0.840272 0.895075 0.223865
0.882466 0.895221 0.172150
0.921630 0.899284 0.099007
0.956162 0.900789 0.034063
0.985111 0.897661 0.010598
