ml_luts/presetpro_portra_800__lut3d_33.cube
TITLE "Presetpro - Portra 800.jpg"
DOMAIN_MIN 0.000000 0.000000 0.000000
DOMAIN_MAX 1.000000 1.000000 1.000000
LUT_3D_SIZE 5
0.000000 0.000000 0.000000
0.189965 0.015244 0.003158
0.541183 0.001007 0.000946
0.887253 0.002953 0.003372
1.000000 0.039215 0.011780
0.000763 0.171783 0.037254
0.166130 0.203413 0.003233
0.543045 0.222874 0.001831
0.887226 0.226778 0.000793
1.000000 0.319054 0.002174
0.000946 0.412766 0.114746
0.085754 0.407524 0.109977
0.468697 0.488808 0.001556
0.856621 0.565189 0.000378
0.998047 0.609741 0.000000
0.001518 0.670815 0.221580
0.168524 0.666261 0.215361
0.434746 0.695823 0.186474
0.771208 0.774454 0.060803
0.999779 0.845336 0.000000
0.537262 0.956848 0.541168
0.572540 0.959267 0.542389
0.665710 0.959839 0.547058
0.809586 0.981361 0.536286
0.976471 1.000000 0.474518
0.002182 0.005447 0.194863
0.210039 0.000732 0.214359
0.553432 0.000378 0.205918
0.888542 0.003510 0.211399
0.996284 0.117645 0.230240
0.002089 0.204949 0.203644
0.213965 0.221441 0.215434
0.556433 0.225369 0.219260
0.887772 0.240189 0.225248
0.996530 0.332631 0.227282
0.103603 0.451412 0.267987
0.215708 0.443109 0.253661
0.497528 0.500053 0.231459
0.861163 0.567245 0.233099
0.999748 0.614822 0.255181
0.138877 0.693445 0.323309
0.255271 0.686304 0.318001
0.454173 0.696590 0.302032
0.775378 0.779427 0.268858
0.998364 0.846832 0.276016
0.548568 0.959374 0.581451
0.575603 0.961872 0.579961
0.669895 0.963291 0.586441
0.810190 0.982527 0.585186
0.980377 0.999245 0.542374
0.001007 0.008789 0.503922
0.209984 0.000000 0.515446
0.585266 0.001007 0.542564
0.893116 0.003067 0.537628
0.998031 0.002029 0.535354
0.000744 0.221191 0.501026
0.240759 0.230967 0.514389
0.588881 0.223538 0.541548
0.891460 0.181979 0.542604
0.998959 0.278786 0.537495
0.172112 0.503952 0.501419
0.324764 0.510199 0.507690
0.573025 0.527687 0.528683
0.869795 0.565498 0.547590
0.998993 0.621574 0.566330
0.399933 0.745445 0.567795
0.461020 0.743511 0.568252
0.538599 0.726818 0.526180
0.792210 0.787268 0.536908
0.999180 0.845173 0.584854
0.580536 0.969574 0.694183
0.609115 0.967411 0.690926
0.683304 0.969070 0.687858
0.806687 0.980087 0.691131
0.976410 0.999054 0.675461
0.021408 0.000000 0.802955
0.311844 0.000433 0.804680
0.635944 0.001591 0.821049
0.917769 0.000843 0.838642
0.999237 0.001518 0.828660
0.117727 0.244209 0.799127
0.336879 0.242005 0.801466
0.641738 0.243569 0.819102
0.909589 0.263781 0.837778
0.996327 0.298003 0.827349
0.007366 0.514618 0.781796
0.287025 0.517505 0.786759
0.611364 0.539621 0.805414
0.878531 0.581721 0.830806
0.998898 0.597587 0.823948
0.420483 0.786951 0.787285
0.493501 0.788992 0.788653
0.648741 0.797923 0.796656
0.829831 0.814476 0.810002
0.999411 0.848646 0.835867
0.687027 0.975487 0.864044
0.707461 0.975418 0.863921
0.759949 0.977265 0.862091
0.817511 0.980656 0.835814
0.980606 1.000000 0.844581
0.454895 0.137268 0.996063
0.543137 0.129425 1.000000
0.731430 0.147125 1.000000
0.926484 0.230400 0.996292
0.996063 0.313721 1.000000
0.467873 0.316872 0.999245
0.549311 0.317400 0.999456
0.731304 0.332726 0.998631
0.921637 0.389238 0.999567
0.997063 0.450989 0.999016
0.421494 0.565659 0.997101
0.520832 0.575069 0.999622
0.708282 0.589722 1.000000
0.888478 0.628586 0.998787
0.999054 0.668701 0.999054
0.463501 0.821030 1.000000
0.512642 0.816114 0.999054
0.643936 0.808761 0.998421
0.846567 0.832795 0.999756
1.000000 0.861023 0.996292
0.709808 0.988220 0.988220
0.731597 0.990204 0.995529
0.787292 0.992157 0.997101
0.881150 0.996841 0.997047
0.996063 1.000000 1.000000
