ml_luts/presetpro_kodacrome_64__lut3d_33.cube
TITLE "Presetpro - Kodachrome 64.jpg"
DOMAIN_MIN 0.000000 0.000000 0.000000
DOMAIN_MAX 1.000000 1.000000 1.000000
LUT_3D_SIZE 9
0.003937 0.000000 0.000000
0.045044 0.000545 0.000320
0.108665 0.003487 0.000450
0.176121 0.012055 0.002674
0.272965 0.008636 0.000000
0.395111 0.001293 0.001602
0.527504 0.001190 0.000000
0.678898 0.002175 0.003364
0.825653 0.000000 0.000000
0.000000 0.046299 0.009956
0.044754 0.043621 0.007883
0.115708 0.044466 0.001469
0.190576 0.050191 0.002837
0.283814 0.049837 0.000267
0.398781 0.040374 0.000267
0.533689 0.004139 0.000394
0.687010 0.000950 0.000966
0.833843 0.002750 0.000000
0.002770 0.108032 0.041352
0.021075 0.106113 0.035796
0.107886 0.110855 0.024926
0.201172 0.112025 0.013049
0.308017 0.109898 0.002487
0.421925 0.112649 0.001386
0.557894 0.107096 0.001881
0.707449 0.102717 0.001412
0.847000 0.117882 0.000557
0.005512 0.190307 0.078674
0.000120 0.186238 0.070042
0.073364 0.185686 0.070179
0.191876 0.194111 0.049372
0.310059 0.200728 0.021522
0.455044 0.201470 0.002291
0.594582 0.205962 0.001627
0.738509 0.220496 0.001265
0.867821 0.254334 0.003166
0.000930 0.296798 0.109818
0.000030 0.298685 0.106991
0.001183 0.295853 0.103168
0.136446 0.300303 0.099991
0.295113 0.313675 0.069626
0.456423 0.329290 0.001833
0.615559 0.338738 0.002422
0.777128 0.350630 0.002117
0.891266 0.372680 0.003784
0.002682 0.452519 0.150703
0.000000 0.448142 0.139703
0.001769 0.446280 0.138169
0.003970 0.443907 0.134672
0.235428 0.450821 0.110891
0.423982 0.460995 0.058361
0.605365 0.478421 0.000747
0.770374 0.497419 0.001347
0.912899 0.503646 0.000534
0.000343 0.604530 0.203835
0.001592 0.602976 0.186068
0.001667 0.601801 0.180563
0.002358 0.598069 0.174910
0.098309 0.595268 0.169533
0.377396 0.593745 0.135864
0.568916 0.604147 0.067984
0.760273 0.626716 0.001142
0.893906 0.632225 0.004783
0.000015 0.737064 0.296429
0.000477 0.738743 0.280902
0.005985 0.737163 0.276823
0.001546 0.735788 0.267468
0.049873 0.733978 0.267475
0.346887 0.730224 0.260291
0.536237 0.725213 0.221352
0.715063 0.735592 0.164037
0.871547 0.754028 0.019619
0.002716 0.863647 0.450684
0.001591 0.862694 0.445297
0.002037 0.864952 0.436676
0.014111 0.866016 0.436367
0.255844 0.864303 0.437973
0.415009 0.861450 0.434151
0.558044 0.861321 0.420784
0.689083 0.861275 0.383323
0.824738 0.855804 0.339355
0.009808 0.000313 0.045780
0.051195 0.002652 0.039512
0.108471 0.008028 0.034245
0.177110 0.021584 0.028130
0.281337 0.026411 0.026575
0.397577 0.015735 0.005941
0.535370 0.002524 0.000000
0.683368 0.003573 0.000237
0.831452 0.000938 0.000000
0.009620 0.047696 0.060064
0.053501 0.046979 0.060594
0.116878 0.051957 0.052277
0.189572 0.055406 0.045603
0.285474 0.059029 0.033275
0.405094 0.051352 0.011504
0.540308 0.028229 0.000317
0.694432 0.008749 0.001750
0.839404 0.012300 0.000127
0.000327 0.111669 0.085284
0.045783 0.106675 0.076656
0.116453 0.111166 0.072768
0.202489 0.113169 0.063235
0.305620 0.111846 0.050896
0.419052 0.110554 0.020485
0.561659 0.103418 0.001210
0.712488 0.112690 0.002699
0.851105 0.140181 0.000174
0.000472 0.187048 0.118702
0.005561 0.185912 0.106212
0.088300 0.187125 0.105491
0.194660 0.194707 0.092473
0.317860 0.200611 0.073910
0.453647 0.200921 0.043107
0.591705 0.203161 0.001476
0.740322 0.218066 0.001879
0.868854 0.253586 0.003841
0.001402 0.299612 0.155209
0.000293 0.300844 0.138894
0.004628 0.297782 0.131108
0.143204 0.299866 0.127849
0.294401 0.313866 0.104012
0.458080 0.327523 0.060262
0.618514 0.335643 0.004019
0.774782 0.352010 0.001622
0.892792 0.374157 0.001657
0.003156 0.452961 0.186694
0.000292 0.451837 0.172059
0.001346 0.448797 0.160327
0.005857 0.445560 0.156045
0.240066 0.450426 0.142124
0.426123 0.461161 0.104472
0.609644 0.478758 0.009463
0.774114 0.497511 0.001570
0.909364 0.505022 0.000027
0.002126 0.604694 0.235571
0.002787 0.604106 0.220353
0.003580 0.604494 0.204937
0.001523 0.599086 0.195320
0.109486 0.596272 0.194629
0.373846 0.596658 0.164463
0.570535 0.603485 0.114388
0.758313 0.629516 0.003660
0.898491 0.630179 0.003511
0.004430 0.738462 0.324110
0.001199 0.739677 0.313336
0.001123 0.739375 0.292030
0.001936 0.739091 0.289620
0.062127 0.736735 0.288068
0.355482 0.730255 0.278442
0.540373 0.729541 0.241729
0.714073 0.733830 0.193186
0.869041 0.753304 0.068351
0.004097 0.862831 0.470085
0.000466 0.864581 0.466621
0.002394 0.866981 0.452009
0.025239 0.867785 0.446743
0.267834 0.864866 0.445831
0.420642 0.860511 0.440668
0.556572 0.857996 0.434970
0.692541 0.858083 0.395603
0.820831 0.855339 0.346451
0.022911 0.002701 0.097191
0.061340 0.002070 0.099119
0.107357 0.008961 0.093586
0.190293 0.013784 0.094329
0.285061 0.017490 0.085529
0.402073 0.012729 0.083142
0.538292 0.001081 0.057177
0.690839 0.000841 0.012263
0.837334 0.001693 0.000000
0.013216 0.038048 0.110620
0.062889 0.045561 0.112918
0.116259 0.053502 0.112254
0.194639 0.056165 0.103674
0.288486 0.063792 0.102358
0.406857 0.053573 0.089680
0.547254 0.017865 0.061192
0.700552 0.000774 0.009796
0.850319 0.039809 0.000411
0.003903 0.110807 0.127623
0.054220 0.110932 0.133276
0.125168 0.113268 0.132597
0.207796 0.117312 0.126495
0.305407 0.117181 0.115541
0.425137 0.112750 0.099864
0.563154 0.099865 0.070735
0.714741 0.102254 0.008823
0.856337 0.136925 0.000750
0.001602 0.189196 0.160281
0.029550 0.189721 0.157105
0.106308 0.191200 0.149559
0.203456 0.197407 0.146323
0.324130 0.201341 0.138548
0.453639 0.201212 0.116134
0.594065 0.201883 0.084374
0.743114 0.214996 0.017349
0.874072 0.246318 0.000329
0.000286 0.302330 0.197067
0.000711 0.303726 0.192611
0.015846 0.302784 0.174656
0.160014 0.303632 0.173964
0.307222 0.315065 0.153215
0.466482 0.327933 0.129498
0.625688 0.335112 0.100547
0.776250 0.353262 0.029012
0.894012 0.368874 0.005558
0.002596 0.454884 0.236302
0.000446 0.458261 0.231503
0.003871 0.455933 0.206771
0.012002 0.453159 0.196684
0.243273 0.453481 0.186871
0.432870 0.462907 0.159587
0.615310 0.483491 0.105267
0.778820 0.498824 0.050628
0.909528 0.507932 0.000601
0.000446 0.607674 0.290426
0.002268 0.609421 0.283000
0.002634 0.607339 0.252435
0.001853 0.607307 0.237883
0.137062 0.602341 0.235512
0.386207 0.599229 0.214917
0.578891 0.606543 0.177622
0.765202 0.627556 0.096017
0.896397 0.633081 0.037388
0.003378 0.742632 0.376374
0.002085 0.740321 0.363776
0.002870 0.741500 0.341837
0.001925 0.740268 0.330100
0.099703 0.736004 0.321809
0.371709 0.732041 0.315437
0.545511 0.730011 0.283056
0.719512 0.734804 0.241279
0.876279 0.753491 0.163703
0.000000 0.863861 0.503662
0.000000 0.866251 0.501675
0.000534 0.866608 0.484230
0.074207 0.865810 0.472302
0.288498 0.864517 0.468170
0.433461 0.856539 0.463098
0.562284 0.856279 0.458243
0.693896 0.857321 0.426014
0.823677 0.858643 0.379982
0.043445 0.000000 0.169262
0.074879 0.000109 0.165467
0.123726 0.009675 0.165868
0.193223 0.013766 0.165901
0.294006 0.012394 0.168654
0.410974 0.001333 0.153669
0.543663 0.001184 0.139065
0.700956 0.000257 0.119876
0.844784 0.001415 0.066689
0.035765 0.044860 0.175395
0.074319 0.045279 0.177538
0.135890 0.051107 0.180888
0.203661 0.061115 0.180262
0.303271 0.058578 0.178611
0.418424 0.023394 0.161003
0.554500 0.006346 0.149138
0.707702 0.000998 0.127042
0.851340 0.002376 0.069162
0.006782 0.099505 0.188522
0.057386 0.104361 0.199078
0.139913 0.113598 0.201741
0.218998 0.123161 0.199391
0.313677 0.120672 0.194948
0.435983 0.115326 0.181726
0.578111 0.102587 0.167215
0.733416 0.098354 0.132947
0.869102 0.119657 0.070298
0.002918 0.188910 0.218852
0.032442 0.195313 0.220150
0.123057 0.200386 0.224045
0.228351 0.208042 0.224125
0.340439 0.210310 0.219638
0.467446 0.210532 0.201827
0.612685 0.207987 0.182399
0.760539 0.220940 0.147759
0.886945 0.244921 0.080781
0.002068 0.304989 0.250618
0.000401 0.316909 0.255426
0.056314 0.318559 0.253424
0.193016 0.322090 0.243776
0.336781 0.330025 0.234966
0.493562 0.341372 0.220476
0.651812 0.349364 0.204112
0.789881 0.360904 0.167757
0.906183 0.376904 0.106666
0.001204 0.459106 0.295075
0.002770 0.472685 0.298952
0.002202 0.472850 0.294019
0.049370 0.476036 0.274460
0.276466 0.469589 0.262465
0.464935 0.482163 0.241505
0.644727 0.499741 0.213790
0.802502 0.511589 0.199289
0.925398 0.514997 0.156875
0.001756 0.610264 0.348420
0.001653 0.624458 0.355471
0.002260 0.623895 0.351512
0.001249 0.623308 0.318901
0.219213 0.618306 0.309446
0.421030 0.615108 0.296204
0.607382 0.621477 0.269543
0.784746 0.644273 0.230675
0.914101 0.643854 0.210154
0.000459 0.740929 0.424442
0.000681 0.752489 0.437294
0.002892 0.750681 0.435075
0.003675 0.751523 0.404373
0.221725 0.747991 0.394275
0.414391 0.743504 0.386318
0.572287 0.741580 0.365015
0.735212 0.749565 0.332048
0.888763 0.766283 0.277236
0.119846 0.864601 0.548725
0.220850 0.873434 0.565117
0.249500 0.876163 0.561291
0.257274 0.876202 0.537685
0.356707 0.872767 0.528542
0.474469 0.871299 0.523635
0.589656 0.869086 0.516309
0.716793 0.869564 0.489774
0.838371 0.871937 0.450547
0.061813 0.001327 0.257355
0.089401 0.001104 0.257612
0.143089 0.001022 0.256165
0.212808 0.007122 0.253622
0.307640 0.007149 0.256943
0.435209 0.000641 0.265654
0.575489 0.000461 0.243736
0.714520 0.000080 0.210753
0.845276 0.004135 0.193283
0.057968 0.040716 0.261778
0.093729 0.039905 0.266239
0.150232 0.042254 0.269187
0.219671 0.053906 0.263338
0.311768 0.055942 0.266905
0.443934 0.030457 0.273091
0.576601 0.000993 0.248344
0.717410 0.002191 0.218072
0.851248 0.001310 0.201142
0.039780 0.100323 0.278919
0.084555 0.105525 0.288418
0.152543 0.108716 0.291705
0.237033 0.117011 0.288691
0.332851 0.124811 0.285057
0.459119 0.114048 0.285367
0.595411 0.051181 0.260884
0.739772 0.061502 0.242149
0.874466 0.088188 0.213989
0.001152 0.175316 0.301292
0.019380 0.183833 0.309533
0.121989 0.189251 0.318401
0.252697 0.207576 0.322569
0.362732 0.224690 0.323634
0.494502 0.217874 0.311991
0.631652 0.215474 0.293194
0.778170 0.233065 0.272040
0.904301 0.242433 0.234306
0.001289 0.303017 0.331070
0.003981 0.316748 0.346436
0.046572 0.331472 0.353470
0.222912 0.341233 0.357166
0.387657 0.361175 0.358437
0.533539 0.365585 0.351212
0.670753 0.372242 0.335301
0.810847 0.382376 0.306888
0.925476 0.389824 0.263283
0.002573 0.463335 0.372639
0.002283 0.480913 0.383797
0.003934 0.496151 0.394693
0.171645 0.503438 0.396229
0.349109 0.508511 0.384028
0.519954 0.517004 0.378873
0.689902 0.529505 0.368220
0.837006 0.534262 0.359075
0.944099 0.530773 0.316135
0.002186 0.611981 0.428349
0.001628 0.628958 0.435852
0.003048 0.641470 0.446703
0.148114 0.646339 0.452354
0.326817 0.649105 0.434006
0.479730 0.642631 0.421036
0.647968 0.649444 0.409578
0.817082 0.666470 0.386655
0.941444 0.663906 0.371715
0.001362 0.742760 0.487713
0.003429 0.756247 0.501153
0.006184 0.766733 0.516064
0.253044 0.769732 0.525945
0.349029 0.769543 0.503805
0.481621 0.766382 0.494664
0.614456 0.761002 0.477480
0.766368 0.768138 0.456753
0.915411 0.783781 0.413492
0.051849 0.865708 0.587036
0.190918 0.877333 0.606134
0.312683 0.894142 0.626393
0.415272 0.894472 0.638504
0.443954 0.893761 0.614868
0.531933 0.891428 0.606161
0.636337 0.890000 0.606709
0.745661 0.891350 0.580930
0.861420 0.893952 0.555893
0.074623 0.001167 0.368713
0.113501 0.000671 0.374993
0.161758 0.001156 0.373361
0.244803 0.001110 0.375210
0.336046 0.001490 0.366781
0.455554 0.000528 0.373946
0.608772 0.000905 0.388647
0.753499 0.002350 0.368769
0.875240 0.001835 0.330189
0.077385 0.032244 0.382664
0.115336 0.029469 0.387999
0.171954 0.023959 0.385963
0.247938 0.024927 0.382195
0.338985 0.029727 0.376252
0.459721 0.006506 0.379854
0.612614 0.001229 0.393248
0.756393 0.002494 0.374450
0.875438 0.001516 0.333778
0.069565 0.097648 0.396742
0.107694 0.101407 0.410927
0.173204 0.097498 0.405758
0.259752 0.099891 0.405086
0.361761 0.106745 0.398738
0.480615 0.101322 0.398553
0.638528 0.098099 0.414381
0.774387 0.032038 0.389975
0.894002 0.002081 0.345251
0.002310 0.167708 0.416127
0.034850 0.178743 0.432736
0.162183 0.191083 0.446552
0.272053 0.193702 0.443870
0.393075 0.207070 0.438696
0.524599 0.225672 0.440405
0.668378 0.247668 0.446237
0.801852 0.225243 0.413461
0.910375 0.219835 0.373953
0.001644 0.288654 0.444996
0.001445 0.301899 0.455937
0.035948 0.311363 0.474757
0.234301 0.324698 0.483222
0.419691 0.357924 0.492942
0.567046 0.392961 0.494469
0.698472 0.404815 0.488701
0.818946 0.398702 0.453275
0.934342 0.396198 0.419619
0.001464 0.461542 0.478901
0.001203 0.475070 0.493996
0.002862 0.491886 0.504431
0.204249 0.513414 0.525334
0.410873 0.533228 0.535881
0.589912 0.556553 0.547818
0.720903 0.557928 0.538319
0.844627 0.555230 0.512266
0.955330 0.540834 0.465746
0.003135 0.614208 0.518842
0.000116 0.631674 0.531790
0.004172 0.645488 0.550005
0.218668 0.661300 0.563912
0.419211 0.672478 0.572026
0.564057 0.675700 0.571882
0.704383 0.680029 0.564896
0.849778 0.689598 0.559638
0.960616 0.686943 0.544591
0.001765 0.746485 0.572672
0.002142 0.755751 0.584062
0.003089 0.769534 0.596278
0.252294 0.782832 0.611049
0.440264 0.788256 0.629369
0.559290 0.790273 0.620464
0.663608 0.786185 0.611760
0.799954 0.792835 0.592507
0.942508 0.804357 0.567113
0.003151 0.869110 0.633385
0.004819 0.882472 0.646623
0.188237 0.896520 0.666747
0.368484 0.910089 0.689403
0.517441 0.916389 0.709627
0.593095 0.915164 0.697949
0.681515 0.913128 0.695084
0.782689 0.912303 0.683636
0.892215 0.919255 0.659134
0.120262 0.002953 0.520676
0.149813 0.000000 0.521733
0.204172 0.000614 0.518314
0.284856 0.001226 0.515864
0.384995 0.000511 0.513676
0.496579 0.000000 0.509723
0.627270 0.000669 0.513932
0.785083 0.000292 0.533514
0.904282 0.003159 0.526848
0.121375 0.003555 0.527697
0.152977 0.000880 0.531770
0.210595 0.001224 0.532153
0.290136 0.000117 0.528597
0.389799 0.001206 0.521928
0.495155 0.000572 0.509255
0.633296 0.000591 0.517145
0.786729 0.000388 0.537436
0.902906 0.005446 0.527255
0.110815 0.086658 0.541062
0.151622 0.084744 0.552325
0.215949 0.079163 0.551288
0.303858 0.064641 0.551761
0.402267 0.061225 0.542916
0.521240 0.066342 0.532908
0.655904 0.056903 0.539303
0.805479 0.123415 0.561938
0.913929 0.146544 0.542593
0.070651 0.175838 0.552806
0.133276 0.180787 0.575977
0.215124 0.183775 0.585151
0.315131 0.182582 0.586199
0.432428 0.186395 0.582621
0.555574 0.209914 0.576166
0.694445 0.237454 0.584623
0.827021 0.300438 0.591556
0.931841 0.300437 0.571576
0.001594 0.270874 0.580906
0.003302 0.285090 0.596261
0.111500 0.299380 0.611935
0.305088 0.330096 0.626169
0.451906 0.347002 0.627991
0.591775 0.375709 0.622942
0.720490 0.417014 0.628695
0.841544 0.461595 0.634857
0.946583 0.439621 0.599381
0.000861 0.440943 0.602576
0.000918 0.454222 0.615412
0.001611 0.469370 0.632804
0.231997 0.487176 0.648883
0.430269 0.512498 0.669662
0.612508 0.549404 0.675729
0.742495 0.584248 0.684170
0.851294 0.592424 0.668724
0.951543 0.565594 0.625143
0.001915 0.605472 0.632694
0.001094 0.620503 0.647012
0.015807 0.635863 0.662249
0.267887 0.652445 0.676701
0.444913 0.673597 0.697472
0.613609 0.696504 0.714775
0.760757 0.716661 0.730047
0.868967 0.714448 0.717184
0.970635 0.700996 0.684654
0.002490 0.744371 0.671554
0.001250 0.757715 0.680858
0.069975 0.772328 0.701956
0.292551 0.784209 0.709652
0.456226 0.796360 0.727542
0.606484 0.807882 0.738974
0.733700 0.813177 0.744691
0.846048 0.819986 0.737913
0.964955 0.826567 0.727450
0.003433 0.865913 0.713043
0.003034 0.881317 0.724350
0.171160 0.896616 0.738024
0.320409 0.911545 0.756987
0.457008 0.928234 0.769013
0.615969 0.940605 0.791665
0.730805 0.940056 0.794163
0.818575 0.940608 0.786590
0.921173 0.943718 0.764961
0.209316 0.000622 0.683059
0.237022 0.000000 0.690799
0.284446 0.001472 0.688429
0.360508 0.001859 0.690682
0.460070 0.001165 0.686268
0.565376 0.000064 0.680135
0.683815 0.000794 0.673633
0.809917 0.002751 0.682698
0.918133 0.001789 0.675408
0.211835 0.000189 0.689515
0.241497 0.000418 0.696757
0.289218 0.000983 0.696993
0.364552 0.000273 0.694495
0.461138 0.001077 0.692446
0.569413 0.002483 0.680795
0.683533 0.000910 0.673917
0.814109 0.001113 0.681108
0.916702 0.041644 0.679446
0.207567 0.039954 0.702767
0.247559 0.028218 0.715544
0.297181 0.017806 0.710863
0.373194 0.003752 0.712963
0.473033 0.000270 0.710741
0.589694 0.001542 0.706890
0.699803 0.012413 0.696306
0.832970 0.057739 0.705012
0.930937 0.203087 0.697551
0.192416 0.159661 0.711435
0.238214 0.163497 0.730240
0.299945 0.163759 0.742588
0.388666 0.160181 0.742796
0.494978 0.155436 0.744001
0.610447 0.179186 0.733841
0.726249 0.222978 0.722882
0.853863 0.271893 0.732495
0.942465 0.358168 0.721622
0.120365 0.286448 0.725243
0.190164 0.295531 0.743975
0.272785 0.309200 0.758049
0.384295 0.322550 0.768862
0.503122 0.334612 0.773929
0.628251 0.357755 0.768434
0.743769 0.401702 0.760050
0.864781 0.445224 0.763264
0.956736 0.502011 0.757149
0.004554 0.418347 0.740287
0.001022 0.431145 0.754067
0.114090 0.447564 0.770251
0.309767 0.469840 0.781999
0.487776 0.507955 0.797754
0.630295 0.531190 0.800172
0.754651 0.562401 0.793382
0.873707 0.600433 0.799393
0.961162 0.636339 0.799218
0.001050 0.586729 0.749923
0.000380 0.599297 0.764479
0.094569 0.613662 0.782119
0.287709 0.628857 0.797563
0.450464 0.644713 0.809108
0.611160 0.669205 0.824935
0.767896 0.702823 0.830410
0.886920 0.736918 0.837784
0.968274 0.743362 0.833436
0.005366 0.725435 0.774605
0.079907 0.738753 0.784820
0.228927 0.753765 0.800832
0.357497 0.767714 0.815191
0.489045 0.784340 0.827501
0.628525 0.806065 0.843166
0.770720 0.830083 0.864163
0.900352 0.859935 0.880839
0.979898 0.853072 0.859982
0.073776 0.863583 0.810051
0.164511 0.876592 0.821867
0.261068 0.897664 0.836977
0.369495 0.912539 0.850562
0.484152 0.927412 0.862642
0.607264 0.946834 0.872574
0.740616 0.966692 0.889158
0.863927 0.968693 0.894881
0.959938 0.969223 0.879791
0.347198 0.000000 0.858521
0.367134 0.000000 0.857884
0.406960 0.000069 0.854393
0.468292 0.000892 0.857853
0.551880 0.000839 0.860260
0.643745 0.001770 0.852539
0.749748 0.001282 0.847893
0.856701 0.001229 0.835263
0.958069 0.001221 0.829865
0.344105 0.002312 0.855236
0.371107 0.000104 0.863675
0.405407 0.001018 0.860115
0.468386 0.000214 0.860719
0.550516 0.000851 0.862362
0.645831 0.002937 0.852595
0.750393 0.001075 0.846258
0.859073 0.000841 0.843629
0.959191 0.002800 0.834175
0.345879 0.001434 0.861778
0.377910 0.001075 0.874881
0.414885 0.000995 0.875338
0.478723 0.000273 0.876307
0.560383 0.000927 0.876144
0.659409 0.000724 0.868693
0.765289 0.005714 0.863279
0.871183 0.094041 0.854639
0.967552 0.167869 0.851570
0.337383 0.133247 0.868252
0.368850 0.137201 0.884149
0.420136 0.139318 0.896678
0.487777 0.134340 0.898302
0.573284 0.125061 0.895100
0.674054 0.149767 0.892826
0.778557 0.229556 0.883779
0.883112 0.294964 0.876769
0.982567 0.333984 0.869194
0.307038 0.282394 0.871948
0.344833 0.294991 0.888960
0.401001 0.308651 0.902820
0.482447 0.323711 0.919229
0.576538 0.332725 0.920273
0.680622 0.348360 0.921041
0.787991 0.400352 0.912891
0.895369 0.453523 0.900248
0.991470 0.481095 0.899307
0.221271 0.430202 0.878536
0.279370 0.451672 0.893713
0.357406 0.471897 0.907676
0.450293 0.490104 0.922107
0.558148 0.505802 0.935251
0.674262 0.522334 0.936312
0.789415 0.549863 0.932052
0.902227 0.592624 0.921568
0.995445 0.617863 0.919571
0.025734 0.569870 0.886429
0.142720 0.583201 0.899262
0.254841 0.599003 0.912916
0.381121 0.616339 0.927939
0.517853 0.639732 0.941818
0.666203 0.671196 0.953786
0.790648 0.690628 0.956095
0.911546 0.718915 0.947481
0.996040 0.741028 0.941315
0.158481 0.715221 0.891224
0.231153 0.727693 0.904104
0.317081 0.745255 0.920359
0.415674 0.760222 0.934912
0.524238 0.778545 0.947424
0.643951 0.794650 0.963646
0.773141 0.813261 0.977595
0.907280 0.844802 0.977956
0.997639 0.865067 0.964008
0.294739 0.845551 0.900452
0.337448 0.863182 0.916424
0.396705 0.874031 0.931000
0.474701 0.894161 0.945225
0.566604 0.910080 0.956818
0.665944 0.931850 0.973412
0.773369 0.956406 0.983147
0.900383 0.982246 0.994758
0.995209 0.998688 0.998688
