ml_luts/presetpro_fashion_film__lut3d_33.cube
TITLE "Presetpro - Fashion Film.jpg"
DOMAIN_MIN 0.000000 0.000000 0.000000
DOMAIN_MAX 1.000000 1.000000 1.000000
LUT_3D_SIZE 33
0.000000 0.000000 0.000000
0.015817 0.000118 0.000118
0.042420 0.003699 0.007132
0.062025 0.000701 0.004280
0.084354 0.004372 0.001373
0.104584 0.010171 0.002938
0.132236 0.012874 0.005032
0.162602 0.014467 0.004264
0.190949 0.009582 0.001739
0.225288 0.012669 0.005109
0.256010 0.009081 0.002958
0.292033 0.003928 0.006318
0.329373 0.000950 0.004871
0.367495 0.000979 0.001958
0.407808 0.002936 0.000721
0.449678 0.002851 0.000000
0.492218 0.000946 0.000000
0.533699 0.000000 0.000000
0.570591 0.001722 0.003431
0.608216 0.002338 0.006256
0.650505 0.000000 0.003411
0.688245 0.000000 0.001662
0.722656 0.000000 0.000353
0.753437 0.000000 0.000811
0.785515 0.000763 0.000763
0.820846 0.002384 0.002384
0.855148 0.000618 0.000618
0.887662 0.002781 0.002781
0.915680 0.000442 0.000000
0.943355 0.003208 0.000000
0.976729 0.000000 0.000483
0.995708 0.000000 0.007480
0.996063 0.000000 0.000000
0.003932 0.023148 0.007598
0.019262 0.023037 0.004050
0.042634 0.023146 0.000469
0.065910 0.023159 0.000241
0.094539 0.020828 0.000058
0.110223 0.029338 0.002786
0.140985 0.026154 0.004743
0.166155 0.029190 0.005803
0.192338 0.029368 0.001525
0.225021 0.032464 0.000160
0.255823 0.028408 0.000092
0.290619 0.023370 0.000353
0.331073 0.017901 0.000241
0.372633 0.010881 0.000061
0.411613 0.006843 0.001270
0.451882 0.004850 0.002076
0.493386 0.001922 0.000976
0.535536 0.000063 0.000000
0.575410 0.000054 0.000107
0.611868 0.000073 0.001096
0.651004 0.000510 0.002413
0.689961 0.000893 0.001662
0.725184 0.000841 0.001203
0.755686 0.002241 0.002767
0.787059 0.000874 0.000024
0.823040 0.000167 0.000075
0.855148 0.000618 0.000618
0.887108 0.003280 0.003377
0.912591 0.003222 0.003337
0.943473 0.003134 0.000011
0.976854 0.000332 0.000126
0.995942 0.000138 0.000234
0.996211 0.004405 0.000000
0.007606 0.046326 0.015425
0.026718 0.049755 0.011870
0.046326 0.046540 0.007842
0.062597 0.046429 0.004477
0.086063 0.046181 0.006527
0.120440 0.047405 0.003854
0.148452 0.049624 0.000875
0.170466 0.054796 0.003249
0.199378 0.054561 0.008227
0.231271 0.053493 0.004575
0.263748 0.051308 0.000814
0.298666 0.048374 0.000010
0.334857 0.043342 0.000006
0.375628 0.034196 0.000000
0.415669 0.023099 0.000885
0.456747 0.011377 0.000805
0.498945 0.003098 0.000063
0.540289 0.001216 0.000107
0.579920 0.001674 0.000955
0.616576 0.000917 0.001179
0.653327 0.000526 0.000149
0.687646 0.001698 0.000104
0.719452 0.002020 0.000488
0.754023 0.002129 0.001123
0.788583 0.003746 0.000000
0.821307 0.003046 0.000000
0.853472 0.000663 0.000082
0.885789 0.000900 0.000405
0.919601 0.003397 0.000215
0.949797 0.003018 0.000022
0.976322 0.000999 0.000236
0.992735 0.013159 0.000329
0.999763 0.042369 0.003433
0.004303 0.073735 0.019608
0.033098 0.076838 0.015819
0.050174 0.076709 0.015226
0.066550 0.073697 0.017917
0.090824 0.070376 0.015508
0.112098 0.072443 0.008528
0.150266 0.073315 0.001932
0.177443 0.074114 0.000440
0.202617 0.074845 0.001249
0.236909 0.074291 0.000621
0.271756 0.076047 0.001983
0.307531 0.073866 0.001550
0.343707 0.070207 0.000342
0.382858 0.065764 0.001232
0.419774 0.059759 0.000988
0.458884 0.049561 0.000243
0.501139 0.038062 0.000166
0.540996 0.027210 0.003018
0.577953 0.014360 0.003850
0.616481 0.005272 0.000309
0.656896 0.003731 0.000000
0.691485 0.002732 0.000000
0.723885 0.001762 0.001156
0.756550 0.002746 0.002659
0.790486 0.002540 0.000602
0.824984 0.001082 0.001880
0.854551 0.000884 0.000066
0.886207 0.001664 0.000783
0.919864 0.004305 0.003070
0.944324 0.015003 0.002630
0.976867 0.035890 0.000230
0.998308 0.063991 0.000043
1.000000 0.087676 0.000675
0.006474 0.103973 0.023968
0.024552 0.107355 0.026698
0.050276 0.101970 0.024094
0.073016 0.103609 0.017702
0.093747 0.100879 0.020043
0.120498 0.094711 0.016427
0.147296 0.098814 0.014342
0.177258 0.100647 0.009725
0.207310 0.103564 0.002530
0.239271 0.104156 0.000477
0.277348 0.103949 0.002607
0.314010 0.103299 0.001613
0.352418 0.100529 0.003672
0.391597 0.096009 0.004191
0.429079 0.092675 0.001434
0.467826 0.088031 0.000024
0.507242 0.081352 0.003014
0.545514 0.074575 0.003593
0.582861 0.067498 0.000903
0.622843 0.060488 0.000735
0.661498 0.053653 0.001856
0.693233 0.047100 0.003127
0.728269 0.041296 0.000906
0.761823 0.036235 0.000849
0.797848 0.036368 0.001518
0.827481 0.039718 0.000953
0.858360 0.041424 0.002283
0.891135 0.051625 0.005075
0.921190 0.059096 0.003307
0.949746 0.079891 0.005178
0.979957 0.090783 0.000029
0.996122 0.110903 0.000001
0.997009 0.127403 0.000046
0.001068 0.138629 0.030845
0.019447 0.136396 0.033687
0.046383 0.134930 0.028786
0.075173 0.133519 0.027946
0.092804 0.137055 0.029806
0.128232 0.130453 0.028794
0.150761 0.132228 0.032608
0.180542 0.128966 0.024036
0.216024 0.130643 0.013245
0.247767 0.129144 0.006704
0.284549 0.130763 0.004304
0.321919 0.131555 0.002794
0.360960 0.133022 0.002720
0.399682 0.130435 0.002049
0.438028 0.128083 0.003010
0.477511 0.125507 0.003768
0.514499 0.122941 0.002465
0.551834 0.119355 0.001808
0.588782 0.114696 0.001450
0.623857 0.111571 0.001274
0.660000 0.106864 0.002047
0.694446 0.102105 0.001885
0.731163 0.098386 0.001232
0.763725 0.098392 0.000327
0.796524 0.099312 0.001724
0.827688 0.100134 0.003068
0.860504 0.104792 0.001703
0.890272 0.114495 0.000888
0.918168 0.119541 0.000621
0.953546 0.126905 0.001630
0.979749 0.138185 0.000167
0.993172 0.152768 0.002768
0.993904 0.166177 0.005562
0.000000 0.174742 0.044237
0.006205 0.173430 0.038568
0.029448 0.170414 0.035546
0.071624 0.171602 0.038406
0.100458 0.170405 0.033609
0.133476 0.170189 0.036883
0.156232 0.168896 0.036958
0.182548 0.164960 0.031896
0.217361 0.160383 0.023023
0.252819 0.160288 0.015537
0.289954 0.163142 0.008572
0.329331 0.162218 0.002475
0.368912 0.160776 0.001607
0.409987 0.158755 0.002940
0.445357 0.160414 0.002016
0.479661 0.160492 0.001325
0.520472 0.157500 0.000888
0.559800 0.155878 0.001345
0.594156 0.154943 0.002176
0.629388 0.154185 0.001795
0.665255 0.153169 0.001956
0.701201 0.151552 0.001043
0.736186 0.149533 0.000631
0.766299 0.149129 0.001439
0.799598 0.151602 0.001647
0.831332 0.152850 0.000654
0.861116 0.154490 0.000386
0.889656 0.161756 0.000536
0.920213 0.167677 0.001040
0.951435 0.173007 0.003609
0.977291 0.180455 0.000076
0.995493 0.188104 0.001296
0.997524 0.201088 0.003815
0.003743 0.214784 0.052494
0.002181 0.214597 0.052171
0.011364 0.208718 0.048604
0.058132 0.210943 0.044675
0.099609 0.208270 0.047324
0.131294 0.210055 0.045880
0.155304 0.209735 0.040688
0.190374 0.207062 0.040486
0.219022 0.198880 0.044688
0.252468 0.194132 0.035876
0.288911 0.196320 0.021131
0.331155 0.197189 0.007785
0.373923 0.197746 0.003909
0.414941 0.197651 0.002233
0.453564 0.197337 0.000377
0.492980 0.194598 0.000131
0.530552 0.193683 0.000123
0.565528 0.194169 0.000288
0.601086 0.192364 0.000503
0.637728 0.191460 0.000415
0.674255 0.191090 0.001318
0.707989 0.191590 0.002586
0.741567 0.193111 0.001744
0.771543 0.194223 0.000762
0.801385 0.197336 0.001565
0.833483 0.199808 0.000540
0.862340 0.200280 0.000379
0.891987 0.206768 0.001734
0.919472 0.210878 0.000360
0.951168 0.215214 0.001570
0.976789 0.219835 0.000374
0.996753 0.229228 0.003069
0.999666 0.236456 0.001386
0.001198 0.256851 0.056190
0.001198 0.256851 0.056619
0.002593 0.253182 0.053614
0.029028 0.251901 0.055944
0.084104 0.251386 0.052153
0.122167 0.250066 0.053416
0.157219 0.250365 0.049647
0.195574 0.247562 0.045903
0.230765 0.244201 0.039427
0.260347 0.236555 0.045765
0.294954 0.232830 0.045301
0.334842 0.233968 0.028094
0.379069 0.236815 0.009177
0.420148 0.236166 0.001100
0.458700 0.235537 0.000425
0.500014 0.234827 0.002214
0.538765 0.232567 0.001751
0.574772 0.230790 0.000000
0.610117 0.230047 0.000831
0.643981 0.231196 0.001128
0.679818 0.232053 0.000286
0.714207 0.229862 0.000763
0.744575 0.229775 0.000789
0.774595 0.232911 0.000733
0.806333 0.236721 0.000959
0.835457 0.240616 0.002086
0.865922 0.243351 0.000578
0.894737 0.248967 0.000791
0.922522 0.251470 0.002345
0.954047 0.254983 0.005554
0.979739 0.258317 0.000335
0.996833 0.268470 0.001655
0.997047 0.270806 0.000221
0.000000 0.300080 0.068365
0.002208 0.302013 0.070320
0.000408 0.299255 0.067562
0.006502 0.297845 0.066812
0.053330 0.296502 0.057288
0.108701 0.294856 0.058059
0.156027 0.294297 0.057512
0.197665 0.291854 0.058184
0.232870 0.291151 0.049628
0.267347 0.287728 0.052235
0.300775 0.278373 0.054779
0.335957 0.272527 0.050094
0.381542 0.274109 0.031031
0.424072 0.274767 0.014089
0.461922 0.274462 0.005958
0.500916 0.275255 0.003142
0.540314 0.274568 0.002148
0.580084 0.272588 0.000722
0.618173 0.270941 0.000312
0.653181 0.270439 0.001163
0.686010 0.270608 0.001138
0.717433 0.269329 0.000279
0.749394 0.269745 0.000911
0.777505 0.273841 0.001040
0.808594 0.275593 0.000823
0.842096 0.277705 0.000718
0.872358 0.282840 0.000549
0.900886 0.287247 0.002486
0.925425 0.288534 0.004798
0.955091 0.293884 0.002244
0.981020 0.296729 0.000133
0.998902 0.302327 0.001060
0.995252 0.309030 0.000000
0.000000 0.345570 0.080168
0.002528 0.345577 0.081018
0.003586 0.342972 0.079325
0.001441 0.341768 0.075087
0.020000 0.342124 0.067107
0.090678 0.340029 0.068035
0.152096 0.337989 0.066682
0.196649 0.336487 0.067199
0.234448 0.335843 0.061981
0.273307 0.334164 0.059561
0.309735 0.329649 0.060851
0.346977 0.322483 0.061644
0.383324 0.318413 0.056770
0.422646 0.317362 0.042333
0.463227 0.317128 0.022638
0.505238 0.316154 0.007595
0.545170 0.315762 0.002600
0.583552 0.314701 0.001462
0.622367 0.312033 0.000000
0.659446 0.309659 0.000637
0.693254 0.309307 0.000980
0.722060 0.310148 0.000453
0.752756 0.308974 0.001344
0.782955 0.312571 0.001107
0.815367 0.313455 0.000265
0.845135 0.314073 0.000000
0.875511 0.320000 0.000163
0.902771 0.324043 0.001307
0.926869 0.327585 0.003570
0.955501 0.332107 0.002712
0.979156 0.332639 0.001581
0.998037 0.337322 0.000423
0.997557 0.344475 0.000000
0.000000 0.388402 0.092128
0.002454 0.390488 0.088189
0.001870 0.387447 0.084927
0.000561 0.387521 0.084753
0.003546 0.388214 0.078385
0.064852 0.386839 0.077602
0.140553 0.382410 0.077904
0.191598 0.380446 0.073015
0.235694 0.380404 0.071323
0.277954 0.376372 0.070338
0.318366 0.375435 0.069587
0.358786 0.373155 0.067741
0.393938 0.367815 0.069142
0.427593 0.360717 0.068145
0.464567 0.358171 0.055859
0.504623 0.358646 0.031884
0.545907 0.356474 0.010028
0.586404 0.354808 0.002077
0.624241 0.355044 0.001874
0.660645 0.352646 0.001692
0.694739 0.351248 0.001231
0.724528 0.352969 0.000483
0.756371 0.350914 0.001129
0.790021 0.350368 0.001408
0.822307 0.350980 0.003310
0.847372 0.352026 0.002151
0.875977 0.355853 0.001822
0.902783 0.359834 0.001818
0.928338 0.364715 0.001945
0.956346 0.367214 0.002811
0.982255 0.367741 0.001034
0.999010 0.374221 0.004135
0.997908 0.378919 0.004987
0.001507 0.433781 0.107330
0.000967 0.433677 0.100627
0.000059 0.431564 0.098032
0.000432 0.431807 0.095965
0.000230 0.432477 0.095851
0.039488 0.430913 0.090218
0.125797 0.427798 0.089197
0.187767 0.425476 0.080625
0.236270 0.424498 0.084576
0.282977 0.422444 0.084993
0.324835 0.422415 0.080630
0.362948 0.418759 0.076791
0.400609 0.416554 0.077010
0.435964 0.410825 0.082499
0.468568 0.402248 0.082596
0.504414 0.399290 0.068832
0.545096 0.399061 0.040936
0.586949 0.398035 0.016930
0.624664 0.396294 0.006446
0.659979 0.393018 0.001489
0.696085 0.391525 0.002346
0.728537 0.392136 0.003567
0.760956 0.391755 0.000900
0.792654 0.390914 0.000857
0.823765 0.390040 0.002745
0.851636 0.389978 0.002095
0.880319 0.393105 0.003039
0.906680 0.395756 0.002884
0.931227 0.399111 0.001614
0.955713 0.400680 0.000950
0.984394 0.402365 0.001187
0.998390 0.407416 0.004631
0.997543 0.412208 0.002850
0.002936 0.478677 0.124013
0.001988 0.476363 0.117923
0.000122 0.474344 0.116343
0.000478 0.474149 0.108206
0.000922 0.472661 0.113128
0.023652 0.473049 0.105199
0.111682 0.469303 0.105609
0.184413 0.466859 0.096408
0.238789 0.466094 0.098824
0.284818 0.465713 0.099364
0.327727 0.466407 0.095442
0.367008 0.462895 0.090930
0.406482 0.462194 0.092381
0.444672 0.459419 0.094359
0.478199 0.451719 0.093964
0.510020 0.444159 0.093254
0.547717 0.440929 0.082081
0.588305 0.438780 0.057051
0.624412 0.436239 0.029087
0.660345 0.434967 0.008541
0.697083 0.433352 0.002503
0.730178 0.432164 0.003821
0.763380 0.430770 0.001022
0.794182 0.430681 0.000450
0.823854 0.430660 0.001760
0.851828 0.430185 0.002249
0.881272 0.431916 0.002094
0.908753 0.431299 0.001250
0.934866 0.433265 0.000673
0.957778 0.435142 0.000242
0.985134 0.437158 0.002512
0.998790 0.440256 0.001489
0.997661 0.447532 0.000000
0.001442 0.517896 0.142372
0.002407 0.516926 0.137657
0.001086 0.514714 0.133483
0.001327 0.514333 0.126848
0.001417 0.513765 0.134527
0.015995 0.512306 0.124656
0.102996 0.510251 0.126139
0.179243 0.507888 0.114965
0.240777 0.506395 0.113397
0.287777 0.506985 0.114287
0.331912 0.507223 0.111768
0.373915 0.504450 0.108931
0.415055 0.502516 0.110312
0.453734 0.500430 0.109742
0.488879 0.497099 0.107988
0.521409 0.491551 0.108943
0.553575 0.484405 0.111699
0.588372 0.478691 0.102918
0.624243 0.476406 0.076412
0.659383 0.475903 0.045770
0.695095 0.474223 0.019951
0.729436 0.472261 0.003808
0.761815 0.471538 0.000496
0.793159 0.471299 0.000763
0.821736 0.470348 0.002630
0.850947 0.469594 0.002193
0.880648 0.470058 0.001520
0.909567 0.468043 0.001551
0.938063 0.467872 0.001431
0.961783 0.469630 0.001050
0.986890 0.469997 0.001485
0.998547 0.474219 0.000066
0.994587 0.480116 0.000000
0.003161 0.551339 0.159306
0.000903 0.555501 0.158250
0.001833 0.553422 0.152862
0.002981 0.551414 0.152588
0.001836 0.551259 0.158592
0.015287 0.548925 0.145564
0.105496 0.547986 0.144803
0.181862 0.546492 0.137087
0.243819 0.544462 0.130799
0.291718 0.545576 0.132235
0.336030 0.544906 0.129973
0.377674 0.541359 0.128413
0.420207 0.539686 0.130133
0.460252 0.538077 0.129269
0.495030 0.535217 0.127138
0.530519 0.531724 0.126787
0.564490 0.527594 0.131306
0.593912 0.520999 0.135400
0.625124 0.515151 0.126721
0.659890 0.513232 0.102998
0.694927 0.511321 0.070645
0.728507 0.509804 0.038642
0.759749 0.510013 0.015018
0.791287 0.509505 0.002062
0.820569 0.507162 0.001853
0.849588 0.506513 0.000792
0.880752 0.506200 0.000919
0.910170 0.505167 0.001922
0.937496 0.503443 0.001302
0.962558 0.504806 0.001556
0.985237 0.503862 0.000111
0.997831 0.508422 0.000055
0.995254 0.510273 0.000000
0.003921 0.585266 0.173492
0.000123 0.590174 0.176390
0.000944 0.590032 0.176998
0.001878 0.587370 0.179106
0.002903 0.584894 0.177879
0.028541 0.584953 0.168983
0.117742 0.582133 0.166283
0.189582 0.581860 0.161131
0.248585 0.578606 0.153934
0.296685 0.579568 0.152859
0.341341 0.578443 0.149768
0.383991 0.575568 0.149280
0.425402 0.573170 0.149489
0.464228 0.571823 0.148035
0.500155 0.570367 0.148225
0.537063 0.567971 0.148019
0.573463 0.566574 0.147560
0.603877 0.562295 0.151643
0.631069 0.554109 0.155029
0.661041 0.548671 0.149623
0.693733 0.546795 0.132736
0.726789 0.545359 0.103348
0.758420 0.543676 0.068181
0.789711 0.543730 0.035655
0.821045 0.542175 0.016289
0.850141 0.540965 0.002372
0.880439 0.541289 0.000132
0.908226 0.540082 0.001017
0.936465 0.539776 0.002480
0.961896 0.540279 0.000824
0.984393 0.537320 0.000780
0.997056 0.540059 0.000150
0.998047 0.541169 0.001007
0.002664 0.620967 0.197363
0.001691 0.622019 0.199419
0.000104 0.621936 0.199820
0.001672 0.620191 0.200628
0.004183 0.619498 0.197476
0.057128 0.617659 0.192974
0.137542 0.615059 0.188385
0.199660 0.615022 0.184817
0.258158 0.610343 0.179355
0.305404 0.610234 0.174400
0.350131 0.610030 0.171392
0.393685 0.608397 0.171145
0.432749 0.603720 0.169590
0.470863 0.601965 0.168173
0.508673 0.602491 0.171283
0.545525 0.601482 0.172884
0.578346 0.599531 0.168535
0.610655 0.598406 0.167987
0.641095 0.594823 0.174353
0.666613 0.586929 0.179153
0.694763 0.581378 0.176061
0.725342 0.579396 0.161603
0.757418 0.577467 0.137682
0.787768 0.578200 0.106571
0.817834 0.577171 0.074898
0.849696 0.573999 0.039535
0.878672 0.575259 0.016394
0.905166 0.573896 0.003472
0.934158 0.573820 0.004040
0.961387 0.573523 0.002156
0.986875 0.571014 0.001710
0.997887 0.571153 0.001767
0.998995 0.571062 0.001070
0.003981 0.651212 0.224539
0.002752 0.652829 0.225052
0.000170 0.650158 0.220121
0.006472 0.648464 0.219037
0.028138 0.650985 0.219841
0.099654 0.647830 0.215609
0.165261 0.646567 0.208880
0.219640 0.645689 0.209995
0.273523 0.640805 0.204291
0.317222 0.639197 0.200216
0.360541 0.639841 0.196434
0.401585 0.637579 0.193923
0.438807 0.634198 0.192532
0.477485 0.633189 0.191927
0.515742 0.632900 0.194241
0.552095 0.631942 0.197266
0.583790 0.629800 0.195254
0.615172 0.629259 0.193779
0.648141 0.630089 0.197842
0.677701 0.625960 0.200540
0.703151 0.617975 0.202852
0.727373 0.612036 0.204874
0.758264 0.608958 0.193672
0.787092 0.609442 0.173817
0.816674 0.610173 0.150541
0.847928 0.606161 0.115041
0.875879 0.605525 0.078549
0.903173 0.605922 0.043850
0.929552 0.604567 0.023575
0.959533 0.603974 0.006252
0.988121 0.604106 0.001058
0.999902 0.603238 0.002014
0.998999 0.601740 0.002710
0.002700 0.678555 0.246330
0.002774 0.678612 0.247160
0.011122 0.678712 0.244160
0.037580 0.676948 0.241122
0.086669 0.677257 0.240635
0.153208 0.675596 0.240891
0.197691 0.676732 0.233783
0.246042 0.675539 0.233415
0.292020 0.669892 0.230116
0.332713 0.667787 0.229950
0.374342 0.668093 0.225971
0.412196 0.665530 0.222325
0.448338 0.663630 0.217108
0.484530 0.663324 0.215861
0.522014 0.663028 0.219019
0.558171 0.661058 0.220488
0.590973 0.658819 0.219842
0.621448 0.657928 0.220245
0.652306 0.658146 0.221967
0.684208 0.657861 0.223262
0.711884 0.654027 0.226707
0.735614 0.646347 0.233205
0.761096 0.638931 0.233230
0.787753 0.637888 0.224224
0.818695 0.639472 0.210288
0.848344 0.635856 0.187063
0.875112 0.634207 0.161752
0.901708 0.635610 0.127534
0.927956 0.634461 0.093955
0.955703 0.634068 0.053978
0.983623 0.633352 0.027760
0.998913 0.633906 0.011227
0.998641 0.633836 0.005278
0.026344 0.706997 0.272156
0.042072 0.702610 0.273833
0.066477 0.705566 0.271817
0.110377 0.705164 0.268066
0.151784 0.702628 0.263690
0.199830 0.700462 0.267113
0.231663 0.703331 0.263294
0.272895 0.702375 0.260546
0.313785 0.698639 0.258337
0.351003 0.695928 0.257255
0.389828 0.695178 0.255793
0.426237 0.693739 0.251881
0.461751 0.691086 0.244685
0.495878 0.690777 0.242406
0.530627 0.690138 0.244706
0.564780 0.686928 0.245340
0.597387 0.685221 0.245901
0.628752 0.685941 0.247564
0.657584 0.686585 0.248266
0.685997 0.685974 0.249600
0.715960 0.684588 0.251215
0.743825 0.681335 0.252059
0.767175 0.673915 0.257467
0.790561 0.669098 0.264931
0.816881 0.666533 0.261327
0.845384 0.664483 0.243336
0.874619 0.664658 0.224078
0.899172 0.665282 0.202577
0.926565 0.664541 0.181465
0.950848 0.663176 0.153201
0.977249 0.662186 0.107719
0.997749 0.664689 0.069136
1.000000 0.663769 0.042229
0.104209 0.731049 0.296458
0.132349 0.729972 0.300793
0.155270 0.729020 0.297860
0.184210 0.731023 0.295800
0.208845 0.727746 0.292950
0.236014 0.728024 0.296682
0.267316 0.727042 0.295944
0.303035 0.725875 0.292487
0.335990 0.725951 0.289898
0.370099 0.723828 0.285383
0.404482 0.720910 0.281497
0.439658 0.718036 0.275542
0.472470 0.716753 0.271478
0.504829 0.717603 0.270324
0.537176 0.714689 0.269816
0.569301 0.713415 0.270125
0.600849 0.712785 0.274388
0.633069 0.712347 0.276100
0.662434 0.713649 0.272732
0.689357 0.713359 0.274246
0.718445 0.712514 0.277838
0.746834 0.709625 0.277484
0.776000 0.706327 0.282236
0.798372 0.700655 0.291370
0.819969 0.695395 0.293862
0.842409 0.693140 0.289420
0.871968 0.693685 0.279246
0.895350 0.693818 0.260606
0.922644 0.693766 0.242054
0.947161 0.690419 0.228947
0.975821 0.690378 0.198617
0.997523 0.693289 0.168554
1.000000 0.692106 0.142524
0.188320 0.753919 0.324393
0.203531 0.756105 0.326249
0.218518 0.754311 0.324094
0.235155 0.756357 0.323123
0.257845 0.751948 0.323434
0.278818 0.753950 0.328750
0.304896 0.749035 0.326511
0.333875 0.749732 0.318017
0.360000 0.750995 0.318764
0.391839 0.749089 0.316244
0.423138 0.746092 0.311082
0.454474 0.742603 0.305285
0.486733 0.741292 0.300678
0.518081 0.740619 0.298423
0.548506 0.738919 0.298710
0.579640 0.739204 0.298572
0.609991 0.738476 0.300181
0.639511 0.737231 0.301926
0.667536 0.737534 0.301813
0.695557 0.737051 0.303170
0.724796 0.736664 0.304714
0.752242 0.735480 0.307097
0.782009 0.733986 0.310816
0.808634 0.732301 0.313525
0.829547 0.728092 0.318274
0.843511 0.721756 0.324856
0.869586 0.720180 0.323057
0.892865 0.720755 0.313639
0.919864 0.722029 0.302195
0.944812 0.719656 0.288854
0.970940 0.721028 0.267541
0.994765 0.720243 0.246833
1.000000 0.721254 0.235094
0.247969 0.776959 0.356196
0.259167 0.778106 0.353559
0.272658 0.777116 0.356150
0.281266 0.777801 0.354015
0.301566 0.778064 0.352834
0.318451 0.777765 0.356951
0.341559 0.771119 0.356089
0.362044 0.774098 0.349984
0.387219 0.775915 0.348741
0.416479 0.772314 0.345354
0.445287 0.769404 0.340637
0.474913 0.766963 0.338535
0.506313 0.764951 0.332761
0.535406 0.765113 0.329187
0.561915 0.765016 0.328356
0.590599 0.764143 0.328183
0.620708 0.763227 0.327694
0.648538 0.763325 0.327114
0.675169 0.762310 0.330650
0.702375 0.760358 0.334532
0.729630 0.761258 0.334181
0.757766 0.761329 0.334696
0.785974 0.760238 0.337434
0.811076 0.759617 0.342645
0.833492 0.757204 0.343620
0.848212 0.752769 0.348872
0.870411 0.747096 0.353608
0.893791 0.746241 0.356803
0.919306 0.749247 0.351867
0.943852 0.746131 0.347239
0.968368 0.750607 0.329906
0.992182 0.749277 0.311845
1.000000 0.750711 0.302513
0.303940 0.799347 0.385918
0.308433 0.799775 0.382348
0.317712 0.799081 0.384378
0.328914 0.802056 0.386471
0.341926 0.800653 0.382841
0.355434 0.801379 0.384669
0.372714 0.797579 0.383646
0.400010 0.796137 0.384107
0.418648 0.796579 0.379896
0.441940 0.795575 0.371909
0.467317 0.792949 0.368214
0.494574 0.791604 0.366675
0.522447 0.791307 0.366276
0.547940 0.790302 0.361527
0.572449 0.788383 0.354580
0.601450 0.786317 0.354085
0.631248 0.786568 0.354119
0.658142 0.787530 0.355025
0.684390 0.786364 0.360816
0.710712 0.785461 0.362443
0.737247 0.784869 0.362472
0.763664 0.783374 0.365619
0.789183 0.783431 0.366237
0.811448 0.784210 0.371238
0.833122 0.786371 0.373858
0.854762 0.783551 0.375512
0.876935 0.778774 0.379503
0.895958 0.773138 0.386530
0.919134 0.771488 0.389512
0.938201 0.772485 0.395231
0.966348 0.773111 0.385108
0.991922 0.773579 0.372661
1.000000 0.777023 0.363289
0.351105 0.820800 0.420167
0.361682 0.822463 0.416807
0.362253 0.822154 0.415297
0.370040 0.824539 0.413045
0.375784 0.820781 0.411127
0.398497 0.821291 0.414391
0.410609 0.823860 0.413183
0.432079 0.822800 0.411785
0.448070 0.820405 0.410225
0.469681 0.820591 0.403885
0.491923 0.819024 0.401454
0.516557 0.816366 0.403344
0.541817 0.814540 0.401111
0.566702 0.813049 0.394351
0.591205 0.813273 0.388122
0.615324 0.812704 0.383953
0.641696 0.811841 0.384107
0.670774 0.811312 0.389077
0.695469 0.810600 0.393738
0.717641 0.809894 0.392829
0.743461 0.808163 0.391303
0.768923 0.807665 0.396722
0.794936 0.807729 0.401942
0.817135 0.808383 0.402653
0.840333 0.809699 0.400889
0.860242 0.805811 0.403182
0.883540 0.807281 0.406595
0.899122 0.802720 0.413095
0.921680 0.799204 0.419776
0.937519 0.798196 0.434612
0.965795 0.798395 0.432026
0.987450 0.802483 0.430284
0.998451 0.805808 0.427845
0.399151 0.845337 0.457712
0.407486 0.846654 0.453126
0.408719 0.845236 0.447996
0.415131 0.844177 0.448840
0.425782 0.843050 0.446219
0.433506 0.844957 0.442735
0.449140 0.844951 0.444857
0.466134 0.845141 0.449228
0.481964 0.844363 0.444337
0.499418 0.843281 0.439408
0.519787 0.841783 0.438908
0.541789 0.839991 0.438422
0.562603 0.839153 0.430109
0.585739 0.837842 0.423660
0.608861 0.836143 0.421564
0.632903 0.834828 0.418552
0.656403 0.834326 0.417006
0.680653 0.834354 0.419989
0.706891 0.833760 0.424760
0.729928 0.832144 0.426930
0.751961 0.831132 0.426246
0.777396 0.832193 0.426834
0.803606 0.834214 0.430681
0.825517 0.834808 0.435694
0.845897 0.830119 0.437992
0.865152 0.827899 0.440535
