ml_luts/presetpro_kodachrome__lut3d_33.cube
TITLE "Presetpro - Kodachrome.jpg"
DOMAIN_MIN 0.000000 0.000000 0.000000
DOMAIN_MAX 1.000000 1.000000 1.000000
LUT_3D_SIZE 5
0.000000 0.000000 0.000000
0.113815 0.022552 0.002273
0.379440 0.001953 0.001007
0.677887 0.000763 0.002395
0.984314 0.000000 0.003937
0.000000 0.184296 0.030830
0.129408 0.177035 0.012228
0.460835 0.143165 0.000221
0.737531 0.089069 0.000521
0.995628 0.156746 0.000000
0.000000 0.509812 0.094116
0.001263 0.503552 0.072762
0.425934 0.488708 0.001419
0.767796 0.507061 0.001385
0.999054 0.556732 0.000946
0.000763 0.814949 0.282669
0.002304 0.812540 0.261280
0.391048 0.802841 0.247242
0.713876 0.789272 0.022823
0.985069 0.821808 0.007301
0.470581 1.000000 0.639221
0.513183 0.998260 0.642608
0.656860 0.997025 0.647995
0.816567 0.995308 0.629860
0.972534 1.000000 0.537262
0.015694 0.008064 0.148254
0.143293 0.027614 0.126820
0.412255 0.002300 0.093761
0.703014 0.002041 0.031545
0.993889 0.000000 0.002174
0.000214 0.181129 0.197636
0.194810 0.187776 0.186515
0.478044 0.157924 0.141075
0.746129 0.105574 0.046348
0.999834 0.191147 0.001865
0.001278 0.518719 0.280056
0.015567 0.521976 0.256896
0.465855 0.506079 0.196230
0.790838 0.520362 0.043209
0.998833 0.549808 0.001007
0.002230 0.814966 0.420987
0.001474 0.815820 0.380756
0.426365 0.804806 0.360527
0.725785 0.794221 0.239130
0.991013 0.820219 0.000946
0.523079 0.995308 0.693352
0.534376 0.995788 0.676632
0.662407 0.996162 0.670166
0.818697 0.995331 0.670500
0.969391 0.997047 0.580696
0.001007 0.001968 0.424667
0.225334 0.002667 0.423237
0.495537 0.003380 0.391617
0.756401 0.004234 0.354153
0.999054 0.000946 0.253006
0.000000 0.165241 0.462635
0.265659 0.161410 0.465338
0.536070 0.165991 0.430798
0.774978 0.132856 0.381434
0.996430 0.155800 0.282337
0.001549 0.508759 0.519027
0.167391 0.519800 0.521055
0.561222 0.556008 0.517105
0.806070 0.534737 0.449314
0.998474 0.524521 0.314201
0.001530 0.815620 0.595490
0.004991 0.816789 0.588774
0.516647 0.817173 0.579944
0.759667 0.803944 0.518952
0.997291 0.819580 0.424305
0.397979 0.996140 0.746170
0.509910 0.999432 0.753681
0.670685 0.997063 0.753929
0.823143 0.995136 0.753365
0.970719 0.998993 0.685318
0.224526 0.002953 0.724067
0.367651 0.000378 0.723915
0.626549 0.000961 0.717617
0.851213 0.002088 0.689173
0.995537 0.096932 0.673530
0.250526 0.117319 0.738626
0.384636 0.095711 0.740654
0.641379 0.073454 0.732373
0.860359 0.161089 0.708725
0.998770 0.320664 0.679924
0.003781 0.455975 0.754818
0.259577 0.459156 0.757467
0.603487 0.503315 0.759932
0.841180 0.572079 0.737760
0.998898 0.577587 0.692417
0.002993 0.798412 0.782377
0.211202 0.799335 0.782767
0.549625 0.808449 0.786227
0.826818 0.836946 0.794306
0.993233 0.811479 0.726177
0.310120 0.997604 0.876702
0.399952 0.998867 0.870739
0.588688 0.998722 0.862251
0.825880 0.997208 0.856373
0.972099 0.997826 0.832039
0.560791 0.003937 0.984314
0.631149 0.000755 0.990418
0.801025 0.001007 0.981399
0.979859 0.008271 0.967865
0.996063 0.223541 0.952942
0.557617 0.012116 0.988983
0.628511 0.002697 0.990658
0.792400 0.004074 0.984470
0.969979 0.282190 0.973559
0.996605 0.399773 0.955871
0.455032 0.485321 0.990204
0.536938 0.476795 0.989464
0.730972 0.489685 0.984322
0.925053 0.579010 0.972904
0.998993 0.637253 0.956802
0.328209 0.807083 0.990303
0.408339 0.802807 0.992338
0.598911 0.791931 0.990723
0.847582 0.802671 0.985913
1.000000 0.841187 0.964691
0.568634 0.992157 1.000000
0.602928 0.989761 0.994873
0.690262 0.996140 0.997162
0.826462 0.997063 0.999016
1.000000 1.000000 1.000000
