ml_luts/presetpro_kodacrome_64__lut3d_33.cube
TITLE "Presetpro - Kodachrome 64.jpg"
DOMAIN_MIN 0.000000 0.000000 0.000000
DOMAIN_MAX 1.000000 1.000000 1.000000
LUT_3D_SIZE 33
0.003937 0.000000 0.000000
0.007721 0.000562 0.003222
0.011877 0.003727 0.000208
0.028215 0.003937 0.002323
0.045044 0.000545 0.000320
0.058437 0.001889 0.000000
0.071079 0.003344 0.002926
0.089086 0.002456 0.002195
0.108665 0.003487 0.000450
0.119858 0.005977 0.000000
0.139143 0.009020 0.005392
0.156973 0.011662 0.007342
0.176121 0.012055 0.002674
0.197844 0.013863 0.000248
0.223631 0.013315 0.000551
0.249253 0.010094 0.000315
0.272965 0.008636 0.000000
0.304487 0.005391 0.000787
0.335917 0.003294 0.000944
0.362140 0.003189 0.001041
0.395111 0.001293 0.001602
0.426914 0.002263 0.000000
0.456875 0.000296 0.000296
0.491660 0.001126 0.000680
0.527504 0.001190 0.000000
0.566075 0.000441 0.000000
0.604767 0.001636 0.000000
0.641064 0.000300 0.000601
0.678898 0.002175 0.003364
0.715781 0.003568 0.000000
0.760306 0.000122 0.000124
0.793251 0.001892 0.001922
0.825653 0.000000 0.000000
0.000123 0.009164 0.003814
0.006084 0.006662 0.003886
0.015355 0.009341 0.001545
0.028706 0.011346 0.001998
0.046356 0.009385 0.001525
0.063183 0.009235 0.002072
0.075758 0.008698 0.000502
0.090329 0.012228 0.000646
0.108193 0.013383 0.004456
0.123242 0.015467 0.004210
0.142330 0.015339 0.003520
0.163258 0.017550 0.008380
0.181945 0.019930 0.004108
0.202827 0.018366 0.001201
0.224547 0.019485 0.004040
0.250420 0.018862 0.003195
0.278966 0.016678 0.004449
0.306689 0.015047 0.005947
0.334896 0.012835 0.002142
0.364640 0.009165 0.002399
0.395455 0.003122 0.003690
0.425505 0.001393 0.000000
0.459804 0.000985 0.001201
0.496913 0.000035 0.003902
0.531177 0.000488 0.003126
0.566712 0.001746 0.000788
0.606003 0.001585 0.001898
0.643958 0.001806 0.000310
0.680790 0.001750 0.001920
0.719435 0.000225 0.001340
0.760973 0.001352 0.000030
0.793759 0.003390 0.000532
0.827250 0.001183 0.002277
0.000000 0.021219 0.002792
0.008609 0.018174 0.003899
0.020005 0.023424 0.003790
0.032374 0.022005 0.005034
0.049445 0.019988 0.005834
0.066022 0.021301 0.004112
0.078936 0.017905 0.000708
0.093398 0.021271 0.001222
0.109529 0.022865 0.002082
0.127155 0.023604 0.002859
0.144126 0.024207 0.002704
0.160112 0.027488 0.001604
0.181164 0.029989 0.000421
0.205530 0.027208 0.000077
0.225850 0.026278 0.000340
0.247235 0.026948 0.000273
0.276570 0.025149 0.000988
0.307674 0.023777 0.002039
0.337989 0.022154 0.002370
0.368742 0.017151 0.005290
0.397983 0.010641 0.006833
0.428719 0.005293 0.001878
0.460851 0.002030 0.001230
0.495466 0.000000 0.002903
0.529486 0.000430 0.000602
0.567261 0.001977 0.001622
0.606367 0.002667 0.001308
0.644363 0.001540 0.000019
0.682321 0.000784 0.000764
0.721875 0.000270 0.004804
0.764928 0.002818 0.000243
0.796096 0.001795 0.000158
0.826156 0.000076 0.004238
0.000000 0.032429 0.003905
0.005887 0.032088 0.005677
0.015039 0.030002 0.005812
0.028350 0.030927 0.004486
0.045306 0.031158 0.006088
0.064538 0.030375 0.004517
0.080201 0.031165 0.001121
0.095263 0.034264 0.001181
0.108319 0.035444 0.001051
0.130261 0.035834 0.002576
0.147282 0.035126 0.004017
0.163245 0.034562 0.001534
0.182997 0.038567 0.000137
0.204738 0.038039 0.000079
0.229290 0.036605 0.000008
0.254215 0.038679 0.002063
0.279633 0.037615 0.002006
0.306350 0.035191 0.000166
0.337459 0.032120 0.000223
0.368693 0.026252 0.001772
0.396281 0.021223 0.002596
0.429381 0.014754 0.001243
0.461417 0.008008 0.002226
0.494816 0.003233 0.000413
0.529490 0.001153 0.000572
0.566907 0.001072 0.000589
0.606736 0.000376 0.000119
0.646219 0.000839 0.000000
0.683954 0.001315 0.000245
0.722098 0.002837 0.001775
0.765301 0.002947 0.000204
0.799333 0.002221 0.002799
0.831252 0.000000 0.000409
0.000000 0.046299 0.009956
0.003751 0.045645 0.010160
0.012948 0.044615 0.008950
0.027693 0.043608 0.009588
0.044754 0.043621 0.007883
0.065454 0.045194 0.009770
0.079450 0.047593 0.002951
0.098746 0.048069 0.004129
0.115708 0.044466 0.001469
0.129317 0.043853 0.000380
0.149012 0.044020 0.000520
0.170678 0.046359 0.000197
0.190576 0.050191 0.002837
0.208186 0.052249 0.002510
0.233865 0.051040 0.001212
0.257409 0.051274 0.000885
0.283814 0.049837 0.000267
0.312600 0.048119 0.000000
0.340336 0.046126 0.001215
0.371234 0.042267 0.001823
0.398781 0.040374 0.000267
0.431833 0.033754 0.000522
0.466116 0.023655 0.001044
0.499821 0.011730 0.000140
0.533689 0.004139 0.000394
0.571240 0.002394 0.000293
0.608369 0.001947 0.000868
0.647855 0.000159 0.000063
0.687010 0.000950 0.000966
0.726594 0.003733 0.004463
0.766250 0.002981 0.000028
0.801060 0.002440 0.000436
0.833843 0.002750 0.000000
0.000000 0.060769 0.018451
0.001667 0.060504 0.017249
0.010703 0.060331 0.013008
0.025115 0.060354 0.016649
0.044166 0.058275 0.014781
0.060459 0.058996 0.016378
0.074803 0.063672 0.005094
0.095813 0.065308 0.004751
0.114672 0.060075 0.003446
0.131479 0.058207 0.000786
0.153596 0.060067 0.001611
0.171881 0.063320 0.000805
0.190357 0.065082 0.000504
0.213134 0.066354 0.001104
0.238494 0.063959 0.001019
0.261231 0.063003 0.000755
0.287015 0.062531 0.001042
0.314924 0.062042 0.002089
0.344763 0.061430 0.001853
0.377240 0.056456 0.000315
0.405124 0.052707 0.000032
0.436419 0.050838 0.000067
0.470497 0.043959 0.000134
0.503231 0.032962 0.000079
0.538600 0.024974 0.000212
0.577219 0.013312 0.000042
0.612274 0.005844 0.000763
0.653332 0.001302 0.003018
0.688679 0.002083 0.001688
0.728437 0.004030 0.001091
0.772530 0.003413 0.002717
0.804580 0.002402 0.002454
0.837356 0.004379 0.000000
0.000000 0.077764 0.027107
0.000249 0.073888 0.023719
0.010305 0.073218 0.019703
0.023793 0.073458 0.020344
0.040405 0.074084 0.019339
0.057367 0.073240 0.018616
0.073550 0.078502 0.012045
0.094249 0.079089 0.009880
0.115161 0.079484 0.009279
0.133171 0.078090 0.007312
0.151593 0.076931 0.005164
0.173976 0.076227 0.001551
0.193707 0.076546 0.000000
0.216979 0.075148 0.001265
0.241346 0.073765 0.001742
0.262452 0.076027 0.001932
0.290184 0.077906 0.002575
0.320275 0.080272 0.002828
0.347741 0.081989 0.002596
0.379668 0.078163 0.002760
0.412971 0.073849 0.003044
0.445175 0.070291 0.002308
0.477617 0.064663 0.002586
0.511853 0.059275 0.002094
0.545957 0.054635 0.000071
0.582837 0.042510 0.000445
0.621539 0.035382 0.001787
0.658993 0.026121 0.000668
0.694897 0.022168 0.000874
0.733064 0.022997 0.004077
0.773894 0.023684 0.001924
0.805100 0.029524 0.003084
0.838002 0.035801 0.002901
0.000000 0.095427 0.032879
0.001963 0.093330 0.027073
0.006671 0.092023 0.027256
0.020522 0.090122 0.023366
0.033807 0.089677 0.025451
0.050421 0.091138 0.027536
0.072040 0.092572 0.020714
0.090629 0.094352 0.015216
0.116062 0.095217 0.016612
0.132241 0.094141 0.013240
0.150452 0.093635 0.007314
0.174192 0.093569 0.005600
0.198004 0.092536 0.006482
0.221774 0.093201 0.003927
0.246748 0.092813 0.001901
0.270322 0.093302 0.002447
0.296679 0.095355 0.001787
0.324753 0.096758 0.000636
0.350826 0.098543 0.000601
0.383549 0.096887 0.000839
0.420736 0.092051 0.001244
0.450590 0.090305 0.001107
0.480609 0.087638 0.001464
0.516315 0.085395 0.002741
0.552614 0.081231 0.002186
0.587754 0.073841 0.003621
0.623599 0.070742 0.001566
0.663028 0.064143 0.002253
0.702685 0.064676 0.000302
0.742681 0.066889 0.002252
0.778432 0.069215 0.000700
0.811009 0.073437 0.001570
0.842996 0.077093 0.002522
0.002770 0.108032 0.041352
0.000715 0.110087 0.038365
0.001414 0.109695 0.034163
0.006720 0.107238 0.032610
0.021075 0.106113 0.035796
0.034635 0.107739 0.035897
0.063573 0.108453 0.033844
0.084180 0.111530 0.029208
0.107886 0.110855 0.024926
0.131830 0.110636 0.020526
0.155387 0.112395 0.013777
0.178513 0.112528 0.013980
0.201172 0.112025 0.013049
0.223804 0.112976 0.006744
0.248849 0.112658 0.004366
0.278455 0.109918 0.005046
0.308017 0.109898 0.002487
0.334891 0.112857 0.000000
0.360705 0.113770 0.000000
0.389293 0.112959 0.000682
0.421925 0.112649 0.001386
0.453565 0.110837 0.000591
0.487060 0.107752 0.000246
0.522966 0.107897 0.001116
0.557894 0.107096 0.001881
0.593594 0.102927 0.001470
0.630718 0.102243 0.001067
0.667468 0.100513 0.001891
0.707449 0.102717 0.001412
0.748477 0.104354 0.000376
0.787278 0.109298 0.000110
0.816653 0.111784 0.000284
0.847000 0.117882 0.000557
0.001039 0.126913 0.050417
0.000032 0.127705 0.048810
0.000000 0.126148 0.041483
0.001770 0.125239 0.040990
0.013039 0.125967 0.040569
0.029737 0.126840 0.044704
0.056828 0.125708 0.045281
0.078072 0.127286 0.040514
0.103757 0.126766 0.035356
0.130359 0.127505 0.028356
0.153215 0.130932 0.020057
0.174404 0.134160 0.015558
0.198082 0.133094 0.015215
0.226069 0.132457 0.017709
0.251581 0.130176 0.015339
0.279585 0.128344 0.011049
0.312170 0.129437 0.006826
0.340046 0.130971 0.001993
0.367071 0.131185 0.000835
0.397682 0.131171 0.001386
0.428429 0.131443 0.001462
0.462733 0.129479 0.001876
0.497825 0.127928 0.000000
0.533722 0.128092 0.000330
0.569373 0.128746 0.001162
0.605433 0.127952 0.000936
0.639389 0.129300 0.000483
0.675231 0.131565 0.001443
0.713695 0.132090 0.001344
0.752296 0.140548 0.005069
0.791957 0.143714 0.000000
0.819852 0.146413 0.000000
0.851993 0.150384 0.000000
0.000000 0.148725 0.059261
0.000000 0.148456 0.057510
0.001180 0.146341 0.050930
0.002780 0.144912 0.050362
0.010750 0.143300 0.049489
0.022835 0.144271 0.051708
0.047842 0.143478 0.052865
0.072413 0.142727 0.053425
0.097212 0.146151 0.047974
0.120311 0.147258 0.040573
0.145394 0.149716 0.032705
0.171652 0.152842 0.025183
0.199792 0.153572 0.022311
0.229517 0.151840 0.021818
0.254422 0.151675 0.017959
0.278696 0.150031 0.011218
0.309824 0.150871 0.008633
0.342041 0.152810 0.006118
0.375945 0.150806 0.002613
0.408438 0.150775 0.001804
0.435591 0.151424 0.002021
0.469688 0.149738 0.003526
0.503807 0.149849 0.000000
0.540050 0.150291 0.000181
0.576118 0.151519 0.001702
0.610879 0.154109 0.004052
0.646115 0.158436 0.000998
0.683499 0.160947 0.000437
0.720218 0.165312 0.000735
0.759498 0.170382 0.004904
0.797126 0.176588 0.000000
0.827361 0.182075 0.000000
0.855181 0.187204 0.000000
0.001202 0.167628 0.068872
0.000038 0.166159 0.067068
0.000590 0.166595 0.062186
0.001152 0.165845 0.061707
0.003812 0.163057 0.060063
0.011318 0.164156 0.060024
0.032235 0.163942 0.060070
0.059135 0.163675 0.061940
0.087830 0.166586 0.058169
0.111851 0.165524 0.053004
0.140750 0.167399 0.048222
0.167659 0.170217 0.041613
0.200039 0.172509 0.037562
0.230045 0.172022 0.031227
0.255022 0.173941 0.023655
0.282461 0.175530 0.018402
0.311508 0.175475 0.014701
0.342680 0.176597 0.007644
0.380882 0.176300 0.001350
0.417385 0.174302 0.000947
0.446671 0.173951 0.002199
0.479327 0.174715 0.003508
0.514331 0.175243 0.001809
0.549374 0.177584 0.002780
0.581681 0.177114 0.003008
0.618093 0.179197 0.003878
0.655140 0.182435 0.000484
0.689305 0.189030 0.000150
0.728191 0.195233 0.001077
0.766745 0.201047 0.001713
0.805492 0.208759 0.000000
0.833413 0.215434 0.000000
0.859741 0.220740 0.000000
0.005512 0.190307 0.078674
0.001964 0.187536 0.075570
0.000116 0.189635 0.073775
0.000000 0.187665 0.071743
0.000120 0.186238 0.070042
0.002767 0.187920 0.068180
0.018634 0.183198 0.071046
0.043974 0.183952 0.072183
0.073364 0.185686 0.070179
0.101806 0.187392 0.065339
0.131859 0.188720 0.058370
0.159403 0.192916 0.051678
0.191876 0.194111 0.049372
0.222346 0.193839 0.045371
0.251762 0.197242 0.036181
0.278826 0.200858 0.026730
0.310059 0.200728 0.021522
0.347368 0.200654 0.014490
0.384750 0.201658 0.007135
0.421432 0.201291 0.004525
0.455044 0.201470 0.002291
0.489226 0.202431 0.002000
0.525094 0.203459 0.002092
0.560850 0.204877 0.002545
0.594582 0.205962 0.001627
0.628577 0.208452 0.002112
0.664511 0.208825 0.000137
0.699211 0.214755 0.000709
0.738509 0.220496 0.001265
0.773659 0.233522 0.002129
0.809413 0.240169 0.002058
0.840943 0.246984 0.002058
0.867821 0.254334 0.003166
0.003137 0.213984 0.088861
0.001825 0.211844 0.084537
0.001300 0.211852 0.084277
0.001219 0.210329 0.083006
0.000469 0.209158 0.081707
0.001150 0.210579 0.079087
0.006035 0.205934 0.080721
0.023858 0.205645 0.081305
0.054016 0.207134 0.078862
0.089978 0.210091 0.076547
0.120310 0.211436 0.070843
0.149401 0.216018 0.063239
0.179196 0.219239 0.062223
0.212158 0.219352 0.058781
0.245419 0.223395 0.049064
0.279838 0.226626 0.037376
0.314924 0.227734 0.029187
0.349479 0.229278 0.022818
0.385452 0.229641 0.015483
0.421343 0.230298 0.007682
0.456350 0.230957 0.001228
0.492817 0.230641 0.000514
0.531800 0.231765 0.000705
0.571718 0.234070 0.000681
0.607010 0.235845 0.000198
0.638135 0.238429 0.000620
0.674730 0.241110 0.000077
0.708138 0.245811 0.000456
0.748379 0.251483 0.000946
0.783175 0.264406 0.002481
0.818065 0.270415 0.001388
0.848628 0.277652 0.002163
0.874613 0.282888 0.003200
0.000480 0.240362 0.095185
0.000861 0.239641 0.093067
0.001301 0.238794 0.092800
0.002336 0.237042 0.092299
0.002236 0.235713 0.091114
0.003760 0.236237 0.088504
0.001093 0.233358 0.091353
0.008149 0.233917 0.089371
0.030225 0.233776 0.083841
0.067492 0.234669 0.084592
0.106247 0.235274 0.084998
0.139906 0.238802 0.079552
0.171834 0.244344 0.074946
0.202942 0.247297 0.067336
0.235915 0.250171 0.060711
0.276939 0.251335 0.052065
0.315353 0.254151 0.037822
0.347920 0.258811 0.026539
0.383681 0.260560 0.019648
0.421571 0.261374 0.010623
0.458173 0.260982 0.003155
0.494318 0.260695 0.001543
0.534057 0.263561 0.001236
0.572849 0.265583 0.002895
0.608454 0.268301 0.000142
0.645339 0.270160 0.000000
0.683247 0.273745 0.000106
0.715523 0.279341 0.000676
0.755211 0.286090 0.001237
0.794344 0.292674 0.000908
0.829196 0.300603 0.000192
0.853095 0.307794 0.003123
0.879379 0.310360 0.004669
0.000627 0.265894 0.101576
0.000599 0.266863 0.102011
0.000574 0.269055 0.100933
0.001456 0.269224 0.099265
0.001608 0.266517 0.096881
0.002497 0.264976 0.094699
0.001133 0.264585 0.102184
0.001836 0.265027 0.097330
0.009394 0.263805 0.090687
0.038135 0.263342 0.089664
0.084036 0.263071 0.092172
0.123867 0.265599 0.092871
0.158496 0.270209 0.088724
0.191101 0.274197 0.079172
0.226015 0.277217 0.072271
0.265781 0.278832 0.065824
0.305445 0.282158 0.052852
0.344254 0.288761 0.035092
0.382731 0.293147 0.020283
0.421260 0.293687 0.009745
0.459359 0.293762 0.003175
0.495474 0.294300 0.003111
0.535792 0.296502 0.002854
0.573970 0.299412 0.003942
0.611557 0.302678 0.000832
0.652589 0.303982 0.001811
0.691122 0.307393 0.000317
0.728774 0.311955 0.001926
0.765615 0.317216 0.002808
0.800481 0.324417 0.000000
0.833891 0.333867 0.000129
0.858105 0.338875 0.002221
0.885267 0.339728 0.007210
0.000930 0.296798 0.109818
0.001626 0.298277 0.110956
0.001018 0.299841 0.109462
0.000313 0.301186 0.109803
0.000030 0.298685 0.106991
0.000000 0.296095 0.103415
0.002752 0.295078 0.112165
0.002327 0.294866 0.108764
0.001183 0.295853 0.103168
0.014269 0.294927 0.099442
0.050878 0.294098 0.099140
0.096332 0.296859 0.101950
0.136446 0.300303 0.099991
0.175390 0.302323 0.091101
0.215184 0.306917 0.083979
0.255659 0.310466 0.079148
0.295113 0.313675 0.069626
0.336777 0.318486 0.049089
0.379522 0.322362 0.026694
0.418378 0.325762 0.010958
0.456423 0.329290 0.001833
0.495781 0.331792 0.003807
0.537981 0.331981 0.004030
0.576728 0.334875 0.002057
0.615559 0.338738 0.002422
0.655591 0.337921 0.003215
0.695325 0.341963 0.000881
0.738492 0.346789 0.002972
0.777128 0.350630 0.002117
0.806032 0.358063 0.001418
0.841241 0.366245 0.001124
0.863328 0.369606 0.001345
0.891266 0.372680 0.003784
0.000762 0.335815 0.121864
0.002498 0.335557 0.121101
0.002205 0.334542 0.118288
0.000205 0.334192 0.118871
0.000488 0.332313 0.116895
0.000594 0.330124 0.113291
0.003414 0.329487 0.117649
0.002573 0.329779 0.117598
0.001279 0.331169 0.114905
0.003605 0.329324 0.112657
0.019861 0.327035 0.111441
0.058688 0.330020 0.111795
0.108235 0.333198 0.108495
0.158127 0.334595 0.100301
0.200830 0.338247 0.094289
0.242078 0.342319 0.089264
0.286082 0.346923 0.079884
0.327724 0.350790 0.063293
0.369126 0.352763 0.044048
0.411607 0.358239 0.024724
0.453124 0.364783 0.007621
0.496438 0.367422 0.002914
0.537694 0.369641 0.002559
0.576360 0.371042 0.000889
0.614749 0.374547 0.001910
0.654395 0.374322 0.001805
0.694914 0.377735 0.000876
0.737899 0.382802 0.001789
0.778767 0.387982 0.000250
0.812877 0.392695 0.001922
0.850661 0.400744 0.001271
0.870852 0.403106 0.002585
0.895047 0.406863 0.002875
0.000000 0.373770 0.133716
0.001961 0.372412 0.131233
0.002313 0.372858 0.129699
0.000219 0.371190 0.127252
0.000586 0.369068 0.125780
0.002380 0.367017 0.122703
0.002556 0.370375 0.122637
0.000552 0.369079 0.121484
0.001029 0.367536 0.120608
0.001809 0.365989 0.120768
0.005586 0.362635 0.120410
0.021019 0.366481 0.121045
0.067445 0.368642 0.119941
0.131196 0.369880 0.112430
0.181297 0.372289 0.104257
0.224171 0.375884 0.098155
0.273397 0.380723 0.091380
0.318874 0.385206 0.079452
0.358690 0.386429 0.063953
0.402282 0.389193 0.046106
0.449169 0.396060 0.021302
0.493885 0.399567 0.002793
0.533857 0.403890 0.001857
0.573307 0.406800 0.001655
0.611367 0.408556 0.000350
0.653933 0.410901 0.000249
0.693195 0.414939 0.000234
0.734423 0.419384 0.000029
0.773707 0.425343 0.000337
0.814421 0.428892 0.002569
0.853858 0.435569 0.001319
0.880493 0.437678 0.001538
0.902361 0.438560 0.003450
0.001735 0.411988 0.142087
0.001222 0.409860 0.139417
0.001030 0.410864 0.139158
0.000095 0.408922 0.136265
0.000000 0.407657 0.135023
0.002263 0.406581 0.132016
0.002103 0.410291 0.131052
0.000450 0.407932 0.129364
0.000196 0.405629 0.128608
0.001840 0.405193 0.128945
0.003980 0.402279 0.126508
0.004375 0.404314 0.127723
0.025545 0.406175 0.129697
0.084685 0.406620 0.124021
0.149037 0.409514 0.115457
0.203042 0.412499 0.108174
0.255682 0.415210 0.103189
0.306487 0.417988 0.093963
0.351109 0.418149 0.079385
0.393274 0.419737 0.063942
0.439119 0.426152 0.039024
0.484681 0.432029 0.012430
0.527653 0.437100 0.003804
0.568846 0.441447 0.001908
0.607581 0.443230 0.000580
0.651336 0.446196 0.000775
0.690582 0.450827 0.001019
0.732426 0.455180 0.001349
0.771385 0.461990 0.000399
0.811554 0.465052 0.003076
0.852687 0.468215 0.001862
0.884701 0.470116 0.000179
0.912848 0.470111 0.000347
0.002682 0.452519 0.150703
0.000321 0.449913 0.148091
0.000209 0.450541 0.143665
0.000019 0.449330 0.140662
0.000000 0.448142 0.139703
0.000000 0.448100 0.139703
0.000016 0.450807 0.135410
0.001831 0.449422 0.135803
0.001769 0.446280 0.138169
0.003181 0.445778 0.138730
0.003723 0.444503 0.134988
0.005452 0.441844 0.135004
0.003970 0.443907 0.134672
0.035757 0.445692 0.130928
0.105244 0.447109 0.126055
0.174831 0.449589 0.118758
0.235428 0.450821 0.110891
0.289577 0.452621 0.101571
0.336937 0.453604 0.090528
0.381243 0.455322 0.078182
0.423982 0.460995 0.058361
0.470574 0.464673 0.032532
0.516866 0.469770 0.010941
0.563271 0.475345 0.002237
0.605365 0.478421 0.000747
0.646550 0.482838 0.002668
0.687774 0.486264 0.001704
0.730137 0.490376 0.002257
0.770374 0.497419 0.001347
0.810364 0.499979 0.002462
0.850057 0.504007 0.000383
0.881753 0.503902 0.001517
0.912899 0.503646 0.000534
0.000020 0.491633 0.158294
0.000059 0.491784 0.158125
0.000188 0.492305 0.152447
0.001245 0.489549 0.150526
0.001353 0.489069 0.149221
0.001353 0.489008 0.147774
0.001225 0.490736 0.141650
0.004464 0.489754 0.140480
0.003999 0.486208 0.142856
0.002369 0.486320 0.143990
0.001750 0.485925 0.142075
0.002430 0.485004 0.140812
0.001520 0.484726 0.139059
0.008936 0.486186 0.137262
0.060598 0.485658 0.136398
0.138791 0.487065 0.133532
0.210163 0.487065 0.123116
0.268098 0.487655 0.109982
0.318218 0.491060 0.103709
0.365760 0.492553 0.096336
0.410361 0.495572 0.077159
0.456634 0.497830 0.054182
0.502561 0.500883 0.033169
0.550797 0.507433 0.013141
0.597879 0.513127 0.002432
0.644283 0.518429 0.002656
0.684642 0.520869 0.000551
0.724933 0.527523 0.001184
0.766013 0.532726 0.002504
0.810069 0.532228 0.005443
0.847275 0.536527 0.001330
0.874301 0.537759 0.002177
0.904040 0.539733 0.000136
0.000000 0.530272 0.172083
0.000000 0.531192 0.171475
0.000372 0.528305 0.164784
0.002672 0.525654 0.164174
0.003299 0.525510 0.160917
0.003846 0.526451 0.157396
0.003294 0.528241 0.152608
0.003630 0.527163 0.151143
0.002585 0.527573 0.150599
0.002471 0.527899 0.152680
0.001542 0.526492 0.152436
0.000684 0.527173 0.148049
0.001382 0.524981 0.147563
0.001630 0.523719 0.150428
0.021656 0.523043 0.147802
0.091248 0.524259 0.145921
0.176529 0.524383 0.137930
0.243164 0.523775 0.126730
0.300855 0.526122 0.124058
0.352084 0.527432 0.114669
0.398572 0.528102 0.094013
0.446432 0.530983 0.077127
0.493908 0.534474 0.060390
0.540194 0.538466 0.034683
0.587635 0.543949 0.010431
0.638325 0.548979 0.001055
0.681145 0.553091 0.000695
0.722015 0.560581 0.002813
0.762996 0.564860 0.000579
0.802988 0.568017 0.004435
0.843382 0.568882 0.002399
0.870281 0.572009 0.000033
0.899778 0.572386 0.000464
0.000129 0.569556 0.185529
0.000046 0.569237 0.183795
0.000318 0.566533 0.177948
0.000449 0.565536 0.174889
0.001903 0.565940 0.173695
0.003666 0.568536 0.172840
0.002149 0.566782 0.164782
0.003159 0.564257 0.162620
0.002114 0.563910 0.162100
0.000484 0.564790 0.166370
0.000011 0.565106 0.166657
0.000034 0.564125 0.163996
0.001764 0.561321 0.160219
0.002681 0.561128 0.162876
0.005502 0.560689 0.161944
0.050341 0.559767 0.163497
0.137963 0.559654 0.156551
0.221229 0.560851 0.143360
0.284337 0.562164 0.139393
0.337853 0.561288 0.129545
0.386679 0.561688 0.113837
0.434825 0.564480 0.102695
0.483667 0.566518 0.086708
0.531209 0.568864 0.061669
0.576521 0.571011 0.032568
0.622483 0.573869 0.008058
0.671652 0.583340 0.002434
0.720958 0.592576 0.002541
0.765499 0.595602 0.000661
0.797134 0.599872 0.002328
0.842842 0.600887 0.000411
0.871551 0.601871 0.000312
0.897891 0.602292 0.002232
0.000343 0.604530 0.203835
0.000196 0.603687 0.200449
0.000212 0.601579 0.193574
0.000089 0.600908 0.186789
0.001592 0.602976 0.186068
0.002877 0.604277 0.186187
0.000967 0.601771 0.179175
0.003151 0.602825 0.179614
0.001667 0.601801 0.180563
0.000364 0.601501 0.183094
0.000098 0.600566 0.178959
0.000597 0.599479 0.179169
0.002358 0.598069 0.174910
0.003187 0.597664 0.175983
0.001843 0.597630 0.178751
0.023144 0.596156 0.176516
0.098309 0.595268 0.169533
0.191197 0.596723 0.161437
0.261682 0.598304 0.154144
0.322552 0.596665 0.145404
0.377396 0.593745 0.135864
0.424924 0.594614 0.125523
0.472676 0.598098 0.114713
0.522326 0.601994 0.096948
0.568916 0.604147 0.067984
0.614208 0.608117 0.033829
0.660057 0.609913 0.015200
0.711185 0.617620 0.002257
0.760273 0.626716 0.001142
0.795953 0.631323 0.001692
0.835990 0.636474 0.000981
0.867505 0.633237 0.000726
0.893906 0.632225 0.004783
0.000628 0.640564 0.220301
0.001014 0.637740 0.215737
0.000507 0.637505 0.210079
0.000829 0.637689 0.208400
0.001096 0.640275 0.203123
0.000907 0.640407 0.199045
0.001893 0.639179 0.198499
0.003217 0.637459 0.198311
0.002295 0.638225 0.199221
0.000651 0.639333 0.200380
0.000216 0.636194 0.196257
0.001584 0.634149 0.193999
0.003150 0.635285 0.195249
0.002726 0.634696 0.194655
0.001085 0.632918 0.193583
0.004704 0.631306 0.189970
0.068103 0.631273 0.187575
0.170801 0.631208 0.184485
0.248251 0.631394 0.181585
0.310542 0.631716 0.175326
0.368207 0.629844 0.159351
0.418202 0.628879 0.150077
0.464481 0.628239 0.139928
0.511808 0.631444 0.123690
0.560172 0.634758 0.107775
0.608099 0.637413 0.083176
0.653343 0.639510 0.055075
0.697574 0.640376 0.020330
0.746956 0.653879 0.006957
0.789248 0.661355 0.000000
0.832189 0.668486 0.000026
0.864246 0.665698 0.000410
0.890799 0.661714 0.000207
0.002331 0.675316 0.240492
0.003661 0.675515 0.238740
0.001775 0.675116 0.232416
0.002734 0.674247 0.229450
0.003191 0.674665 0.226577
0.002787 0.674723 0.224608
0.002401 0.673741 0.223037
0.003127 0.673162 0.222313
0.002382 0.672431 0.221197
0.000950 0.671628 0.220014
0.000161 0.670442 0.216768
0.000285 0.670668 0.217029
0.003678 0.669982 0.216519
0.003886 0.670444 0.216404
0.001222 0.668181 0.215063
0.003248 0.665998 0.210516
0.053947 0.665581 0.210866
0.152027 0.665271 0.210615
0.234869 0.664929 0.203268
0.297947 0.663921 0.196191
0.360428 0.663830 0.189981
0.407583 0.663392 0.182155
0.452412 0.662588 0.169317
0.501550 0.664412 0.152921
0.550847 0.665436 0.140477
0.595036 0.667752 0.127212
