ml_luts/presetpro_portrait_160__lut3d_33.cube
TITLE "Presetpro - Portrait 160.jpg"
DOMAIN_MIN 0.000000 0.000000 0.000000
DOMAIN_MAX 1.000000 1.000000 1.000000
LUT_3D_SIZE 33
0.000000 0.000000 0.000000
0.012506 0.000000 0.003045
0.033509 0.002947 0.003143
0.051807 0.008536 0.008536
0.062584 0.006984 0.001510
0.077752 0.011189 0.000067
0.095919 0.013437 0.003521
0.118877 0.020177 0.007195
0.141052 0.024857 0.006714
0.165457 0.025950 0.010147
0.195963 0.023987 0.011574
0.227531 0.023071 0.013659
0.260472 0.019657 0.012615
0.296796 0.013821 0.012047
0.341389 0.004913 0.012543
0.387587 0.000859 0.011683
0.431778 0.000808 0.009353
0.475082 0.000658 0.008554
0.519621 0.000790 0.009430
0.565183 0.000496 0.009430
0.606270 0.001518 0.006649
0.646358 0.001322 0.002056
0.686638 0.000286 0.001755
0.723693 0.001311 0.000658
0.757843 0.001739 0.000000
0.791390 0.000133 0.000554
0.823771 0.001085 0.002155
0.854615 0.002719 0.000438
0.883461 0.005092 0.000709
0.917968 0.043177 0.005144
0.940821 0.098253 0.000006
0.965698 0.138519 0.000089
0.987457 0.172546 0.000000
0.002927 0.015462 0.000000
0.012511 0.018412 0.002930
0.028236 0.018960 0.000447
0.048789 0.021650 0.003123
0.065241 0.024523 0.000697
0.080533 0.027255 0.004514
0.099372 0.028385 0.003745
0.121659 0.033041 0.005763
0.141178 0.034014 0.006899
0.168155 0.034412 0.012467
0.195959 0.033078 0.009053
0.228899 0.035643 0.007246
0.264311 0.030887 0.007678
0.303201 0.023925 0.010582
0.346912 0.015930 0.011994
0.393292 0.008662 0.013566
0.434779 0.006263 0.010832
0.477305 0.006314 0.008464
0.522295 0.007622 0.010710
0.564009 0.009210 0.008345
0.609064 0.008133 0.004816
0.651755 0.006279 0.002792
0.688585 0.007171 0.000116
0.724506 0.009269 0.000628
0.757474 0.009367 0.001619
0.795085 0.009162 0.000017
0.829118 0.008660 0.000067
0.859375 0.008848 0.000411
0.884858 0.015728 0.002628
0.913148 0.067660 0.002937
0.941375 0.116671 0.000521
0.965796 0.151165 0.005599
0.990591 0.184993 0.003134
0.000189 0.031124 0.006066
0.009291 0.034252 0.008632
0.027247 0.036871 0.003506
0.043315 0.040025 0.003331
0.064419 0.040506 0.000435
0.081074 0.040843 0.003164
0.099753 0.043012 0.003709
0.122172 0.048761 0.007513
0.142355 0.047785 0.004044
0.171701 0.048974 0.006615
0.199357 0.049271 0.003628
0.232585 0.047156 0.006748
0.267947 0.043735 0.008105
0.307490 0.036785 0.010916
0.348856 0.026899 0.011869
0.393810 0.017823 0.012328
0.436878 0.013963 0.009892
0.479036 0.013253 0.009462
0.523908 0.013130 0.008982
0.567727 0.013891 0.002099
0.608814 0.013479 0.001606
0.646390 0.013369 0.002466
0.688711 0.013857 0.001515
0.726011 0.012869 0.003514
0.760386 0.012875 0.000104
0.793239 0.013591 0.000125
0.829367 0.015956 0.000465
0.860364 0.016983 0.000799
0.890318 0.034271 0.004807
0.915629 0.089281 0.002447
0.943653 0.132136 0.000581
0.965723 0.163761 0.003022
0.984713 0.197582 0.000202
0.000000 0.049254 0.011724
0.006504 0.052040 0.014428
0.019119 0.055387 0.011859
0.034170 0.056062 0.011456
0.056189 0.061312 0.001913
0.079842 0.061699 0.002777
0.100064 0.058470 0.001556
0.126428 0.061392 0.007336
0.149402 0.061551 0.006135
0.175498 0.063706 0.007899
0.203827 0.062360 0.010450
0.234979 0.063263 0.010422
0.274203 0.059847 0.009347
0.311877 0.052517 0.011501
0.352048 0.043738 0.012493
0.395839 0.031722 0.012162
0.439570 0.021918 0.011486
0.484059 0.018819 0.008883
0.528191 0.018798 0.006529
0.572260 0.019313 0.005181
0.614914 0.019625 0.002655
0.654016 0.019991 0.000229
0.693389 0.021463 0.001041
0.729649 0.020290 0.002395
0.761764 0.019453 0.000546
0.796196 0.020407 0.001720
0.831948 0.020004 0.000046
0.857284 0.028815 0.000466
0.891204 0.067655 0.002964
0.918025 0.113966 0.002799
0.943540 0.150622 0.002466
0.963323 0.181793 0.000266
0.987412 0.212693 0.000000
0.000374 0.068462 0.020760
0.006353 0.070849 0.016184
0.013559 0.071592 0.013587
0.024052 0.076017 0.013562
0.046382 0.080505 0.011367
0.075330 0.083486 0.007285
0.100513 0.084985 0.005646
0.123695 0.084287 0.008042
0.153802 0.083476 0.007091
0.179504 0.080533 0.007490
0.210960 0.080169 0.011249
0.241829 0.081142 0.009815
0.281368 0.078194 0.009398
0.321594 0.072765 0.010232
0.363018 0.063476 0.011840
0.403445 0.052663 0.010971
0.445322 0.039660 0.007839
0.489395 0.029717 0.005115
0.532457 0.027210 0.002835
0.576095 0.026393 0.002351
0.617520 0.026448 0.001850
0.657752 0.026326 0.000000
0.695880 0.025867 0.000982
0.731958 0.027040 0.002657
0.767461 0.027041 0.001757
0.800095 0.026092 0.002409
0.833494 0.032913 0.000938
0.860518 0.065984 0.000427
0.889956 0.106245 0.001202
0.918715 0.141045 0.004410
0.940980 0.174658 0.002410
0.965127 0.200601 0.000000
0.992965 0.226803 0.000000
0.002719 0.087226 0.025449
0.006341 0.089737 0.024172
0.012564 0.088197 0.019570
0.023405 0.092880 0.023333
0.037448 0.096582 0.017684
0.060068 0.099782 0.013208
0.092272 0.108489 0.009503
0.122403 0.111122 0.006994
0.154076 0.110223 0.008933
0.186057 0.104513 0.007658
0.218187 0.102376 0.007734
0.250933 0.100069 0.009786
0.288389 0.098694 0.008564
0.328623 0.094938 0.006781
0.369106 0.089836 0.009206
0.409858 0.083299 0.007958
0.454938 0.070331 0.005324
0.499520 0.054262 0.004214
0.540572 0.041218 0.001702
0.583965 0.033413 0.001037
0.625408 0.031488 0.001009
0.662637 0.032077 0.000761
0.700486 0.032716 0.001676
0.736151 0.032253 0.000547
0.771456 0.035163 0.000629
0.803868 0.048195 0.000597
0.835745 0.077639 0.001101
0.863429 0.110575 0.000852
0.892487 0.140869 0.000536
0.916824 0.170605 0.000724
0.941421 0.197551 0.000371
0.966587 0.224554 0.000014
0.991937 0.249103 0.000438
0.003614 0.108465 0.031374
0.008369 0.109422 0.031285
0.012635 0.111036 0.030355
0.020091 0.111786 0.027010
0.027138 0.116968 0.027441
0.044954 0.120428 0.022056
0.073021 0.126906 0.014912
0.111719 0.134916 0.010855
0.146529 0.138404 0.008777
0.187198 0.134390 0.008804
0.225055 0.130987 0.007138
0.259225 0.126377 0.003860
0.297566 0.124478 0.007218
0.338203 0.121062 0.007089
0.379363 0.114923 0.004414
0.421271 0.108783 0.004429
0.464235 0.101609 0.005120
0.507390 0.091580 0.003043
0.549426 0.081530 0.000980
0.590393 0.073258 0.001525
0.630101 0.065570 0.000831
0.668762 0.061325 0.000595
0.705722 0.062759 0.001989
0.740547 0.069800 0.002260
0.774311 0.081345 0.001133
0.802999 0.101948 0.000263
0.835927 0.124366 0.001492
0.866649 0.150749 0.002457
0.892076 0.174633 0.000801
0.918441 0.198925 0.000000
0.939520 0.222329 0.000000
0.965984 0.247449 0.000003
0.990765 0.271521 0.000097
0.002721 0.131316 0.035740
0.008714 0.134655 0.037126
0.014447 0.135736 0.037617
0.019044 0.134006 0.033799
0.028614 0.138649 0.037968
0.034263 0.142551 0.032646
0.049075 0.149472 0.023711
0.088933 0.155880 0.017110
0.135756 0.163399 0.009740
0.183345 0.168701 0.006790
0.226784 0.167865 0.005576
0.267104 0.162796 0.003531
0.306677 0.159126 0.003405
0.346698 0.153611 0.002858
0.389513 0.146416 0.001536
0.432633 0.139028 0.001074
0.474694 0.133572 0.001128
0.516522 0.128104 0.000867
0.556731 0.122069 0.000732
0.596510 0.118617 0.001080
0.635804 0.114706 0.001160
0.672163 0.112322 0.000787
0.708526 0.116361 0.000616
0.744067 0.122590 0.001686
0.777093 0.134023 0.002127
0.806541 0.150690 0.001237
0.838367 0.166788 0.005153
0.866728 0.185483 0.002643
0.889201 0.207595 0.000765
0.916829 0.230405 0.000216
0.940731 0.251459 0.000000
0.967703 0.273617 0.000017
0.992477 0.295821 0.000548
0.002350 0.159974 0.043304
0.008677 0.161089 0.043815
0.013658 0.159981 0.045969
0.022018 0.158936 0.045324
0.030180 0.163576 0.046063
0.032289 0.167195 0.039744
0.039410 0.174757 0.033004
0.065988 0.178963 0.024511
0.110073 0.187755 0.018103
0.162653 0.196526 0.008146
0.220362 0.206406 0.004276
0.269136 0.206506 0.002711
0.311418 0.200720 0.002532
0.354579 0.194800 0.001361
0.400145 0.187564 0.000510
0.443811 0.177571 0.000297
0.485733 0.169323 0.000572
0.527269 0.165478 0.001581
0.567740 0.162099 0.001244
0.607824 0.158670 0.000470
0.645737 0.157729 0.000909
0.679966 0.159134 0.000944
0.713954 0.163932 0.000731
0.750044 0.170230 0.000836
0.781965 0.177586 0.002042
0.810162 0.192050 0.000842
0.840879 0.206095 0.001538
0.867227 0.223309 0.000649
0.892854 0.241692 0.000666
0.916694 0.261557 0.003645
0.940292 0.280226 0.000745
0.968731 0.298936 0.000600
0.991798 0.318840 0.000770
0.000652 0.192352 0.050182
0.006924 0.190835 0.051780
0.012708 0.188802 0.051058
0.020547 0.187937 0.051037
0.026600 0.191164 0.055397
0.031563 0.194627 0.049742
0.038946 0.202233 0.045551
0.050503 0.205112 0.036398
0.078546 0.216975 0.026169
0.134261 0.226767 0.015857
0.197731 0.234329 0.006288
0.264170 0.244531 0.001867
0.317648 0.245333 0.002972
0.363981 0.240009 0.002429
0.409975 0.232389 0.003649
0.453576 0.222672 0.002569
0.495259 0.212827 0.001081
0.536127 0.206110 0.001750
0.576575 0.202681 0.001422
0.616581 0.200009 0.002164
0.653354 0.199787 0.002255
0.686443 0.202398 0.001333
0.720317 0.206194 0.002015
0.754353 0.212945 0.001807
0.786510 0.221288 0.000962
0.812762 0.233437 0.001476
0.842991 0.245418 0.000000
0.868882 0.259830 0.000206
0.897310 0.275490 0.001333
0.918065 0.291957 0.001341
0.942868 0.308417 0.000375
0.968877 0.326600 0.001810
0.990802 0.345374 0.003426
0.000692 0.223093 0.056471
0.006869 0.222480 0.061402
0.012544 0.222280 0.060762
0.019004 0.220876 0.060214
0.026569 0.221822 0.063583
0.033046 0.224174 0.058573
0.038393 0.229995 0.054662
0.045047 0.236420 0.045883
0.059148 0.247345 0.037396
0.102738 0.256422 0.024058
0.167310 0.262269 0.009253
0.239576 0.273857 0.002653
0.312554 0.287060 0.002795
0.370395 0.288576 0.001744
0.416128 0.281370 0.002370
0.459595 0.273389 0.001770
0.500927 0.265642 0.000377
0.543081 0.257396 0.000841
0.585917 0.249533 0.001871
0.626220 0.243669 0.002906
0.662411 0.241413 0.002320
0.693864 0.242687 0.001636
0.726930 0.246755 0.001516
0.757232 0.254884 0.001853
0.789256 0.262577 0.001912
0.818059 0.271343 0.000566
0.844379 0.282452 0.000067
0.869844 0.296794 0.000499
0.895146 0.311333 0.001377
0.921223 0.323481 0.001970
0.943731 0.337966 0.000338
0.970929 0.354784 0.003454
0.992060 0.372578 0.001393
0.000346 0.255788 0.063489
0.006554 0.257758 0.070114
0.012524 0.257551 0.069752
0.018744 0.255474 0.069956
0.025771 0.258517 0.067622
0.032486 0.257017 0.067390
0.038823 0.261664 0.066286
0.044233 0.268533 0.058762
0.051566 0.277160 0.049753
0.072171 0.286418 0.034299
0.137233 0.293286 0.019777
0.211900 0.303723 0.008099
0.284907 0.317432 0.003933
0.357658 0.329955 0.002242
0.419018 0.332867 0.001682
0.465741 0.327656 0.001953
0.507436 0.320400 0.000931
0.550232 0.311244 0.000538
0.592570 0.301980 0.001742
0.632582 0.294982 0.001998
0.668441 0.288872 0.001322
0.700436 0.285737 0.001329
0.731732 0.288415 0.001297
0.761128 0.294325 0.001523
0.791014 0.301552 0.000981
0.820187 0.309734 0.000360
0.847601 0.321110 0.000172
0.873627 0.332051 0.000830
0.897371 0.345226 0.000531
0.921457 0.358033 0.001656
0.944583 0.369917 0.000231
0.970662 0.384732 0.002704
0.993378 0.398780 0.001322
0.000000 0.293061 0.075333
0.006238 0.294169 0.077905
0.012505 0.292770 0.076553
0.018744 0.292516 0.076738
0.027997 0.292139 0.077725
0.031977 0.292042 0.079635
0.038155 0.296193 0.077735
0.043918 0.301481 0.070944
0.049995 0.309544 0.064421
0.058668 0.319105 0.051418
0.108757 0.326993 0.035766
0.184439 0.335799 0.014560
0.256390 0.347377 0.003266
0.329153 0.359596 0.001040
0.404227 0.371815 0.002324
0.467936 0.376855 0.002252
0.516287 0.373455 0.001133
0.557702 0.365791 0.001264
0.597690 0.357023 0.001941
0.635568 0.350267 0.002046
0.671259 0.343450 0.001344
0.704991 0.337075 0.001337
0.735309 0.335444 0.000962
0.764494 0.337233 0.001898
0.794481 0.342093 0.001120
0.823477 0.347740 0.000548
0.849706 0.358136 0.000387
0.873894 0.368390 0.002165
0.899562 0.379675 0.002423
0.921337 0.391587 0.000525
0.948138 0.401957 0.001460
0.972047 0.416713 0.000817
0.993713 0.427929 0.002720
0.001866 0.329784 0.085800
0.008859 0.330503 0.086555
0.014692 0.331532 0.086837
0.020474 0.331622 0.088382
0.030682 0.328338 0.090055
0.035376 0.330099 0.090064
0.038189 0.332202 0.088477
0.044076 0.336824 0.084010
0.051282 0.344746 0.078640
0.057517 0.352818 0.068964
0.082591 0.360271 0.052543
0.153061 0.369651 0.030165
0.230014 0.380758 0.009588
0.301660 0.389070 0.000972
0.375784 0.399282 0.001039
0.451431 0.412413 0.000866
0.516347 0.420395 0.002003
0.564019 0.419299 0.003296
0.603136 0.412174 0.002642
0.639868 0.404782 0.002835
0.674500 0.399236 0.002403
0.707567 0.393565 0.001105
0.738456 0.389346 0.000526
0.767451 0.386783 0.002047
0.796734 0.385889 0.002964
0.826494 0.387103 0.002369
0.852578 0.394678 0.000844
0.875870 0.404226 0.002880
0.898910 0.413195 0.002270
0.923439 0.422064 0.000418
0.949973 0.433725 0.004232
0.971798 0.446462 0.000847
0.993713 0.459661 0.001277
0.001375 0.369637 0.094339
0.009117 0.369934 0.096658
0.015094 0.369913 0.097536
0.021292 0.370219 0.099321
0.027921 0.368995 0.098623
0.034861 0.369195 0.098245
0.038983 0.369881 0.101403
0.044513 0.372085 0.098992
0.051647 0.379494 0.093821
0.058492 0.386613 0.085513
0.067419 0.394682 0.069656
0.123442 0.404033 0.052179
0.203613 0.414417 0.027155
0.279403 0.422990 0.007684
0.349598 0.431069 0.000946
0.421763 0.442295 0.000027
0.497702 0.454669 0.002158
0.562971 0.464289 0.003758
0.608369 0.464892 0.002939
0.643758 0.458299 0.003228
0.677526 0.453509 0.002783
0.710562 0.448013 0.000571
0.742145 0.442306 0.000816
0.770588 0.438741 0.001427
0.799227 0.434804 0.001924
0.827185 0.432116 0.002346
0.853241 0.433184 0.000603
0.879590 0.438181 0.002112
0.902772 0.446402 0.002207
0.924285 0.454911 0.001127
0.947674 0.465267 0.002548
0.970494 0.475976 0.002241
0.992924 0.486891 0.000000
0.000811 0.410352 0.105248
0.007886 0.410220 0.106874
0.014939 0.408250 0.109960
0.022210 0.409373 0.111681
0.026959 0.408863 0.111021
0.034342 0.407605 0.111741
0.039569 0.409409 0.115679
0.045019 0.408379 0.112720
0.051425 0.413538 0.110872
0.059598 0.420270 0.102520
0.065455 0.429681 0.088035
0.100259 0.438058 0.073064
0.178554 0.446873 0.054936
0.260835 0.455223 0.029956
0.331196 0.463696 0.008890
0.398019 0.472138 0.001229
0.470676 0.481521 0.002016
0.542497 0.495905 0.002379
0.600284 0.507989 0.001367
0.645075 0.508324 0.002190
0.681164 0.502773 0.002471
0.713526 0.496975 0.000835
0.744533 0.491377 0.001589
0.771926 0.488049 0.001627
0.798784 0.484816 0.000204
0.826679 0.480027 0.001119
0.852881 0.476503 0.001899
0.879458 0.477561 0.001083
0.904399 0.481696 0.003791
0.926478 0.487138 0.003119
0.948296 0.494620 0.000089
0.971200 0.505170 0.001372
0.993915 0.514533 0.000000
0.000763 0.449097 0.121597
0.007045 0.449112 0.120222
0.014114 0.446909 0.122367
0.021749 0.448104 0.124117
0.027512 0.448856 0.127461
0.034911 0.446343 0.126473
0.039582 0.447461 0.128536
0.044702 0.446638 0.128406
0.051933 0.448399 0.128140
0.059160 0.455271 0.119405
0.064937 0.464401 0.110144
0.086592 0.471569 0.097089
0.160637 0.478588 0.082766
0.244544 0.487069 0.061004
0.315348 0.495802 0.033074
0.381315 0.502358 0.009979
0.448288 0.509468 0.001282
0.515196 0.521693 0.000802
0.578681 0.536013 0.000000
0.637553 0.545970 0.001519
0.682720 0.547899 0.002548
0.714734 0.543083 0.000806
0.745512 0.537722 0.001595
0.772482 0.534331 0.001667
0.798157 0.533153 0.000000
0.824853 0.527036 0.000808
0.853619 0.523738 0.003389
0.878658 0.522225 0.002099
0.903210 0.521078 0.002360
0.927572 0.522324 0.003034
0.951142 0.526219 0.000713
0.974939 0.533923 0.001522
0.996048 0.543930 0.000000
0.000658 0.487026 0.137188
0.007644 0.487714 0.136304
0.012766 0.484893 0.136508
0.020150 0.485913 0.137732
0.025938 0.486854 0.142050
0.033292 0.485447 0.141042
0.038572 0.484669 0.144028
0.043928 0.485779 0.145338
0.051716 0.484411 0.145593
0.057437 0.490021 0.138103
0.062735 0.498461 0.133816
0.081370 0.504033 0.120085
0.152510 0.510470 0.106549
0.233995 0.519903 0.091222
0.304128 0.528432 0.069976
0.369307 0.533744 0.041261
0.433939 0.540004 0.014259
0.496677 0.549588 0.001771
0.557151 0.559535 0.000000
0.618466 0.571287 0.000997
0.672126 0.583445 0.001533
0.713729 0.586357 0.000474
0.745165 0.581508 0.001217
0.771937 0.577661 0.000617
0.800144 0.577714 0.000000
0.823849 0.571906 0.000376
0.852990 0.569335 0.002040
0.877554 0.566232 0.003100
0.902233 0.564859 0.001234
0.924049 0.563549 0.000844
0.950336 0.561602 0.000809
0.976561 0.563497 0.002479
0.998281 0.571210 0.002274
0.000790 0.523880 0.152151
0.007926 0.524412 0.153252
0.012708 0.522137 0.153687
0.019485 0.524277 0.155497
0.025764 0.523305 0.156372
0.034355 0.522942 0.156972
0.039671 0.522450 0.161224
0.044160 0.524273 0.160486
0.050871 0.520351 0.162530
0.056862 0.523809 0.159340
0.063265 0.530151 0.156010
0.082598 0.535162 0.141504
0.152223 0.542238 0.132130
0.231775 0.550572 0.121601
0.299551 0.557604 0.107096
0.362386 0.563784 0.085172
0.424049 0.570378 0.052608
0.483293 0.578607 0.023067
0.540664 0.586208 0.006158
0.597544 0.594438 0.000058
0.651165 0.606948 0.000275
0.702189 0.617347 0.000672
0.741720 0.621070 0.000696
0.772121 0.619550 0.000000
0.800441 0.617498 0.000000
0.823776 0.614015 0.000000
0.851268 0.610855 0.000682
0.874760 0.607361 0.003402
0.898507 0.606191 0.001926
0.921574 0.603178 0.000595
0.948044 0.600124 0.000812
0.973866 0.597853 0.001033
1.000000 0.602768 0.002729
0.000000 0.560155 0.172152
0.006238 0.559681 0.172451
0.012505 0.558782 0.171561
0.019452 0.561697 0.173784
0.027080 0.560086 0.174704
0.035234 0.559843 0.173720
0.040357 0.559696 0.177757
0.045139 0.560764 0.178457
0.051856 0.557315 0.179679
0.057525 0.559462 0.182168
0.064544 0.562543 0.180326
0.089709 0.567584 0.167666
0.160480 0.574158 0.158512
0.236924 0.580618 0.150624
0.300593 0.587090 0.138648
0.360695 0.593002 0.121043
0.417890 0.600337 0.097936
0.473060 0.608142 0.069813
0.528595 0.613461 0.039941
0.582660 0.620612 0.014995
0.632726 0.629634 0.001758
0.681930 0.638079 0.000500
0.730424 0.650383 0.000518
0.770589 0.656273 0.000918
0.799772 0.655180 0.000071
0.824056 0.652399 0.000277
0.849679 0.648651 0.000805
0.872734 0.645706 0.002866
0.894681 0.643079 0.000931
0.920591 0.641108 0.000808
0.946756 0.640649 0.001019
0.971921 0.637395 0.000000
1.000000 0.639964 0.000000
0.001522 0.596390 0.192944
0.007693 0.596423 0.192944
0.012992 0.596006 0.193984
0.020257 0.597378 0.194520
0.026881 0.595179 0.196081
0.032994 0.596814 0.194749
0.037810 0.596560 0.197986
0.046543 0.596327 0.198743
0.053576 0.596151 0.200343
0.058020 0.594696 0.204542
0.069453 0.596184 0.205560
0.107947 0.601229 0.194200
0.180429 0.605594 0.186256
0.250943 0.610724 0.178494
0.309769 0.617082 0.167083
0.366141 0.623308 0.154004
0.419113 0.630648 0.138002
0.468969 0.636875 0.119851
0.521336 0.641166 0.096517
0.573024 0.647634 0.062803
0.619236 0.654800 0.029466
0.665035 0.661306 0.010454
0.710875 0.670816 0.002392
0.757794 0.680236 0.001493
0.795415 0.686527 0.000384
0.824180 0.687182 0.001016
0.847796 0.684238 0.000435
0.871169 0.681952 0.000605
0.893911 0.679347 0.000328
0.918844 0.678507 0.000684
0.946082 0.676066 0.000000
0.970864 0.675145 0.000071
0.998066 0.673745 0.002277
0.002664 0.631253 0.215198
0.009496 0.632693 0.215574
0.014083 0.631359 0.218450
0.020532 0.632125 0.217866
0.025530 0.632076 0.218592
0.033298 0.631540 0.218100
0.038529 0.631019 0.221454
0.047695 0.630347 0.220743
0.052949 0.631678 0.224818
0.062245 0.628227 0.224085
0.094378 0.627677 0.227908
0.149518 0.631533 0.221661
0.214242 0.634830 0.216564
0.271647 0.639727 0.208906
0.323437 0.645053 0.198306
0.374141 0.651959 0.187180
0.423919 0.658693 0.176551
0.470895 0.663487 0.162859
0.518573 0.667845 0.143986
0.566265 0.673318 0.124140
0.608551 0.680425 0.095838
0.651680 0.686074 0.058013
0.694753 0.691819 0.028731
0.738579 0.698591 0.010569
0.780946 0.706951 0.001582
0.817138 0.716623 0.001384
0.846353 0.718850 0.001784
0.871239 0.716529 0.002161
0.895700 0.714307 0.000362
0.918971 0.711982 0.002624
0.945861 0.708503 0.000000
0.970049 0.709126 0.000146
0.994455 0.705320 0.004678
0.000000 0.663475 0.240696
0.008307 0.666212 0.242732
0.014049 0.663902 0.243434
0.021734 0.665199 0.244415
0.025989 0.666008 0.244262
0.033353 0.665563 0.244537
0.039522 0.664657 0.248483
0.048834 0.662735 0.248993
0.064330 0.663789 0.250630
0.094203 0.662504 0.247615
0.149682 0.660791 0.253255
0.203791 0.661525 0.251161
0.251706 0.664406 0.245418
0.296893 0.669372 0.239989
0.341978 0.674049 0.231634
0.386309 0.679713 0.220886
0.430708 0.686066 0.210681
0.475057 0.691465 0.200677
0.518916 0.694854 0.188654
0.561441 0.699344 0.173646
0.602015 0.706449 0.155947
0.644791 0.710314 0.133411
0.685657 0.714966 0.099318
0.723686 0.720503 0.059417
0.763296 0.725247 0.029549
0.802264 0.735813 0.010524
0.840903 0.746900 0.003557
0.870868 0.750452 0.004279
0.895977 0.749115 0.000644
0.917503 0.744252 0.002852
0.944955 0.742182 0.000059
0.970104 0.740259 0.000958
0.994409 0.739195 0.001385
0.000009 0.697193 0.271023
0.007734 0.697129 0.272705
0.012837 0.694228 0.268840
0.022215 0.696690 0.270048
0.027805 0.694414 0.271067
0.042013 0.697016 0.272141
0.057183 0.696766 0.272950
0.078563 0.695583 0.275611
0.118654 0.695874 0.277105
0.167231 0.694450 0.278312
0.214521 0.693912 0.280568
0.251087 0.693144 0.280992
0.286633 0.695356 0.276905
0.325611 0.698482 0.270398
0.363807 0.702406 0.263835
0.402221 0.707845 0.255999
0.441390 0.713162 0.248238
0.481539 0.717483 0.240513
0.522342 0.720138 0.229955
0.560588 0.724472 0.217202
0.598164 0.730399 0.202687
0.638164 0.733638 0.186361
0.677481 0.739397 0.167045
0.714335 0.744660 0.140634
0.749416 0.749002 0.109301
0.785162 0.753467 0.061567
0.823967 0.765290 0.026707
0.861802 0.776548 0.010340
0.893832 0.777717 0.000779
0.914753 0.774329 0.000061
0.945491 0.772466 0.000760
0.969379 0.772146 0.002295
0.995546 0.768706 0.000000
0.020966 0.727700 0.300568
0.029118 0.727308 0.298380
0.039366 0.726329 0.296192
0.052366 0.728056 0.298803
0.065111 0.726171 0.301864
0.094102 0.727453 0.302113
0.128723 0.724800 0.300939
0.167725 0.725337 0.304269
0.203817 0.724768 0.305904
0.234461 0.724047 0.306366
0.268018 0.723927 0.305285
0.294812 0.723630 0.307708
0.324200 0.724452 0.309906
0.355489 0.726693 0.306046
0.386324 0.730212 0.298221
0.421077 0.734710 0.292073
0.456161 0.738823 0.286675
0.489208 0.742961 0.278830
0.525742 0.746653 0.268044
0.563072 0.750884 0.255700
0.596902 0.755969 0.245182
0.632805 0.758750 0.234286
0.669419 0.762979 0.217299
0.702945 0.767995 0.198119
0.734722 0.772785 0.178408
0.769303 0.776204 0.152805
0.806765 0.782750 0.113842
0.845922 0.791405 0.058749
0.886917 0.799888 0.026250
0.914338 0.802938 0.008979
0.945493 0.804478 0.001718
0.967873 0.802473 0.001249
0.995552 0.798638 0.000008
0.106956 0.756974 0.325642
0.119842 0.755342 0.329535
0.138983 0.755232 0.328460
0.156984 0.754601 0.330813
0.175483 0.757125 0.327434
0.194973 0.756619 0.330458
0.218415 0.755238 0.335314
0.241109 0.755712 0.333266
0.261868 0.753640 0.336303
0.285187 0.753937 0.335939
0.311771 0.753163 0.333515
0.336962 0.754022 0.336727
0.360313 0.753180 0.340639
0.385451 0.754693 0.338277
0.414184 0.758653 0.333361
0.443054 0.761663 0.328713
0.472154 0.765238 0.322663
0.501755 0.769349 0.314374
0.533281 0.773327 0.306981
0.565546 0.777948 0.298685
0.596325 0.781138 0.286930
0.631207 0.783751 0.275369
0.664917 0.788674 0.261707
0.695019 0.793270 0.249033
0.727253 0.797102 0.230876
0.759862 0.798072 0.209392
0.797251 0.805130 0.187810
0.830611 0.808647 0.156275
0.865636 0.815764 0.122114
0.906838 0.828589 0.061261
0.939297 0.836697 0.023163
0.966861 0.832861 0.019661
0.998903 0.830660 0.016146
0.201465 0.785436 0.359602
0.210289 0.783996 0.360171
0.222150 0.782899 0.362157
0.234919 0.782933 0.362840
0.246086 0.780957 0.362624
0.260296 0.782539 0.363338
0.277538 0.783904 0.364671
0.293925 0.783888 0.364794
0.314759 0.779962 0.367268
0.332994 0.783535 0.367233
0.355471 0.783054 0.366036
0.377308 0.781636 0.370225
0.395893 0.781233 0.370765
0.415281 0.783027 0.370631
0.438841 0.785509 0.368070
0.461593 0.787317 0.364089
0.486731 0.790492 0.360454
0.515004 0.794999 0.353099
0.543572 0.797890 0.345450
0.574314 0.800750 0.338131
0.603406 0.805631 0.328083
0.632119 0.809204 0.319392
0.663503 0.813321 0.308215
0.692883 0.819522 0.295676
0.723894 0.822182 0.284010
0.754502 0.824211 0.268417
