ml_luts/presetpro_kodachrome__lut3d_33.cube
TITLE "Presetpro - Kodachrome.jpg"
DOMAIN_MIN 0.000000 0.000000 0.000000
DOMAIN_MAX 1.000000 1.000000 1.000000
LUT_3D_SIZE 9
0.000000 0.000000 0.000000
0.049080 0.007305 0.000000
0.113815 0.022552 0.002273
0.224400 0.018654 0.000950
0.379440 0.001953 0.001007
0.529919 0.000950 0.001507
0.677887 0.000763 0.002395
0.831733 0.005981 0.000492
0.984314 0.000000 0.003937
0.000000 0.084762 0.016125
0.034050 0.077927 0.012053
0.127197 0.080260 0.000568
0.258729 0.068613 0.003389
0.407610 0.024612 0.005686
0.552620 0.000899 0.001815
0.699219 0.000713 0.001905
0.850222 0.001204 0.001596
0.994102 0.000492 0.000442
0.000000 0.184296 0.030830
0.001942 0.180563 0.028008
0.129408 0.177035 0.012228
0.298584 0.167959 0.000083
0.460835 0.143165 0.000221
0.599593 0.117470 0.001342
0.737531 0.089069 0.000521
0.873612 0.091451 0.001007
0.995628 0.156746 0.000000
0.001507 0.321487 0.058853
0.004452 0.320479 0.051669
0.073541 0.315043 0.043952
0.288827 0.309186 0.002935
0.467586 0.307514 0.001482
0.629134 0.303591 0.001309
0.783795 0.310309 0.000320
0.906829 0.340021 0.000237
0.997539 0.377884 0.006512
0.000000 0.509812 0.094116
0.001776 0.506561 0.076891
0.001263 0.503552 0.072762
0.227404 0.495811 0.034535
0.425934 0.488708 0.001419
0.604456 0.493669 0.002335
0.767796 0.507061 0.001385
0.911879 0.529699 0.001379
0.999054 0.556732 0.000946
0.000000 0.680370 0.158844
0.000317 0.676955 0.147860
0.001187 0.675682 0.138573
0.089393 0.669365 0.130398
0.388092 0.661249 0.057648
0.568069 0.658182 0.001130
0.733391 0.660327 0.000521
0.887075 0.678722 0.001879
0.999050 0.704925 0.000000
0.000763 0.814949 0.282669
0.001653 0.813691 0.262041
0.002304 0.812540 0.261280
0.064348 0.805565 0.253092
0.391048 0.802841 0.247242
0.564939 0.794456 0.177787
0.713876 0.789272 0.022823
0.855584 0.797997 0.000270
0.985069 0.821808 0.007301
0.000538 0.918682 0.437851
0.007666 0.916321 0.422425
0.019961 0.914996 0.423865
0.292087 0.915727 0.420927
0.477533 0.908331 0.419798
0.621546 0.905196 0.408543
0.737010 0.903706 0.343683
0.849728 0.902453 0.234732
0.959602 0.902981 0.020744
0.470581 1.000000 0.639221
0.467590 1.000000 0.638767
0.513183 0.998260 0.642608
0.576984 0.997585 0.635841
0.656860 0.997025 0.647995
0.738350 0.994152 0.646068
0.816567 0.995308 0.629860
0.887265 0.995590 0.595592
0.972534 1.000000 0.537262
0.011334 0.003036 0.057900
0.050292 0.012503 0.047445
0.122913 0.025144 0.038358
0.240749 0.030313 0.031362
0.393398 0.001808 0.010740
0.545292 0.001745 0.001615
0.691779 0.000952 0.002739
0.845653 0.000873 0.000114
0.991726 0.000000 0.003036
0.000000 0.083623 0.073452
0.044145 0.087524 0.071292
0.137792 0.088289 0.056756
0.268032 0.078829 0.036592
0.423576 0.032553 0.015596
0.564710 0.001325 0.000126
0.708212 0.000266 0.000492
0.855321 0.000465 0.002566
0.993904 0.000840 0.001224
0.000733 0.183221 0.102333
0.001314 0.185262 0.088078
0.152850 0.181031 0.072996
0.318557 0.168210 0.047851
0.469835 0.145499 0.012614
0.604902 0.115444 0.002584
0.743315 0.094885 0.003480
0.879515 0.127197 0.003519
0.996953 0.178894 0.003200
0.001752 0.328128 0.141082
0.004249 0.327069 0.122304
0.113893 0.324656 0.111184
0.308932 0.316492 0.072205
0.482252 0.314021 0.002903
0.641122 0.306768 0.001753
0.787290 0.313199 0.001350
0.912901 0.337678 0.000807
0.998493 0.385212 0.001001
0.000976 0.513865 0.184851
0.002074 0.512282 0.151099
0.002830 0.505476 0.143484
0.250722 0.500672 0.124768
0.439080 0.494371 0.028986
0.612124 0.497497 0.001217
0.774360 0.511137 0.001198
0.917389 0.531720 0.003970
0.999290 0.554075 0.000244
0.001136 0.684026 0.239032
0.002420 0.683399 0.214484
0.001721 0.678909 0.190734
0.120937 0.673788 0.187334
0.398963 0.665768 0.146460
0.574887 0.660084 0.019823
0.739884 0.663845 0.001403
0.888961 0.679966 0.001184
0.999067 0.701585 0.003007
0.000435 0.814417 0.335698
0.001511 0.813746 0.313947
0.001210 0.814943 0.293701
0.096206 0.808043 0.290657
0.401407 0.804046 0.285842
0.574744 0.795338 0.226654
0.717929 0.791317 0.101379
0.860112 0.796549 0.002889
0.989091 0.817163 0.000000
0.001200 0.913305 0.472088
0.005738 0.914099 0.457493
0.025363 0.915555 0.449574
0.311076 0.913044 0.446119
0.485249 0.910294 0.439063
0.623938 0.905598 0.429653
0.739663 0.903164 0.369584
0.848096 0.899676 0.267179
0.962878 0.907250 0.050004
0.488732 0.996509 0.661373
0.484493 0.999938 0.649282
0.514001 0.996934 0.643330
0.581156 0.999331 0.651527
0.659733 0.997505 0.651762
0.738689 0.994291 0.654178
0.813351 0.992563 0.646326
0.888189 0.993371 0.610318
0.966522 0.998184 0.550396
0.015694 0.008064 0.148254
0.066310 0.013697 0.141157
0.143293 0.027614 0.126820
0.271477 0.016594 0.118535
0.412255 0.002300 0.093761
0.552731 0.003006 0.075232
0.703014 0.002041 0.031545
0.851489 0.002919 0.000123
0.993889 0.000000 0.002174
0.001080 0.078244 0.167346
0.053116 0.085305 0.163344
0.162678 0.090421 0.147384
0.291619 0.077093 0.133708
0.430122 0.038693 0.111420
0.575579 0.000732 0.090699
0.716786 0.001214 0.037966
0.865576 0.001957 0.002047
0.996559 0.001528 0.001524
0.000214 0.181129 0.197636
0.014090 0.187283 0.190060
0.194810 0.187776 0.186515
0.342027 0.175640 0.171641
0.478044 0.157924 0.141075
0.611529 0.132223 0.107415
0.746129 0.105574 0.046348
0.887868 0.113060 0.002904
0.999834 0.191147 0.001865
0.002450 0.330623 0.239032
0.000494 0.336435 0.242170
0.181734 0.339381 0.219203
0.348043 0.331403 0.198361
0.510488 0.325418 0.157533
0.659113 0.317872 0.126301
0.789259 0.317067 0.048408
0.908948 0.334229 0.001027
0.998947 0.375827 0.003305
0.001278 0.518719 0.280056
0.001402 0.521083 0.276718
0.015567 0.521976 0.256896
0.294137 0.514260 0.240190
0.465855 0.506079 0.196230
0.638247 0.510375 0.121022
0.790838 0.520362 0.043209
0.925723 0.534297 0.000301
0.998833 0.549808 0.001007
0.001944 0.685748 0.335051
0.002247 0.686315 0.332277
0.002888 0.687017 0.298838
0.192342 0.680898 0.286369
0.428539 0.673243 0.264898
0.594398 0.667059 0.198232
0.756100 0.671372 0.059763
0.898626 0.682889 0.002779
0.998738 0.703989 0.001782
0.002230 0.814966 0.420987
0.006151 0.812784 0.416129
0.001474 0.815820 0.380756
0.157021 0.811710 0.362176
0.426365 0.804806 0.360527
0.588494 0.798585 0.321393
0.725785 0.794221 0.239130
0.866265 0.803004 0.054218
0.991013 0.820219 0.000946
0.076119 0.914472 0.531957
0.118918 0.915779 0.531031
0.154662 0.914721 0.500606
0.338397 0.913952 0.490130
0.502313 0.910632 0.489601
0.635019 0.905977 0.485311
0.743349 0.902016 0.429190
0.854026 0.900102 0.349065
0.967527 0.907563 0.211185
0.523079 0.995308 0.693352
0.531381 0.993503 0.688393
0.534376 0.995788 0.676632
0.589129 0.998317 0.672933
0.662407 0.996162 0.670166
0.743070 0.995248 0.678256
0.818697 0.995331 0.670500
0.891124 0.994810 0.636193
0.969391 0.997047 0.580696
0.000000 0.015686 0.284348
0.058000 0.010420 0.281112
0.187873 0.009161 0.268758
0.314478 0.001495 0.250360
0.454239 0.000929 0.240162
0.587285 0.000596 0.207187
0.713459 0.001584 0.166948
0.853036 0.002578 0.137395
0.996590 0.002033 0.047764
0.000187 0.080506 0.298366
0.057174 0.080457 0.299101
0.209226 0.076076 0.289566
0.337417 0.065331 0.270438
0.470191 0.023914 0.256275
0.594903 0.001655 0.220493
0.721249 0.000915 0.183251
0.867122 0.000513 0.144726
0.996014 0.001329 0.047440
0.000902 0.168379 0.321966
0.012165 0.172152 0.319209
0.230836 0.175379 0.324392
0.370452 0.179409 0.301450
0.498181 0.169764 0.285710
0.616369 0.143467 0.246635
0.743884 0.139070 0.217824
0.883534 0.124391 0.166711
1.000000 0.150848 0.044637
0.003083 0.323228 0.362297
0.004220 0.327168 0.365117
0.210940 0.337424 0.356068
0.398998 0.348315 0.351282
0.532352 0.343102 0.325263
0.659019 0.333910 0.293901
0.787412 0.331047 0.250872
0.907908 0.337856 0.183266
0.999671 0.363399 0.046650
0.001106 0.525265 0.398771
0.002188 0.525761 0.395134
0.113279 0.531534 0.392685
0.351867 0.537151 0.381407
0.510849 0.527870 0.353621
0.669721 0.530127 0.314269
0.811915 0.532737 0.286429
0.924713 0.535075 0.216927
0.998654 0.543182 0.069973
0.002972 0.686907 0.440982
0.003033 0.689357 0.439422
0.004099 0.692259 0.433548
0.289624 0.694133 0.414829
0.473086 0.686101 0.400478
0.624124 0.677846 0.355324
0.775642 0.681929 0.289466
0.910562 0.689094 0.250332
0.999764 0.700418 0.158577
0.001931 0.815582 0.499916
0.003495 0.815568 0.499739
0.032318 0.817225 0.496752
0.282072 0.817501 0.476745
0.465568 0.811140 0.463369
0.613057 0.802591 0.440047
0.740919 0.797849 0.378798
0.876020 0.802918 0.282555
0.994346 0.820585 0.220975
0.022728 0.915027 0.583251
0.124558 0.914279 0.588467
0.319821 0.913624 0.592889
0.394001 0.913846 0.568311
0.521709 0.912953 0.555939
0.648863 0.906078 0.555340
0.752854 0.902319 0.515252
0.859665 0.900572 0.444047
0.973538 0.910787 0.342507
0.504902 0.998096 0.721046
0.526405 0.998338 0.726438
0.579305 0.995366 0.727064
0.597165 0.998989 0.710011
0.662674 0.995707 0.706556
0.742569 0.995377 0.708960
0.817550 0.994340 0.707809
0.890309 0.995986 0.676991
0.973060 0.999050 0.623520
0.001007 0.001968 0.424667
0.072262 0.000841 0.426964
0.225334 0.002667 0.423237
0.371979 0.000378 0.411718
0.495537 0.003380 0.391617
0.629089 0.000629 0.383135
0.756401 0.004234 0.354153
0.886177 0.001751 0.308178
0.999054 0.000946 0.253006
0.002787 0.068903 0.442640
0.094170 0.062266 0.443179
0.243607 0.043491 0.439941
0.390048 0.016725 0.424055
0.508694 0.001024 0.405780
0.636399 0.001676 0.393142
0.765416 0.000507 0.366149
0.887925 0.002312 0.309541
0.995823 0.000607 0.262899
0.000000 0.165241 0.462635
0.108014 0.165587 0.463108
0.265659 0.161410 0.465338
0.417500 0.161121 0.453028
0.536070 0.165991 0.430798
0.655779 0.174438 0.419847
0.774978 0.132856 0.381434
0.891260 0.072264 0.326299
0.996430 0.155800 0.282337
0.002676 0.299011 0.487957
0.006106 0.303506 0.489048
0.226746 0.310088 0.486348
0.422052 0.333299 0.490436
0.560341 0.358343 0.475399
0.673605 0.362138 0.451383
0.784403 0.337936 0.405301
0.896006 0.341299 0.360842
0.997820 0.337608 0.285524
0.001549 0.508759 0.519027
0.004222 0.510809 0.517094
0.167391 0.519800 0.521055
0.376726 0.534905 0.520250
0.561222 0.556008 0.517105
0.688354 0.547906 0.489418
0.806070 0.534737 0.449314
0.914371 0.527851 0.390821
0.998474 0.524521 0.314201
0.001772 0.690447 0.558540
0.001967 0.692003 0.556375
0.012525 0.695209 0.549285
0.332941 0.700518 0.550196
0.528421 0.704210 0.543167
0.665177 0.695119 0.517385
0.803608 0.694530 0.475659
0.924536 0.695913 0.450185
0.997423 0.694178 0.379139
0.001530 0.815620 0.595490
0.004243 0.816468 0.595230
0.004991 0.816789 0.588774
0.333452 0.818111 0.586249
0.516647 0.817173 0.579944
0.648082 0.813738 0.566653
0.759667 0.803944 0.518952
0.888036 0.808278 0.452316
0.997291 0.819580 0.424305
0.003973 0.918615 0.647019
0.005583 0.919263 0.645833
0.201827 0.917316 0.649632
0.427748 0.914783 0.650804
0.552260 0.912792 0.642262
0.661891 0.909086 0.633785
0.764620 0.904216 0.610689
0.863018 0.901359 0.552181
0.983875 0.911928 0.465910
0.397979 0.996140 0.746170
0.434538 0.996979 0.748153
0.509910 0.999432 0.753681
0.608961 0.998365 0.762136
0.670685 0.997063 0.753929
0.743778 0.995243 0.748558
0.823143 0.995136 0.753365
0.890845 0.995981 0.726549
0.970719 0.998993 0.685318
0.057507 0.001507 0.573582
0.153015 0.000831 0.575939
0.281563 0.000154 0.577080
0.420821 0.000685 0.568715
0.562078 0.001089 0.558071
0.673705 0.002626 0.539556
0.798100 0.000758 0.529325
0.916367 0.003492 0.519416
0.995655 0.002415 0.473027
0.090280 0.028907 0.586986
0.172418 0.017010 0.586368
0.290913 0.001684 0.586933
0.435051 0.000384 0.582189
0.568339 0.002000 0.569187
0.683636 0.000537 0.549485
0.798239 0.002970 0.539167
0.919902 0.002140 0.524067
0.998845 0.001833 0.479422
0.116898 0.148628 0.599267
0.190210 0.145810 0.597197
0.310565 0.138745 0.601061
0.448260 0.128982 0.598736
0.591793 0.140012 0.589147
0.700722 0.151015 0.567484
0.810392 0.190206 0.558626
0.917725 0.196742 0.532994
0.997582 0.144896 0.481228
0.009317 0.280607 0.621653
0.116882 0.284529 0.622473
0.296585 0.299653 0.623286
0.451829 0.312964 0.624422
0.602064 0.342369 0.616853
0.712512 0.368418 0.597520
0.814062 0.396539 0.581027
0.915742 0.376442 0.544272
0.995689 0.335120 0.477985
0.000097 0.480207 0.638962
0.002284 0.483616 0.636167
0.195987 0.488726 0.638409
0.385609 0.499780 0.639511
0.579238 0.533316 0.642966
0.713461 0.564431 0.631008
0.808917 0.564486 0.608033
0.905864 0.530393 0.553551
0.998304 0.518820 0.497938
0.001572 0.671974 0.663518
0.001901 0.672804 0.663486
0.130342 0.677268 0.661686
0.362291 0.686065 0.663685
0.545735 0.700140 0.664752
0.710838 0.719220 0.667472
0.813938 0.708270 0.643537
0.911695 0.691532 0.597841
0.999106 0.676500 0.533173
0.001510 0.815691 0.696656
0.002702 0.818523 0.701160
0.036765 0.819148 0.691425
0.337618 0.819635 0.693094
0.530249 0.822370 0.691403
0.688188 0.822891 0.687346
0.789804 0.816551 0.660575
0.903838 0.816302 0.627691
0.998787 0.817416 0.609527
0.001158 0.919521 0.736096
0.003197 0.918655 0.735768
0.163086 0.917913 0.732754
0.370299 0.919156 0.729055
0.542181 0.916149 0.725308
0.684135 0.911320 0.723906
0.782318 0.910384 0.706830
0.872251 0.905451 0.670111
0.984279 0.913525 0.609210
0.256519 0.997543 0.798080
0.288298 0.998374 0.795503
0.374281 0.997151 0.795109
0.501290 0.998870 0.793819
0.652014 0.998755 0.805180
0.751140 0.997842 0.804949
0.820351 0.995362 0.802565
0.892995 0.996775 0.789223
0.969997 0.999474 0.760239
0.224526 0.002953 0.724067
0.274369 0.001036 0.729138
0.367651 0.000378 0.723915
0.492109 0.002633 0.722801
0.626549 0.000961 0.717617
0.751110 0.000950 0.707972
0.851213 0.002088 0.689173
0.936997 0.000436 0.669681
0.995537 0.096932 0.673530
0.239083 0.000985 0.730001
0.283105 0.000073 0.727797
0.374232 0.000877 0.728247
0.498385 0.001362 0.729354
0.633213 0.001211 0.722110
0.758433 0.000528 0.714048
0.856977 0.002350 0.696420
0.938458 0.007341 0.674552
0.996563 0.189822 0.675959
0.250526 0.117319 0.738626
0.295773 0.110095 0.738476
0.384636 0.095711 0.740654
0.506488 0.066109 0.738988
0.641379 0.073454 0.732373
0.762564 0.129427 0.724133
0.860359 0.161089 0.708725
0.936568 0.247544 0.684154
0.998770 0.320664 0.679924
0.217096 0.280099 0.748662
0.270446 0.280560 0.747708
0.370636 0.284227 0.747484
0.498688 0.291498 0.751529
0.637602 0.312430 0.746735
0.763744 0.362018 0.738709
0.855045 0.389012 0.720418
0.932842 0.434055 0.703277
0.998345 0.457734 0.682864
0.003781 0.455975 0.754818
0.061266 0.458375 0.757100
0.259577 0.459156 0.757467
0.439744 0.481816 0.758169
0.603487 0.503315 0.759932
0.747968 0.545112 0.752962
0.841180 0.572079 0.737760
0.916927 0.594111 0.720944
0.998898 0.577587 0.692417
0.002299 0.650949 0.765426
0.002895 0.654568 0.767248
0.151093 0.650837 0.765669
0.360318 0.655119 0.765895
0.534294 0.663720 0.767282
0.716847 0.694274 0.768631
0.830820 0.720034 0.763056
0.903912 0.722176 0.742302
0.996817 0.688455 0.694798
0.002993 0.798412 0.782377
0.003485 0.798316 0.782517
0.211202 0.799335 0.782767
0.389715 0.801579 0.785631
0.549625 0.808449 0.786227
0.696138 0.820714 0.792554
0.826818 0.836946 0.794306
0.908512 0.824230 0.771593
0.993233 0.811479 0.726177
0.009906 0.916235 0.829139
0.072222 0.918405 0.827363
0.253673 0.918630 0.825256
0.401504 0.916802 0.821784
0.539812 0.916535 0.818662
0.680239 0.916183 0.814020
0.804894 0.916576 0.810756
0.886980 0.910683 0.783651
0.994162 0.911291 0.757209
0.310120 0.997604 0.876702
0.338214 0.999105 0.878385
0.399952 0.998867 0.870739
0.488510 0.999605 0.868633
0.588688 0.998722 0.862251
0.705628 0.999900 0.857034
0.825880 0.997208 0.856373
0.900113 0.994519 0.855352
0.972099 0.997826 0.832039
0.380756 0.002991 0.860352
0.414115 0.000780 0.866106
0.483996 0.000114 0.860550
0.584917 0.001578 0.860605
0.700344 0.002611 0.855255
0.822814 0.000389 0.848159
0.920232 0.001244 0.839044
0.997441 0.000107 0.825038
1.000000 0.130356 0.802449
0.392147 0.000827 0.864601
0.417170 0.000929 0.858160
0.485562 0.000766 0.860619
0.586709 0.001970 0.860947
0.706751 0.000212 0.857580
0.824046 0.000418 0.857609
0.919432 0.000646 0.848500
0.990991 0.004898 0.826508
0.996969 0.219288 0.800615
0.390995 0.054872 0.865120
0.421794 0.045048 0.868497
0.490232 0.021066 0.864708
0.589004 0.003329 0.867246
0.705480 0.008272 0.864891
0.819435 0.086471 0.856646
0.916725 0.195059 0.844725
0.992010 0.237902 0.836358
0.996367 0.352792 0.806884
0.361515 0.265712 0.873766
0.394925 0.266570 0.866384
0.471126 0.266102 0.871361
0.573511 0.270002 0.871632
0.691818 0.282573 0.868840
0.810284 0.337339 0.862414
0.905385 0.404374 0.855762
0.975247 0.431319 0.837473
0.998835 0.493346 0.808557
0.225346 0.452480 0.874644
0.283289 0.457063 0.875139
0.392505 0.461431 0.872884
0.514806 0.466124 0.873254
0.653773 0.480224 0.872730
0.778754 0.517559 0.869070
0.882239 0.572516 0.861112
0.959837 0.588998 0.851141
0.999363 0.623352 0.825691
0.001858 0.636023 0.877825
0.014836 0.633831 0.877628
0.223469 0.634786 0.874899
0.404277 0.633927 0.873327
0.579961 0.648419 0.876744
0.736343 0.668776 0.875408
0.858058 0.705312 0.870713
0.934022 0.725978 0.857177
0.990562 0.746387 0.843305
0.004192 0.789959 0.885747
0.058161 0.789403 0.879992
0.245547 0.788567 0.883134
0.390868 0.788777 0.881636
0.534889 0.787568 0.879933
0.675530 0.790852 0.879386
0.827931 0.814317 0.882920
0.921672 0.839859 0.876307
0.982870 0.835671 0.862153
0.251221 0.902046 0.905094
0.288181 0.900731 0.898658
0.364977 0.901922 0.901292
0.465359 0.898538 0.897668
0.575619 0.901641 0.896761
0.691374 0.905577 0.896726
0.808190 0.912084 0.898985
0.920870 0.925879 0.906625
0.986473 0.909548 0.868496
0.402851 1.000000 0.950447
0.421476 0.999660 0.948147
0.464720 0.998466 0.946700
0.527953 0.999571 0.947480
0.612717 0.997581 0.944380
0.700567 0.999953 0.935902
0.796846 0.999486 0.928982
0.910212 0.999142 0.929053
0.988220 1.000000 0.910877
0.560791 0.003937 0.984314
0.580871 0.006851 0.990784
0.631149 0.000755 0.990418
0.708366 0.000526 0.983360
0.801025 0.001007 0.981399
0.900524 0.001507 0.979954
0.979859 0.008271 0.967865
0.999954 0.145629 0.967682
0.996063 0.223541 0.952942
0.560432 0.003433 0.989937
0.586427 0.003463 0.985890
0.631307 0.002678 0.986046
0.707107 0.004171 0.987368
0.801331 0.000442 0.983984
0.895729 0.001944 0.980089
0.983849 0.086256 0.971868
0.994432 0.229590 0.959845
0.999557 0.289646 0.953442
0.557617 0.012116 0.988983
0.576256 0.012034 0.987628
0.628511 0.002697 0.990658
0.699028 0.001626 0.988050
0.792400 0.004074 0.984470
0.888181 0.115599 0.979032
0.969979 0.282190 0.973559
0.997402 0.358760 0.962601
0.996605 0.399773 0.955871
0.529926 0.282307 0.992157
0.551494 0.281957 0.991255
0.603497 0.282398 0.989762
0.681697 0.280428 0.988601
0.775271 0.287586 0.988130
0.871435 0.349363 0.982282
0.949818 0.441058 0.974484
0.999798 0.498855 0.964492
0.998520 0.518642 0.957421
0.455032 0.485321 0.990204
0.479626 0.481041 0.990566
0.536938 0.476795 0.989464
0.627586 0.482723 0.988895
0.730972 0.489685 0.984322
0.836062 0.516128 0.983864
0.925053 0.579010 0.972904
0.994988 0.627439 0.963675
0.998993 0.637253 0.956802
0.345555 0.660339 0.990127
0.380056 0.661092 0.992442
0.448518 0.657163 0.987612
0.558479 0.661327 0.992595
0.662737 0.654078 0.987438
0.785409 0.665573 0.987757
0.892281 0.695841 0.979818
0.971295 0.739226 0.968738
0.999050 0.745197 0.962292
0.328209 0.807083 0.990303
0.352364 0.806425 0.989582
0.408339 0.802807 0.992338
0.490663 0.797066 0.991830
0.598911 0.791931 0.990723
0.724032 0.795140 0.988565
0.847582 0.802671 0.985913
0.949767 0.827953 0.977940
1.000000 0.841187 0.964691
0.437367 0.914700 0.999557
0.454937 0.911462 0.999903
0.488658 0.915888 0.999621
0.548946 0.910927 0.996897
0.626276 0.908180 0.999725
0.709812 0.906531 0.997013
0.802792 0.898421 0.990605
0.917578 0.908304 0.988390
1.000000 0.923046 0.981369
0.568634 0.992157 1.000000
0.580837 0.992157 0.996555
0.602928 0.989761 0.994873
0.639766 0.993622 0.999050
0.690262 0.996140 0.997162
0.763210 0.994705 1.000000
0.826462 0.997063 0.999016
0.914666 0.996964 1.000000
1.000000 1.000000 1.000000
