ml_luts/presetpro_portra_400__lut3d_33.cube
TITLE "Presetpro - Portra 400.jpg"
DOMAIN_MIN 0.000000 0.000000 0.000000
DOMAIN_MAX 1.000000 1.000000 1.000000
LUT_3D_SIZE 5
0.000000 0.000000 0.000000
0.135597 0.024284 0.000984
0.489120 0.002975 0.002914
0.817443 0.001739 0.000000
1.000000 0.176483 0.000000
0.000221 0.156853 0.033020
0.107889 0.188089 0.015615
0.527393 0.200669 0.000874
0.832851 0.205406 0.000982
0.999023 0.310791 0.000755
0.000946 0.455857 0.185318
0.030682 0.454925 0.204125
0.455498 0.501526 0.164131
0.831757 0.548687 0.005699
1.000000 0.540223 0.003845
0.090591 0.751740 0.375588
0.260620 0.748499 0.390333
0.476711 0.762817 0.402229
0.740240 0.795078 0.389717
0.991173 0.838790 0.367867
0.650970 0.952942 0.749023
0.678643 0.956093 0.757073
0.735352 0.955902 0.781342
0.819839 0.972466 0.780838
0.945099 0.984314 0.788239
0.001518 0.004906 0.163719
0.162853 0.007303 0.182655
0.497486 0.002216 0.182472
0.824342 0.091333 0.228091
0.997826 0.268410 0.260323
0.001797 0.201647 0.201614
0.198559 0.222388 0.225012
0.544971 0.236210 0.231687
0.836733 0.264238 0.235015
0.997465 0.361635 0.253491
0.159531 0.485130 0.322918
0.244974 0.487014 0.320076
0.510271 0.522785 0.316168
0.842703 0.545871 0.240363
0.999748 0.563202 0.229767
0.271717 0.758338 0.446680
0.356572 0.758134 0.463408
0.525215 0.765524 0.491210
0.752502 0.799295 0.479925
0.985300 0.839176 0.459263
0.662971 0.952713 0.762306
0.683929 0.953564 0.771463
0.741142 0.953541 0.790093
0.826813 0.967081 0.801029
0.944214 0.988983 0.807396
0.000000 0.055908 0.434265
0.150566 0.072662 0.456077
0.553284 0.084213 0.500336
0.790737 0.096619 0.465225
0.998993 0.224533 0.485276
0.000870 0.246658 0.452389
0.195877 0.245631 0.473969
0.577663 0.290209 0.520996
0.813045 0.288187 0.494164
0.997509 0.365513 0.501774
0.078270 0.506431 0.496147
0.309464 0.523102 0.516277
0.607319 0.569023 0.569813
0.843920 0.583151 0.561539
0.999497 0.624977 0.563721
0.452221 0.775383 0.627743
0.529049 0.777561 0.646120
0.623865 0.783104 0.656794
0.784027 0.809903 0.669036
0.987400 0.829831 0.626797
0.700881 0.954895 0.818588
0.711799 0.956756 0.816414
0.756828 0.958351 0.821670
0.836632 0.969452 0.842461
0.955979 0.988220 0.846176
0.002937 0.166679 0.726486
0.172341 0.180509 0.737667
0.583420 0.223938 0.775120
0.857926 0.311693 0.806669
1.000000 0.374504 0.774513
0.001282 0.283125 0.731300
0.216491 0.296833 0.741357
0.591054 0.345190 0.777452
0.854400 0.430567 0.807705
0.993919 0.467274 0.775814
0.002003 0.500538 0.711525
0.196956 0.507578 0.723357
0.570185 0.546305 0.777554
0.837883 0.650862 0.817531
0.977512 0.648418 0.793362
0.287843 0.776939 0.768211
0.399239 0.778268 0.776323
0.612203 0.791628 0.798587
0.829295 0.830973 0.839654
0.983147 0.834517 0.830429
0.676468 0.968414 0.878212
0.705904 0.966003 0.878101
0.778038 0.969696 0.886898
0.857418 0.974070 0.898571
0.972534 0.992157 0.901520
0.482361 0.450989 0.980377
0.557404 0.469826 0.970581
0.727386 0.520553 0.975464
0.895325 0.619392 0.977013
1.000000 0.686279 0.980377
0.484756 0.521782 0.974732
0.558529 0.535499 0.971727
0.726425 0.580341 0.974518
0.889380 0.665109 0.975868
1.000000 0.719162 0.971344
0.477280 0.675385 0.968567
0.533207 0.668629 0.972984
0.694184 0.685700 0.973976
0.873543 0.749866 0.976154
0.998993 0.792160 0.981339
0.404908 0.844139 0.969383
0.455939 0.839415 0.971218
0.589351 0.829121 0.971153
0.822935 0.837665 0.982553
0.997047 0.882118 0.982674
0.623535 1.000000 0.992157
0.644882 0.997047 0.989983
0.710815 1.000000 0.993164
0.824296 0.999245 0.992378
1.000000 1.000000 1.000000
