ml_luts/presetpro_portrait_160__lut3d_33.cube
TITLE "Presetpro - Portrait 160.jpg"
DOMAIN_MIN 0.000000 0.000000 0.000000
DOMAIN_MAX 1.000000 1.000000 1.000000
LUT_3D_SIZE 9
0.000000 0.000000 0.000000
0.062584 0.006984 0.001510
0.141052 0.024857 0.006714
0.260472 0.019657 0.012615
0.431778 0.000808 0.009353
0.606270 0.001518 0.006649
0.757843 0.001739 0.000000
0.883461 0.005092 0.000709
0.987457 0.172546 0.000000
0.000374 0.068462 0.020760
0.046382 0.080505 0.011367
0.153802 0.083476 0.007091
0.281368 0.078194 0.009398
0.445322 0.039660 0.007839
0.617520 0.026448 0.001850
0.767461 0.027041 0.001757
0.889956 0.106245 0.001202
0.992965 0.226803 0.000000
0.002350 0.159974 0.043304
0.030180 0.163576 0.046063
0.110073 0.187755 0.018103
0.311418 0.200720 0.002532
0.485733 0.169323 0.000572
0.645737 0.157729 0.000909
0.781965 0.177586 0.002042
0.892854 0.241692 0.000666
0.991798 0.318840 0.000770
0.000000 0.293061 0.075333
0.027997 0.292139 0.077725
0.049995 0.309544 0.064421
0.256390 0.347377 0.003266
0.516287 0.373455 0.001133
0.671259 0.343450 0.001344
0.794481 0.342093 0.001120
0.899562 0.379675 0.002423
0.993713 0.427929 0.002720
0.000763 0.449097 0.121597
0.027512 0.448856 0.127461
0.051933 0.448399 0.128140
0.160637 0.478588 0.082766
0.448288 0.509468 0.001282
0.682720 0.547899 0.002548
0.798157 0.533153 0.000000
0.903210 0.521078 0.002360
0.996048 0.543930 0.000000
0.001522 0.596390 0.192944
0.026881 0.595179 0.196081
0.053576 0.596151 0.200343
0.180429 0.605594 0.186256
0.419113 0.630648 0.138002
0.619236 0.654800 0.029466
0.795415 0.686527 0.000384
0.893911 0.679347 0.000328
0.998066 0.673745 0.002277
0.020966 0.727700 0.300568
0.065111 0.726171 0.301864
0.203817 0.724768 0.305904
0.324200 0.724452 0.309906
0.456161 0.738823 0.286675
0.596902 0.755969 0.245182
0.734722 0.772785 0.178408
0.886917 0.799888 0.026250
0.995552 0.798638 0.000008
0.318149 0.838485 0.427948
0.345846 0.838169 0.427996
0.399137 0.839830 0.433694
0.465103 0.838427 0.436294
0.531437 0.842937 0.432465
0.615265 0.858668 0.410404
0.716548 0.871678 0.379927
0.830875 0.883352 0.325654
0.972362 0.906323 0.233620
0.470581 0.952942 0.558411
0.501438 0.953289 0.561550
0.537567 0.953911 0.564270
0.582451 0.955319 0.574562
0.630295 0.957641 0.576447
0.681499 0.967838 0.568264
0.747993 0.978218 0.553116
0.828804 0.993016 0.532150
0.934113 0.996857 0.492554
0.002788 0.009071 0.074097
0.058009 0.015896 0.071901
0.138604 0.024568 0.076602
0.267687 0.025959 0.082417
0.433367 0.002847 0.090388
0.612163 0.001615 0.090820
0.762615 0.001159 0.081358
0.890728 0.035343 0.074620
0.990188 0.187790 0.066860
0.000000 0.079901 0.083703
0.048456 0.083149 0.083846
0.151340 0.089301 0.087027
0.283243 0.090397 0.088020
0.450179 0.063454 0.089736
0.622669 0.027396 0.083799
0.766602 0.030067 0.076115
0.886319 0.136277 0.065468
0.990489 0.245608 0.056624
0.000560 0.174350 0.112218
0.025785 0.175149 0.111345
0.131295 0.194497 0.094740
0.317830 0.197203 0.081766
0.489323 0.179199 0.072746
0.646851 0.172671 0.065238
0.778239 0.196964 0.049040
0.893016 0.252323 0.030259
0.990803 0.328123 0.029259
0.000465 0.307648 0.138330
0.025616 0.306728 0.136952
0.051177 0.316828 0.136619
0.277276 0.351160 0.088286
0.522262 0.369388 0.027007
0.672955 0.341164 0.027061
0.797119 0.347156 0.027483
0.899915 0.384564 0.026228
0.992141 0.433068 0.027311
0.001854 0.458765 0.181457
0.025917 0.459187 0.184327
0.051690 0.456235 0.187408
0.208002 0.482460 0.159230
0.462379 0.514079 0.080376
0.684763 0.547295 0.026614
0.799456 0.529970 0.026928
0.903244 0.520176 0.027442
0.993557 0.541868 0.026279
0.001442 0.604090 0.251305
0.027009 0.602546 0.250565
0.052945 0.600302 0.257130
0.234912 0.607765 0.250451
0.432885 0.631272 0.209996
0.623475 0.654450 0.138204
0.797107 0.687634 0.026810
0.894999 0.679210 0.025547
0.996689 0.670040 0.025119
0.068541 0.730980 0.346568
0.139526 0.729659 0.347979
0.245281 0.728282 0.350449
0.351564 0.726142 0.354214
0.466136 0.738911 0.333667
0.601799 0.756558 0.301962
0.739120 0.773258 0.244862
0.886868 0.802533 0.132466
0.995082 0.801553 0.079906
0.327791 0.838949 0.464459
0.366691 0.839288 0.461368
0.416339 0.838995 0.468713
0.473988 0.839223 0.476502
0.539138 0.843229 0.473227
0.619438 0.855800 0.452893
0.717833 0.870309 0.420041
0.829395 0.883945 0.370129
0.971325 0.903711 0.290822
0.473724 0.955364 0.588596
0.500113 0.955997 0.590351
0.540801 0.953662 0.595001
0.583450 0.956000 0.598282
0.634180 0.958271 0.602264
0.684777 0.965548 0.598203
0.747262 0.975666 0.584536
0.829436 0.987442 0.558534
0.932121 0.997242 0.524204
0.001739 0.021347 0.175911
0.046079 0.026626 0.171886
0.146782 0.037005 0.178852
0.274675 0.030899 0.171757
0.456250 0.001144 0.172336
0.624693 0.000977 0.180871
0.761778 0.008815 0.207035
0.881670 0.112354 0.209147
0.986053 0.213142 0.220009
0.000534 0.088469 0.184992
0.043351 0.096559 0.189654
0.155181 0.103644 0.190950
0.292352 0.099313 0.187899
0.466064 0.058915 0.185218
0.626391 0.068398 0.199707
0.766364 0.111668 0.208424
0.886002 0.176811 0.210439
0.981287 0.265448 0.214822
0.002659 0.187395 0.194460
0.026120 0.194368 0.200343
0.159660 0.204586 0.206446
0.325244 0.206469 0.209147
0.489842 0.206132 0.205213
0.647775 0.207724 0.204489
0.781429 0.228103 0.205879
0.891029 0.278064 0.203966
0.987881 0.342881 0.210949
0.001344 0.327368 0.238766
0.039191 0.332514 0.244142
0.154115 0.333429 0.243552
0.320803 0.359502 0.223195
0.532389 0.361588 0.197584
0.676671 0.345186 0.191438
0.794784 0.362792 0.186366
0.894301 0.397208 0.185672
0.987906 0.441663 0.194876
0.012638 0.479523 0.298538
0.042507 0.478292 0.291359
0.133391 0.478083 0.285735
0.283916 0.488660 0.277683
0.487856 0.520014 0.236914
0.686850 0.543379 0.190536
0.801230 0.523915 0.169575
0.900473 0.521427 0.153503
0.993782 0.549389 0.168144
0.045564 0.615961 0.347744
0.087157 0.614135 0.343929
0.192694 0.613369 0.341133
0.317714 0.611264 0.347862
0.460502 0.632956 0.321426
0.635901 0.656749 0.280172
0.795768 0.685725 0.219704
0.894072 0.676558 0.190887
0.995552 0.668078 0.163769
0.212229 0.734701 0.422806
0.247896 0.733611 0.418531
0.315925 0.732311 0.423933
0.398106 0.729817 0.424646
0.491851 0.738418 0.416730
0.609702 0.756616 0.393169
0.740941 0.774556 0.351021
0.884369 0.803769 0.289965
0.992283 0.800005 0.263121
0.358623 0.842869 0.515709
0.393769 0.840756 0.516910
0.436911 0.842062 0.516925
0.493623 0.842082 0.522439
0.555171 0.843241 0.526377
0.628838 0.856305 0.510112
0.723143 0.871562 0.485145
0.833385 0.884956 0.446338
0.976189 0.907109 0.385250
0.480606 0.956680 0.623497
0.509811 0.958537 0.627746
0.545370 0.956074 0.632466
0.590191 0.956869 0.631644
0.640965 0.957237 0.638806
0.691283 0.967301 0.635984
0.756765 0.976742 0.626524
0.835716 0.987468 0.604625
0.937675 0.995727 0.573547
0.000000 0.040394 0.315414
0.025820 0.043076 0.318201
0.161653 0.051549 0.325670
0.322588 0.048345 0.333772
0.471502 0.007101 0.319399
0.647183 0.001857 0.318949
0.785378 0.000647 0.314013
0.897750 0.027497 0.318233
0.983784 0.223553 0.361160
0.002708 0.106083 0.328038
0.025044 0.111781 0.329057
0.175972 0.120921 0.336139
0.333903 0.121763 0.341670
0.482476 0.104271 0.330485
0.650113 0.062947 0.324859
0.786171 0.040930 0.318648
0.893174 0.159677 0.334540
0.978544 0.291025 0.371671
0.001472 0.202673 0.340965
0.026822 0.207471 0.345907
0.181304 0.220095 0.349296
0.351853 0.233720 0.357565
0.506946 0.230447 0.348994
0.662285 0.219257 0.343243
0.784756 0.243428 0.346623
0.882070 0.310314 0.361564
0.978603 0.369702 0.372074
0.000548 0.344745 0.354542
0.025999 0.349824 0.357220
0.196378 0.359141 0.367442
0.370089 0.371132 0.376351
0.532959 0.369618 0.371941
0.668246 0.378736 0.368187
0.785122 0.392852 0.364315
0.887062 0.420887 0.361975
0.976622 0.457542 0.367063
0.067026 0.500460 0.398460
0.171233 0.501374 0.403175
0.296015 0.504162 0.414884
0.385393 0.505499 0.414556
0.525305 0.528898 0.395184
0.689002 0.532770 0.372247
0.798344 0.520165 0.356995
0.893172 0.533430 0.354524
0.984284 0.557381 0.364298
0.267070 0.630378 0.469044
0.313566 0.630450 0.472695
0.360551 0.630498 0.465220
0.412672 0.628691 0.456250
0.507651 0.637527 0.451251
0.649062 0.662408 0.424223
0.793496 0.682008 0.392897
0.891402 0.667490 0.369418
0.992920 0.660703 0.349456
0.351113 0.739811 0.527770
0.378283 0.742194 0.520877
0.408030 0.740773 0.515579
0.460258 0.739550 0.512447
0.531079 0.738859 0.512334
0.624684 0.756792 0.496886
0.746152 0.775979 0.472410
0.883493 0.803093 0.432493
0.990182 0.795227 0.408641
0.417870 0.844800 0.584884
0.444978 0.847379 0.586764
0.475297 0.845239 0.584518
0.522168 0.847213 0.582548
0.579078 0.843895 0.586654
0.643556 0.854607 0.583343
0.728400 0.870309 0.562985
0.834442 0.884811 0.531405
0.978983 0.910007 0.488061
0.498096 0.957699 0.669155
0.529845 0.956434 0.669116
0.559279 0.958757 0.669610
0.600157 0.960845 0.675296
0.646925 0.959085 0.676203
0.702068 0.965375 0.678109
0.760285 0.976074 0.670519
0.841264 0.987403 0.653738
0.942352 0.997292 0.627136
0.001526 0.062789 0.480332
0.025932 0.065683 0.481667
0.182217 0.068874 0.486885
0.377813 0.074737 0.499191
0.539497 0.063881 0.507019
0.657804 0.043163 0.486483
0.793083 0.087193 0.485428
0.902319 0.140993 0.482697
0.992203 0.206360 0.481140
0.000374 0.128889 0.487425
0.027921 0.131272 0.490824
0.204634 0.137499 0.494765
0.386944 0.150211 0.503514
0.548063 0.152893 0.512679
0.659492 0.147217 0.492168
0.796978 0.176485 0.488360
0.897439 0.210067 0.488036
0.992161 0.258116 0.486599
0.000660 0.226536 0.494553
0.026271 0.231925 0.501159
0.219732 0.242140 0.505413
0.402802 0.261609 0.513043
0.555254 0.278053 0.521290
0.668673 0.276558 0.504319
0.793589 0.297090 0.502705
0.894621 0.310765 0.494471
0.988957 0.346890 0.493946
0.000883 0.358713 0.498316
0.027192 0.362857 0.506878
0.195240 0.369184 0.508104
0.405232 0.389263 0.523793
0.559899 0.412674 0.533544
0.676746 0.415421 0.524662
0.791036 0.415653 0.515047
0.885546 0.430872 0.503941
0.970274 0.474806 0.517675
0.022224 0.512573 0.515724
0.126590 0.514852 0.518106
0.282545 0.519692 0.524479
0.428484 0.527814 0.535959
0.560986 0.539608 0.543739
0.681831 0.538092 0.536776
0.781061 0.542713 0.529179
0.876932 0.551424 0.523820
0.971405 0.572235 0.521637
0.276117 0.645914 0.557537
0.328431 0.645763 0.555406
0.405020 0.648785 0.564023
0.500115 0.648212 0.573694
0.567165 0.648192 0.571176
0.666305 0.667719 0.563574
0.790919 0.670025 0.537315
0.885034 0.658876 0.518345
0.984367 0.665936 0.517408
0.400467 0.751152 0.611515
0.438524 0.752280 0.611494
0.488801 0.750403 0.616538
0.539467 0.752770 0.613924
0.579739 0.750248 0.606367
0.648723 0.758484 0.599263
0.752416 0.779162 0.583496
0.881957 0.797682 0.560099
0.988976 0.786697 0.538376
0.472914 0.852688 0.665539
0.503211 0.851169 0.665703
0.533414 0.851683 0.662841
0.563361 0.852286 0.657341
0.604719 0.850842 0.651238
0.662681 0.852708 0.652300
0.733622 0.870617 0.640277
0.838588 0.887045 0.620167
0.983481 0.910296 0.591707
0.531815 0.959213 0.723495
0.554933 0.960346 0.724998
0.584457 0.961864 0.719555
0.615337 0.963774 0.719141
0.660339 0.963127 0.722717
0.713379 0.966381 0.728109
0.772762 0.974285 0.721813
0.845945 0.987699 0.710728
0.945953 0.996094 0.686676
0.000763 0.091061 0.630131
0.053949 0.091918 0.633530
0.260565 0.093842 0.634084
0.435821 0.102641 0.642424
0.594397 0.141905 0.651341
0.711696 0.167992 0.657203
0.792707 0.179312 0.634652
0.896956 0.245968 0.634787
0.985832 0.313347 0.637951
0.001540 0.158225 0.633772
0.098903 0.159889 0.634601
0.277588 0.165315 0.639259
0.446364 0.178551 0.646450
0.597778 0.214439 0.654311
0.716269 0.239232 0.658617
0.793484 0.249431 0.638275
0.893448 0.302459 0.636275
0.982724 0.360403 0.638220
0.008827 0.259344 0.640099
0.123529 0.262322 0.639108
0.291103 0.270641 0.642037
0.454566 0.288958 0.649078
0.599199 0.324030 0.655540
0.712271 0.350736 0.662025
0.790633 0.355786 0.644855
0.886908 0.393740 0.645421
0.977694 0.426274 0.644900
0.001717 0.381295 0.636889
0.071474 0.385100 0.637699
0.282419 0.394416 0.645108
0.452609 0.413223 0.652361
0.596716 0.445147 0.660879
0.704265 0.472068 0.668471
0.785201 0.472702 0.653785
0.879541 0.495191 0.652277
0.973718 0.504722 0.647699
0.030088 0.524115 0.641340
0.142661 0.524749 0.641412
0.285473 0.527219 0.644878
0.430627 0.533364 0.650327
0.582995 0.554446 0.663902
0.696532 0.581056 0.674273
0.782357 0.581663 0.664270
0.877257 0.579903 0.654114
0.969673 0.583532 0.646389
0.257003 0.652489 0.655231
0.309628 0.653702 0.654505
0.392525 0.655880 0.659137
0.489899 0.659389 0.663064
0.591578 0.666337 0.669952
0.687069 0.675651 0.677842
0.780214 0.674116 0.668435
0.870712 0.675004 0.660122
0.967142 0.680236 0.657210
0.403413 0.762780 0.683958
0.441604 0.764190 0.685740
0.494653 0.763511 0.688004
0.557395 0.765940 0.691655
0.629864 0.767244 0.699252
0.685431 0.765566 0.694468
0.765519 0.785149 0.693171
0.879510 0.787609 0.671156
0.988233 0.774504 0.653910
0.481214 0.859857 0.726464
0.511968 0.860894 0.724792
0.551808 0.862135 0.728851
0.603310 0.860637 0.731387
0.651829 0.862381 0.732018
0.690171 0.860745 0.724052
0.752027 0.870912 0.719684
0.849178 0.888164 0.708711
0.985160 0.907653 0.688190
0.551777 0.963211 0.779510
0.583515 0.965014 0.780086
0.619535 0.963693 0.781670
0.653285 0.965650 0.780443
0.686836 0.967573 0.775600
0.730054 0.969410 0.772638
0.787208 0.973111 0.776153
0.856729 0.986850 0.763919
0.956078 0.997612 0.751351
0.198716 0.135330 0.758629
0.268822 0.140319 0.756926
0.383179 0.150505 0.761168
0.516075 0.168904 0.763727
0.638286 0.214706 0.768265
0.744164 0.286068 0.775834
0.829658 0.316460 0.772257
0.889325 0.320765 0.757961
0.977073 0.381783 0.759407
0.215649 0.202466 0.759917
0.283470 0.206268 0.760719
0.392314 0.215772 0.759780
0.518356 0.235549 0.762819
0.639372 0.277761 0.768718
0.741218 0.341718 0.773211
0.824519 0.370547 0.775655
0.884281 0.372029 0.756489
0.973588 0.425792 0.755139
0.226082 0.305273 0.760202
0.295194 0.307845 0.760550
0.398433 0.317141 0.762103
0.520953 0.336653 0.764159
0.637140 0.372689 0.768376
0.737042 0.426765 0.772531
0.817065 0.450952 0.777539
0.882612 0.449101 0.758812
0.968717 0.491241 0.759108
0.206138 0.420365 0.758416
0.278675 0.423381 0.758256
0.390644 0.432819 0.759995
0.512317 0.450754 0.764226
0.629378 0.480334 0.768376
0.729568 0.522284 0.774273
0.808327 0.543852 0.777427
0.874115 0.539447 0.763738
0.964381 0.564361 0.763491
0.152275 0.537228 0.751263
0.228574 0.540612 0.751838
0.348435 0.542373 0.754560
0.487920 0.554145 0.759825
0.612690 0.577141 0.768635
0.719314 0.608668 0.775562
0.799524 0.631276 0.779955
0.868956 0.627798 0.768424
0.964672 0.639866 0.771446
0.272656 0.660415 0.756470
0.321869 0.661527 0.756739
0.394488 0.662528 0.757388
0.483993 0.663057 0.760474
0.584662 0.664379 0.762945
0.698262 0.689065 0.775577
0.795307 0.712482 0.783487
0.871823 0.711617 0.775542
0.963680 0.709306 0.766900
0.382832 0.767608 0.766323
0.421295 0.768717 0.767906
0.474904 0.769187 0.766891
0.541292 0.771225 0.767687
0.617903 0.775692 0.773183
0.701981 0.780501 0.778940
0.784240 0.791249 0.787687
0.872833 0.786222 0.775303
0.976847 0.783321 0.766888
0.476175 0.871593 0.789929
0.513648 0.868989 0.789177
0.553667 0.871622 0.790852
0.604209 0.872929 0.793276
0.661595 0.874348 0.796710
0.730161 0.875433 0.802486
0.783674 0.874459 0.796631
0.864031 0.890523 0.797276
0.986442 0.895402 0.779667
0.551972 0.969238 0.828857
0.580277 0.970110 0.830003
0.616901 0.971203 0.828968
0.661717 0.972495 0.828872
0.715370 0.971798 0.834015
0.767267 0.976760 0.838107
0.808520 0.977505 0.832466
0.875487 0.985489 0.827685
0.968094 0.999039 0.817467
0.384434 0.234516 0.862926
0.435504 0.240516 0.863269
0.501434 0.255815 0.862692
0.591008 0.282827 0.862022
0.679716 0.321558 0.866194
0.765867 0.378065 0.867785
0.842130 0.438376 0.866235
0.913364 0.453700 0.868110
0.971222 0.445744 0.854549
0.389092 0.294239 0.864751
0.434372 0.300010 0.864191
0.506092 0.310901 0.864700
0.592989 0.334663 0.864332
0.677918 0.373884 0.863660
0.761526 0.424973 0.865646
0.839836 0.479804 0.866720
0.906232 0.490984 0.866895
0.973595 0.487548 0.854444
0.389879 0.384945 0.862078
0.434441 0.387296 0.863079
0.505303 0.397337 0.863119
0.587575 0.418343 0.861699
0.675691 0.450064 0.864121
0.757017 0.491989 0.866458
0.834840 0.537080 0.868900
0.906003 0.547423 0.866930
0.970293 0.541248 0.855510
0.377771 0.480376 0.860481
0.424946 0.483828 0.860995
0.494914 0.494630 0.861123
0.580054 0.510057 0.862126
0.668427 0.534726 0.863712
0.751132 0.567301 0.864379
0.829261 0.604742 0.867595
0.903162 0.610538 0.869542
0.963094 0.603879 0.855403
0.344108 0.577229 0.856686
0.391886 0.577957 0.855276
0.464700 0.584027 0.857064
0.556855 0.595542 0.861425
0.652308 0.614608 0.863555
0.742020 0.639243 0.864914
0.824063 0.670773 0.870403
0.900288 0.682774 0.872989
0.960613 0.674847 0.859272
0.326109 0.676587 0.855392
0.367727 0.676526 0.854494
0.427000 0.676074 0.852912
0.514100 0.676793 0.855739
0.616841 0.688065 0.860465
0.720939 0.709304 0.867121
0.818579 0.737065 0.872477
0.896325 0.754213 0.873250
0.966521 0.748960 0.865267
0.396182 0.779711 0.855121
0.430339 0.780503 0.855271
0.478223 0.781862 0.857647
0.537827 0.780561 0.858690
0.611175 0.780673 0.858749
0.689604 0.781850 0.858730
0.796455 0.801661 0.870428
0.896433 0.824212 0.879691
0.977162 0.821128 0.868542
0.454059 0.876150 0.862000
0.490595 0.876983 0.864865
0.533859 0.879215 0.863468
0.585618 0.879083 0.863525
0.648144 0.881023 0.866116
0.719612 0.884444 0.869140
0.800807 0.888697 0.869680
0.891578 0.895306 0.876686
0.985791 0.889833 0.870200
0.550667 0.977642 0.884414
0.577196 0.977343 0.883508
0.617141 0.979416 0.883734
0.661248 0.977126 0.882602
0.715239 0.981705 0.887657
0.778633 0.981762 0.891226
0.844830 0.984468 0.895675
0.904539 0.987429 0.894454
0.981964 0.999272 0.888317
0.520782 0.417267 0.952942
0.557564 0.420697 0.953690
0.601524 0.436241 0.954682
0.661343 0.449825 0.953800
0.726685 0.473022 0.955368
0.793209 0.501160 0.952152
0.861801 0.531761 0.946236
0.934559 0.567501 0.951794
1.000000 0.567841 0.946655
0.521492 0.458275 0.953682
0.558303 0.463506 0.954300
0.605685 0.472333 0.953531
0.659143 0.487787 0.952930
0.722505 0.510959 0.951143
0.791499 0.538490 0.951803
0.863036 0.566010 0.952148
0.934859 0.594033 0.947947
1.000000 0.598362 0.949406
0.520599 0.519791 0.950592
0.553700 0.522846 0.955040
0.603573 0.528904 0.955601
0.659219 0.542395 0.953841
0.723381 0.560867 0.952759
0.789768 0.583122 0.950637
0.863672 0.611374 0.951387
0.934300 0.636735 0.948379
0.999390 0.639008 0.948410
0.512085 0.585976 0.951740
0.547974 0.589364 0.954799
0.596120 0.595491 0.955320
0.652164 0.604898 0.955515
0.714960 0.619007 0.952774
0.785643 0.638958 0.950729
0.858894 0.659367 0.949742
0.931754 0.683908 0.949234
1.000000 0.686336 0.949382
0.490921 0.651337 0.952179
0.526112 0.654564 0.952650
0.574837 0.658672 0.953678
0.635214 0.666885 0.951797
0.706268 0.677681 0.954132
0.779849 0.694096 0.950647
0.856529 0.714024 0.952686
0.930338 0.735497 0.949171
1.000000 0.740753 0.953003
0.457291 0.723858 0.953358
0.493881 0.725147 0.953108
0.541969 0.727261 0.952865
0.605111 0.729809 0.953912
0.679571 0.737932 0.955067
0.765197 0.752240 0.954310
0.850620 0.771273 0.953357
0.928652 0.791941 0.953729
0.998043 0.796799 0.951835
0.463173 0.813164 0.957733
0.495152 0.813713 0.955375
0.532942 0.813105 0.955986
0.579277 0.810952 0.956825
0.645039 0.809136 0.954651
0.730755 0.815069 0.955819
0.832279 0.828304 0.959318
0.927797 0.850322 0.955469
0.998787 0.858849 0.953293
0.501641 0.906807 0.953682
0.527207 0.906509 0.953116
0.564240 0.906360 0.953894
0.611510 0.906183 0.956529
0.665451 0.902775 0.958626
0.728965 0.903009 0.958480
0.801156 0.900583 0.955201
0.913499 0.908488 0.963057
0.999645 0.929077 0.957180
0.549011 0.990570 0.959198
0.579494 0.993713 0.955692
0.614678 0.994843 0.956261
0.658970 0.992195 0.956913
0.708619 0.995331 0.956894
0.768959 0.996113 0.958122
0.837830 0.996064 0.960000
0.919350 0.999195 0.962349
1.000000 1.000000 0.962341
