ml_luts/presetpro_polaroid_color__lut3d_33.cube
TITLE "Presetpro - Polaroid Color.jpg"
DOMAIN_MIN 0.000000 0.000000 0.000000
DOMAIN_MAX 1.000000 1.000000 1.000000
LUT_3D_SIZE 9
0.003937 0.070587 0.039215
0.031326 0.071484 0.035355
0.156097 0.070595 0.037926
0.288224 0.044056 0.031368
0.437240 0.001968 0.025482
0.580872 0.000000 0.010300
0.727241 0.002953 0.000000
0.868149 0.000442 0.001339
0.984314 0.000000 0.000000
0.000000 0.120201 0.039181
0.026703 0.127668 0.032145
0.175364 0.126136 0.032808
0.319101 0.110414 0.032518
0.462233 0.074225 0.018368
0.607785 0.010545 0.007940
0.746823 0.000083 0.000540
0.879883 0.001217 0.000000
0.996460 0.101597 0.006474
0.000000 0.207070 0.043816
0.002816 0.214381 0.035602
0.174774 0.231592 0.008825
0.342906 0.230788 0.002483
0.510418 0.225956 0.001629
0.660570 0.217309 0.002049
0.785347 0.214241 0.003136
0.905523 0.234471 0.001282
0.996063 0.295525 0.000763
0.003540 0.317562 0.029877
0.000835 0.325800 0.021071
0.164643 0.339498 0.000000
0.339657 0.356850 0.001159
0.515629 0.371567 0.001017
0.679078 0.392669 0.001697
0.819754 0.431604 0.002296
0.922660 0.458147 0.000513
0.997585 0.486221 0.000000
0.001007 0.446045 0.003921
0.004438 0.444836 0.001057
0.179623 0.459598 0.004280
0.333424 0.482336 0.002112
0.500443 0.509842 0.000503
0.662249 0.542269 0.001843
0.806473 0.583038 0.001385
0.923500 0.616026 0.004488
0.998993 0.639160 0.002914
0.001476 0.586254 0.001904
0.072341 0.584161 0.000000
0.216136 0.595545 0.000798
0.354156 0.614044 0.001120
0.504704 0.639053 0.001183
0.646253 0.666805 0.002219
0.784917 0.687952 0.000283
0.914349 0.708654 0.001019
1.000000 0.716083 0.000526
0.210670 0.725173 0.000763
0.255285 0.721780 0.003005
0.334793 0.725576 0.000513
0.439974 0.732627 0.000270
0.559086 0.742149 0.000000
0.683356 0.751487 0.000460
0.802296 0.762910 0.000412
0.914652 0.773210 0.002174
0.999779 0.781609 0.000763
0.450630 0.816174 0.000000
0.469536 0.814066 0.000389
0.512956 0.815822 0.001343
0.583506 0.817800 0.001738
0.663210 0.820891 0.000481
0.755240 0.828006 0.000338
0.846720 0.841096 0.000534
0.940202 0.849406 0.000386
0.997009 0.863770 0.003445
0.607849 0.933319 0.000000
0.626556 0.936813 0.000000
0.656090 0.935082 0.000755
0.695118 0.940609 0.001507
0.748016 0.947998 0.000000
0.811310 0.956848 0.000000
0.885742 0.970810 0.000000
0.962261 0.980823 0.000000
0.996063 0.992157 0.007843
0.003540 0.074070 0.121032
0.010275 0.078827 0.119412
0.144149 0.083722 0.107857
0.283585 0.065033 0.106148
0.431292 0.011028 0.096229
0.578427 0.000378 0.084913
0.716240 0.000352 0.061198
0.856019 0.000095 0.017050
0.989059 0.003445 0.000881
0.000013 0.124761 0.120508
0.012308 0.129228 0.130613
0.166240 0.133024 0.120585
0.313487 0.121416 0.110590
0.456826 0.092254 0.103021
0.601969 0.032952 0.083322
0.742433 0.002043 0.058948
0.872131 0.002888 0.006079
0.989677 0.080954 0.001111
0.000679 0.219653 0.128907
0.005133 0.221153 0.125204
0.182729 0.233802 0.106686
0.346783 0.237710 0.107356
0.510983 0.236422 0.104151
0.650069 0.217232 0.079455
0.778987 0.212142 0.035135
0.901408 0.233695 0.000585
0.999677 0.284183 0.002531
0.004056 0.332056 0.118252
0.005920 0.333746 0.115123
0.180934 0.345518 0.098714
0.349228 0.364570 0.049572
0.523049 0.378587 0.017137
0.684543 0.399167 0.011966
0.821757 0.434277 0.001908
0.919199 0.454780 0.004406
0.999238 0.478416 0.002825
0.000976 0.455957 0.092707
0.032595 0.454410 0.088990
0.192893 0.464805 0.061642
0.342879 0.486327 0.009051
0.506040 0.515078 0.002717
0.663372 0.547909 0.002717
0.807594 0.585221 0.001224
0.922474 0.618794 0.001712
0.999647 0.642713 0.000000
0.003233 0.595440 0.018666
0.096958 0.593820 0.010483
0.227501 0.599189 0.001158
0.362520 0.617441 0.000693
0.508261 0.642755 0.001131
0.649904 0.669927 0.000142
0.787753 0.692443 0.000585
0.914579 0.708848 0.001748
0.999741 0.716759 0.001917
0.220979 0.727077 0.002068
0.258068 0.727268 0.001298
0.338352 0.725603 0.001610
0.443138 0.735097 0.000868
0.559935 0.742441 0.001205
0.683325 0.750757 0.000994
0.803635 0.763400 0.001042
0.915911 0.772907 0.002435
0.998723 0.783117 0.000307
0.448362 0.819728 0.000000
0.468572 0.818738 0.000372
0.510050 0.814186 0.000957
0.578716 0.818872 0.000565
0.660196 0.823233 0.000500
0.750914 0.830291 0.001374
0.844804 0.840714 0.000552
0.941527 0.851818 0.000548
0.999540 0.864522 0.005556
0.608337 0.934265 0.000946
0.622048 0.936836 0.000804
0.644521 0.937665 0.000341
0.691501 0.940141 0.002485
0.744417 0.947847 0.000984
0.810202 0.957838 0.001294
0.882591 0.968830 0.000125
0.962168 0.981590 0.000334
0.996460 0.992611 0.005981
0.000000 0.085510 0.241608
0.003326 0.089677 0.246969
0.131157 0.094152 0.256981
0.277334 0.102178 0.219149
0.419723 0.070316 0.210579
0.549325 0.001144 0.191503
0.692770 0.001442 0.168400
0.839962 0.004687 0.148205
0.979622 0.002617 0.101509
0.000526 0.136117 0.236807
0.001023 0.140973 0.245327
0.154625 0.149472 0.258530
0.294787 0.148539 0.234197
0.434917 0.114264 0.218308
0.572808 0.034059 0.193111
0.716777 0.002530 0.176122
0.856781 0.000995 0.149547
0.981665 0.002932 0.099944
0.004034 0.221071 0.248035
0.002272 0.231374 0.252207
0.182032 0.245007 0.258406
0.338395 0.239797 0.247006
0.486333 0.223994 0.228624
0.626373 0.210044 0.211926
0.759230 0.195290 0.188289
0.883494 0.205334 0.150436
0.998404 0.246889 0.088686
0.000574 0.355118 0.257456
0.030468 0.357224 0.260298
0.197786 0.358591 0.248184
0.362170 0.376520 0.233031
0.531950 0.390697 0.227464
0.685500 0.411101 0.229774
0.806474 0.420540 0.203954
0.908660 0.432777 0.156816
0.999585 0.458627 0.068384
0.002125 0.481995 0.245041
0.070475 0.481563 0.238748
0.218673 0.478012 0.230451
0.357182 0.499045 0.207933
0.514963 0.527309 0.175556
0.673389 0.560036 0.143086
0.809508 0.593506 0.138618
0.923862 0.624744 0.140133
0.998772 0.637730 0.093639
0.010017 0.618784 0.208286
0.118617 0.616402 0.205573
0.245603 0.613512 0.193621
0.373041 0.626885 0.170305
0.514041 0.650688 0.120008
0.655880 0.674940 0.051948
0.792528 0.694356 0.005902
0.916742 0.709981 0.005249
0.999862 0.719060 0.009020
0.227312 0.737308 0.161564
0.262802 0.737831 0.154253
0.341704 0.733175 0.137524
0.444046 0.734160 0.100724
0.560637 0.744857 0.055271
0.685066 0.754556 0.003097
0.804247 0.763687 0.001079
0.917483 0.772784 0.000923
1.000000 0.783477 0.001442
0.440974 0.819960 0.128042
0.460546 0.821021 0.118818
0.500636 0.817721 0.090675
0.569646 0.817182 0.056553
0.653489 0.823255 0.007991
0.748100 0.830477 0.000446
0.841748 0.839282 0.002032
0.938798 0.852997 0.000351
0.999906 0.861894 0.004264
0.592171 0.936280 0.152924
0.601550 0.938341 0.141920
0.634472 0.939341 0.112425
0.681793 0.942767 0.058007
0.739418 0.946548 0.001041
0.802899 0.959810 0.000000
0.880192 0.968817 0.000191
0.963822 0.982084 0.001790
0.993889 0.993889 0.000000
0.002457 0.105392 0.374920
0.001533 0.108222 0.384589
0.029746 0.113539 0.399081
0.302458 0.113431 0.423303
0.444626 0.114841 0.368733
0.560962 0.104189 0.335101
0.677569 0.004618 0.312632
0.800896 0.002336 0.281472
0.951431 0.001507 0.231293
0.002173 0.150768 0.381199
0.001384 0.157626 0.390009
0.078540 0.165197 0.405079
0.319874 0.169930 0.424326
0.449234 0.169793 0.377057
0.569851 0.144886 0.342108
0.685984 0.051061 0.318215
0.809716 0.001800 0.279956
0.958566 0.003185 0.232096
0.000083 0.232745 0.373671
0.002126 0.238326 0.383663
0.147753 0.252587 0.404248
0.339571 0.268821 0.420510
0.469753 0.260044 0.383703
0.591448 0.220259 0.353605
0.712309 0.156187 0.319709
0.851933 0.090459 0.285038
0.980345 0.104107 0.252091
0.001519 0.358151 0.399192
0.006876 0.363447 0.399766
0.202938 0.376744 0.411949
0.368749 0.393953 0.422256
0.520073 0.388600 0.403557
0.654815 0.374231 0.377830
0.778477 0.366988 0.348330
0.895612 0.373088 0.315826
0.996931 0.395388 0.267252
0.001966 0.515566 0.414917
0.057129 0.519192 0.413334
0.232286 0.523309 0.411535
0.374707 0.523259 0.397598
0.526061 0.548524 0.381860
0.681004 0.576647 0.378275
0.810264 0.605566 0.387477
0.912065 0.613356 0.366329
0.998348 0.613645 0.312262
0.009326 0.657655 0.392212
0.118182 0.657356 0.390635
0.253555 0.651437 0.380552
0.383715 0.645994 0.363139
0.519525 0.663540 0.343642
0.662621 0.685003 0.325208
0.797239 0.700927 0.311656
0.916598 0.713465 0.321138
0.999678 0.719217 0.335207
0.223935 0.752053 0.360663
0.265608 0.750845 0.354005
0.341681 0.747517 0.344739
0.437994 0.743828 0.321781
0.556671 0.746472 0.303475
0.683734 0.756493 0.281270
0.804377 0.765290 0.252596
0.918811 0.775623 0.220056
0.999762 0.782399 0.186368
0.412611 0.824834 0.333911
0.433976 0.826011 0.329361
0.482337 0.823088 0.315455
0.550267 0.823192 0.292477
0.638569 0.823624 0.268610
0.735817 0.830502 0.233565
0.837122 0.840421 0.164565
0.934620 0.851983 0.065542
1.000000 0.862870 0.001572
0.556404 0.939804 0.340145
0.568748 0.944237 0.340475
0.604259 0.944531 0.327433
0.655074 0.942018 0.303773
0.718040 0.948395 0.260300
0.791782 0.959092 0.185038
0.866425 0.969068 0.017978
0.956384 0.984667 0.000714
0.997017 0.995129 0.000000
0.001007 0.127441 0.525543
0.000904 0.130705 0.530865
0.002205 0.136131 0.552094
0.249590 0.140581 0.580324
0.498856 0.130867 0.610138
0.618465 0.134851 0.548420
0.709511 0.149185 0.485317
0.818481 0.048064 0.459726
0.931305 0.002014 0.439209
0.001770 0.171177 0.527527
0.000912 0.174652 0.535132
0.003554 0.182102 0.546725
0.273065 0.189012 0.579759
0.505772 0.191385 0.608893
0.619645 0.191300 0.546541
0.711975 0.194054 0.492034
0.819684 0.101184 0.461951
0.931795 0.001961 0.433256
0.002037 0.250202 0.520214
0.001130 0.256631 0.527752
0.051289 0.263742 0.545309
0.310290 0.277816 0.576500
0.520517 0.297243 0.608475
0.624042 0.291883 0.550028
0.721515 0.270628 0.496125
0.829834 0.187332 0.464201
0.939293 0.017032 0.416725
0.000815 0.350779 0.519064
0.002865 0.353600 0.520410
0.139827 0.368811 0.533142
0.338649 0.397255 0.570142
0.529042 0.431142 0.603195
0.631565 0.414995 0.550699
0.736152 0.359068 0.504656
0.845919 0.275810 0.443122
0.975695 0.201384 0.383310
0.001922 0.511383 0.554397
0.007364 0.519145 0.561923
0.210226 0.529602 0.562420
0.375089 0.551390 0.579778
0.531548 0.578396 0.594727
0.660826 0.570587 0.570796
0.780210 0.545986 0.528961
0.887058 0.535247 0.486091
0.991181 0.538132 0.437165
0.037935 0.685741 0.586712
0.145796 0.685390 0.583696
0.271613 0.688969 0.582900
0.403241 0.689187 0.578085
0.523664 0.684556 0.556024
0.665763 0.699129 0.544427
0.799140 0.709467 0.547273
0.910263 0.718266 0.572468
0.998610 0.715055 0.548758
0.243751 0.770161 0.571728
0.281838 0.771087 0.565579
0.356890 0.767303 0.562316
0.442477 0.762428 0.537651
0.544804 0.755302 0.508247
0.670915 0.761101 0.491729
0.801123 0.770195 0.476794
0.917149 0.776425 0.472834
0.998440 0.785423 0.482174
0.390316 0.837433 0.537367
0.405249 0.837904 0.531231
0.450466 0.832999 0.517840
0.522474 0.830368 0.493086
0.610281 0.826374 0.462844
0.713927 0.830834 0.441731
0.820274 0.842098 0.418321
0.923530 0.855302 0.381147
0.999418 0.863339 0.348152
0.506836 0.948075 0.532395
0.523140 0.943668 0.532266
0.559002 0.948284 0.517426
0.613543 0.948498 0.500093
0.685692 0.951424 0.468666
0.765028 0.958107 0.428734
0.849758 0.970737 0.368923
0.940580 0.982393 0.226549
0.998108 0.995056 0.001007
0.000526 0.156856 0.682831
0.000185 0.158267 0.686481
0.002939 0.162823 0.696007
0.198978 0.168926 0.721761
0.467554 0.169305 0.754066
0.672007 0.186609 0.781205
0.773058 0.192003 0.730728
0.843006 0.225328 0.664306
0.937214 0.210846 0.628437
0.002153 0.193268 0.679732
0.003289 0.195205 0.683509
0.000978 0.204339 0.700680
0.230652 0.210683 0.721370
0.476673 0.219129 0.752504
0.671688 0.241295 0.779421
0.770850 0.245989 0.731277
0.847291 0.262129 0.668216
0.940341 0.240302 0.635511
0.000350 0.269266 0.675254
0.002055 0.271419 0.681308
0.001416 0.277897 0.695201
0.268602 0.291466 0.719197
0.492111 0.313039 0.751944
0.673637 0.349936 0.778292
0.769947 0.344390 0.728003
0.844135 0.341630 0.662443
0.942801 0.287267 0.628933
0.003120 0.362658 0.658178
0.001881 0.368001 0.667104
0.037180 0.384009 0.683160
0.297065 0.401650 0.709953
0.496675 0.438852 0.744153
0.671168 0.488386 0.774968
0.758687 0.470219 0.720055
0.838492 0.438081 0.657153
0.950186 0.347287 0.617030
0.001596 0.498579 0.668384
0.002101 0.499687 0.670669
0.085696 0.507885 0.675482
0.307900 0.525624 0.689770
0.494923 0.572144 0.731183
0.661359 0.625827 0.765703
0.744667 0.594831 0.710778
0.843167 0.515694 0.646411
0.965158 0.400066 0.569330
0.001574 0.670449 0.710589
0.032955 0.673111 0.709721
0.221984 0.677685 0.715352
0.383963 0.688416 0.724353
0.532191 0.701592 0.742029
0.665511 0.719029 0.756006
0.770169 0.704007 0.730444
0.873091 0.675807 0.682959
0.985122 0.661095 0.637867
0.340371 0.779056 0.753718
0.365886 0.779404 0.754474
0.422099 0.779300 0.753125
0.499880 0.780032 0.752834
0.583353 0.778615 0.741083
0.670071 0.770252 0.715451
0.790553 0.778781 0.707603
0.906215 0.786956 0.715413
0.995855 0.796300 0.739745
0.437550 0.847766 0.745035
0.453644 0.846099 0.743169
0.486152 0.847916 0.740851
0.543466 0.844894 0.728990
0.604093 0.840354 0.699962
0.687885 0.832839 0.659717
0.794822 0.843665 0.640772
0.909495 0.857855 0.636510
0.999621 0.867217 0.628634
0.523300 0.951992 0.755184
0.528775 0.952326 0.747728
0.544426 0.951762 0.733615
0.576870 0.953072 0.706284
0.644238 0.955288 0.682340
0.729103 0.959048 0.647151
0.818978 0.969131 0.617993
0.917892 0.986679 0.557796
1.000000 0.995548 0.451901
0.000000 0.194336 0.828118
0.002174 0.196817 0.833376
0.000111 0.202900 0.837534
0.204670 0.207558 0.850920
0.457229 0.218093 0.867188
0.647438 0.249417 0.888105
0.799137 0.312629 0.900109
0.884562 0.322341 0.874485
0.946617 0.361008 0.833557
0.003662 0.230079 0.827665
0.001044 0.232499 0.833582
0.003074 0.236237 0.838426
0.226883 0.244025 0.851894
0.467297 0.257741 0.867328
0.651765 0.293620 0.887983
0.795718 0.360357 0.899718
0.885908 0.362733 0.870409
0.948208 0.391014 0.832015
0.000378 0.297045 0.820624
0.000104 0.299752 0.828049
0.003432 0.305888 0.835277
0.262157 0.317530 0.846380
0.475042 0.340829 0.864289
0.651399 0.386458 0.881479
0.790375 0.454572 0.896061
0.877435 0.445645 0.870427
0.944336 0.456232 0.826897
0.000949 0.395946 0.811513
0.003032 0.398987 0.816049
0.001504 0.403754 0.826582
0.275584 0.418444 0.838703
0.478529 0.452116 0.857714
0.645603 0.508436 0.877344
0.779253 0.576229 0.892928
0.860303 0.554143 0.861606
0.932940 0.542246 0.819386
0.000931 0.497639 0.789638
0.001681 0.501279 0.795016
0.001586 0.509536 0.803496
0.264355 0.534368 0.822997
0.464437 0.569347 0.843044
0.634414 0.626772 0.866778
0.775835 0.672287 0.885514
0.848166 0.643942 0.851629
0.921448 0.616630 0.804374
0.001713 0.652158 0.810131
0.002968 0.652353 0.810560
0.020404 0.656390 0.808216
0.269955 0.657640 0.813166
0.446432 0.668342 0.819979
0.630244 0.707494 0.856359
0.784635 0.739790 0.885009
0.843389 0.710620 0.842347
0.937789 0.651582 0.786712
0.222509 0.766975 0.837276
0.264535 0.767498 0.835954
0.351123 0.765302 0.848681
0.454876 0.769620 0.844079
0.568571 0.774546 0.849351
0.688070 0.781579 0.860812
0.799495 0.794281 0.875519
0.875246 0.778126 0.850420
0.978964 0.756270 0.816387
0.510316 0.854801 0.874306
0.526018 0.855312 0.876831
0.556128 0.855427 0.872714
0.602706 0.856950 0.877801
0.659994 0.855846 0.872213
0.721354 0.856582 0.864240
0.780834 0.847446 0.832518
0.891525 0.864070 0.828241
0.996219 0.877779 0.838559
0.576469 0.953919 0.879639
0.587370 0.957284 0.877594
0.603287 0.956873 0.874996
0.630500 0.958274 0.870331
0.670151 0.962700 0.861893
0.710954 0.964383 0.837304
0.789479 0.970509 0.806221
0.891720 0.984899 0.789754
0.997604 0.999557 0.743683
0.000897 0.268097 0.939663
0.001308 0.267757 0.938911
0.033462 0.271715 0.943379
0.320163 0.278541 0.945175
0.502052 0.297455 0.949639
0.652250 0.338576 0.953651
0.778797 0.409773 0.961607
0.887427 0.500510 0.965222
0.965542 0.508881 0.953377
0.002629 0.293574 0.937956
0.004721 0.297230 0.940304
0.067132 0.303740 0.944528
0.332917 0.310749 0.945827
0.503032 0.330709 0.948825
0.650566 0.373207 0.955074
0.781116 0.444765 0.959038
0.881427 0.532037 0.960660
0.960596 0.535859 0.951515
0.001183 0.357911 0.934070
0.001818 0.360560 0.939179
0.103152 0.365178 0.936866
0.343823 0.377580 0.941288
0.505340 0.403707 0.946704
0.653095 0.446803 0.954024
0.774601 0.520830 0.960742
0.873417 0.592326 0.954337
0.953467 0.584564 0.944330
0.001716 0.451733 0.928012
0.004760 0.448005 0.933807
0.099543 0.452488 0.931089
0.340081 0.471588 0.937950
0.504727 0.499629 0.940416
0.643456 0.550578 0.947989
0.768415 0.611377 0.951376
0.871478 0.658886 0.955905
0.950778 0.640457 0.942970
0.001678 0.551426 0.919266
0.002593 0.553106 0.917280
0.026571 0.558156 0.923684
0.311886 0.572709 0.928906
0.486858 0.602456 0.934524
0.635731 0.642475 0.938956
0.766529 0.685623 0.944810
0.881269 0.715247 0.954126
0.953394 0.692810 0.938942
0.001750 0.661672 0.911768
0.002669 0.662092 0.907798
0.001979 0.660936 0.906826
0.221870 0.664123 0.911543
0.448432 0.680328 0.921298
0.622367 0.709472 0.931670
0.775698 0.738140 0.940571
0.893366 0.765309 0.946860
0.955625 0.738244 0.932813
0.116185 0.765848 0.915878
0.169626 0.764612 0.915483
0.269822 0.764706 0.914923
0.378309 0.761491 0.916970
0.492619 0.759880 0.915704
0.609954 0.758736 0.916258
0.769785 0.783373 0.931644
0.904308 0.823133 0.949620
0.956787 0.787020 0.922120
0.450309 0.841522 0.928783
0.466652 0.842946 0.930849
0.502223 0.844069 0.922991
0.561601 0.842584 0.929539
0.631503 0.847495 0.925611
0.719726 0.853035 0.929426
0.806637 0.863364 0.932088
0.909678 0.887591 0.941521
0.980920 0.862966 0.920052
0.636818 0.959888 0.940300
0.643625 0.962416 0.937347
0.663059 0.963909 0.940576
0.696823 0.961251 0.937348
0.735272 0.969030 0.939041
0.777260 0.970824 0.932146
0.821167 0.976451 0.929114
0.879927 0.985011 0.909143
0.986130 0.993137 0.898636
0.329407 0.439209 1.000000
0.356774 0.438294 1.000000
0.416130 0.445320 1.000000
0.504963 0.460323 1.000000
0.599991 0.485260 0.999054
0.697086 0.521122 0.997055
0.789437 0.570824 0.995628
0.875058 0.628425 0.992157
0.956848 0.670593 0.992157
0.329464 0.458336 0.996128
0.360274 0.461888 0.998795
0.419560 0.468310 0.995741
0.507149 0.484651 0.997959
0.604624 0.510952 0.997290
0.695749 0.545273 0.995156
0.787568 0.595097 0.995121
0.873725 0.640241 0.991761
0.956360 0.677944 0.991665
0.341629 0.517868 0.999237
0.368484 0.521185 0.996706
0.428318 0.528749 0.998095
0.512177 0.543177 0.996593
0.604080 0.566993 0.996330
0.697755 0.598276 0.996364
0.787588 0.634912 0.991823
0.875456 0.669618 0.993416
0.958611 0.697807 0.990959
0.350388 0.594509 0.994057
0.377302 0.598946 0.995205
0.434212 0.606656 0.993385
0.513217 0.617188 0.993910
0.606968 0.634977 0.994074
0.699409 0.657387 0.990787
0.790250 0.681238 0.992143
0.880976 0.706340 0.990742
0.963226 0.724018 0.988655
0.334487 0.669708 0.988220
0.365479 0.672136 0.984089
0.435943 0.678482 0.988468
0.511669 0.683132 0.986344
0.603950 0.692657 0.988266
0.701767 0.706354 0.987948
0.800267 0.720920 0.987438
0.888031 0.741373 0.986158
0.973617 0.762817 0.986344
0.352349 0.732879 0.988617
0.377140 0.734794 0.987849
0.427834 0.732693 0.987306
0.501709 0.733845 0.984790
0.603208 0.739981 0.985302
0.707241 0.746603 0.987766
0.808585 0.761410 0.988067
0.898948 0.779906 0.985142
0.981899 0.805927 0.983887
0.455124 0.797829 0.984093
0.466654 0.793857 0.983729
0.492557 0.793877 0.982918
0.534100 0.791454 0.983987
0.601776 0.788605 0.983559
0.694650 0.789878 0.982814
0.805050 0.805265 0.985460
0.910299 0.826910 0.979418
0.988662 0.860031 0.980080
0.574078 0.868237 0.980831
0.582387 0.868871 0.983093
0.598769 0.870970 0.982780
0.633377 0.871027 0.980452
0.679203 0.868534 0.980030
0.732494 0.868083 0.981239
0.797149 0.864001 0.978317
0.896947 0.882103 0.977731
0.992611 0.922997 0.976830
0.662750 0.968628 0.976471
0.662750 0.968628 0.976471
0.684982 0.965675 0.972755
0.706363 0.968628 0.974014
0.741180 0.974563 0.975525
0.789715 0.979969 0.970097
0.843666 0.981583 0.972534
0.915203 0.991703 0.958332
0.996063 1.000000 0.968628
