ml_luts/presetpro_gold_200__lut3d_33.cube
TITLE "Presetpro - Gold 200.jpg"
DOMAIN_MIN 0.000000 0.000000 0.000000
DOMAIN_MAX 1.000000 1.000000 1.000000
LUT_3D_SIZE 9
0.000000 0.000000 0.000000
0.036190 0.000946 0.001373
0.087570 0.005676 0.011002
0.296028 0.001904 0.021961
0.550980 0.000946 0.015625
0.762825 0.001904 0.011780
0.917649 0.002937 0.028427
0.999557 0.000046 0.095688
1.000000 0.231384 0.207855
0.010380 0.027397 0.022606
0.026913 0.037343 0.012154
0.128276 0.037901 0.000879
0.340192 0.000524 0.002222
0.574377 0.003593 0.001677
0.776829 0.001063 0.004311
0.932633 0.002065 0.001035
0.996015 0.007097 0.052644
1.000000 0.265286 0.171913
0.001518 0.157844 0.058380
0.003113 0.156731 0.048598
0.094162 0.180817 0.001938
0.390382 0.159297 0.001628
0.626797 0.056858 0.000492
0.802710 0.001712 0.002377
0.946570 0.005920 0.005455
0.999640 0.161359 0.003164
0.993889 0.335838 0.101349
0.000000 0.353977 0.146099
0.001029 0.353099 0.124340
0.004822 0.358107 0.088569
0.362271 0.379377 0.003407
0.647005 0.359820 0.002083
0.829947 0.318127 0.001473
0.958740 0.304747 0.001699
0.999599 0.345704 0.001432
0.998493 0.429413 0.004318
0.001007 0.541183 0.266663
0.005041 0.542646 0.247280
0.047093 0.538494 0.220108
0.335453 0.545464 0.153843
0.598107 0.567780 0.008209
0.809214 0.573977 0.000946
0.947502 0.548138 0.001495
0.998354 0.528601 0.001354
0.998993 0.554978 0.001007
0.124031 0.710792 0.400044
0.123216 0.710000 0.374282
0.264428 0.705117 0.356746
0.403482 0.699722 0.323153
0.572296 0.716228 0.254734
0.758266 0.739250 0.087646
0.914785 0.746345 0.002506
0.999588 0.727307 0.000938
0.999050 0.709858 0.000526
0.423553 0.839988 0.559052
0.417247 0.846248 0.546453
0.449192 0.842257 0.525772
0.516722 0.836969 0.499510
0.605770 0.839241 0.456444
0.735232 0.849920 0.394237
0.866064 0.861107 0.276304
0.986396 0.864866 0.030274
0.999245 0.850541 0.002395
0.621578 0.929897 0.738681
0.621300 0.927790 0.724863
0.630946 0.930408 0.712303
0.655345 0.931229 0.697731
0.696459 0.927860 0.674059
0.761568 0.927715 0.639825
0.848453 0.939172 0.581500
0.948949 0.942085 0.474095
0.999905 0.938225 0.267064
0.792145 0.984314 0.870575
0.784302 0.983417 0.863632
0.790192 0.988693 0.867867
0.802021 0.986347 0.860848
0.814744 0.986267 0.847122
0.840298 0.990257 0.838360
0.884758 0.991402 0.814598
0.940334 0.998184 0.781566
0.996063 1.000000 0.701965
0.011276 0.003491 0.046925
0.031326 0.009173 0.039218
0.095689 0.012312 0.039624
0.309646 0.000236 0.036683
0.561468 0.000954 0.017685
0.771334 0.000236 0.002746
0.927273 0.002284 0.007161
0.995283 0.001702 0.071826
1.000000 0.247498 0.197414
0.003967 0.038215 0.065908
0.012074 0.045893 0.065086
0.122622 0.050360 0.059307
0.342989 0.005670 0.038291
0.582378 0.002264 0.009015
0.786682 0.002410 0.001311
0.936793 0.004562 0.000507
0.999437 0.012629 0.023523
0.999876 0.280620 0.167881
0.000320 0.166554 0.124538
0.003808 0.175680 0.114252
0.120457 0.191837 0.075562
0.402781 0.162674 0.019004
0.628202 0.079053 0.001833
0.810069 0.015349 0.001739
0.949684 0.030772 0.000909
0.998706 0.188643 0.002300
0.999056 0.339932 0.091525
0.005238 0.359831 0.215262
0.003282 0.365632 0.202975
0.054336 0.362853 0.168970
0.380369 0.386720 0.073332
0.648894 0.366184 0.000958
0.828712 0.323518 0.000471
0.960298 0.317107 0.003386
0.998940 0.355989 0.001478
0.998176 0.436816 0.003421
0.003481 0.543840 0.322687
0.011252 0.546701 0.305558
0.148497 0.546012 0.275810
0.362795 0.548743 0.226753
0.608247 0.571209 0.095487
0.811683 0.577281 0.001505
0.945108 0.554273 0.000796
0.998277 0.533899 0.002557
0.996428 0.556208 0.000441
0.262516 0.709522 0.441505
0.255457 0.713042 0.427197
0.309111 0.711171 0.396940
0.426277 0.704339 0.366910
0.578774 0.718178 0.305626
0.761580 0.739573 0.187444
0.913601 0.746406 0.004818
0.999015 0.731321 0.000560
0.998948 0.707014 0.002242
0.466044 0.841483 0.594304
0.462468 0.844377 0.583948
0.471723 0.842986 0.553674
0.532535 0.840484 0.528263
0.611613 0.836967 0.490098
0.733038 0.850493 0.431217
0.868317 0.862353 0.328250
0.980698 0.867134 0.132793
0.999534 0.851093 0.001098
0.637170 0.925457 0.747149
0.635875 0.929483 0.741465
0.640543 0.930372 0.727971
0.662653 0.929846 0.715181
0.702819 0.926118 0.688599
0.761614 0.927082 0.654366
0.848377 0.936265 0.605033
0.944491 0.937215 0.499628
0.998832 0.939181 0.327533
0.789109 0.983417 0.878327
0.794314 0.986948 0.873442
0.789199 0.985420 0.867405
0.798256 0.987611 0.860983
0.815911 0.986004 0.855721
0.841642 0.984017 0.841299
0.883105 0.989313 0.821294
0.937557 0.991384 0.789419
0.993973 0.998661 0.705826
0.000000 0.015678 0.155876
0.002119 0.014991 0.155147
0.099482 0.013676 0.150557
0.328235 0.000772 0.143267
0.559578 0.002235 0.158478
0.767700 0.002257 0.151419
0.927172 0.002533 0.106564
0.999249 0.013397 0.040191
0.999245 0.270905 0.182136
0.002153 0.068086 0.177571
0.001395 0.070309 0.183337
0.129012 0.071312 0.177577
0.348852 0.069209 0.172270
0.577855 0.058077 0.185340
0.779724 0.010052 0.154290
0.930756 0.016010 0.106591
0.999276 0.088429 0.017373
0.998081 0.291305 0.160164
0.000923 0.186043 0.209578
0.002067 0.191149 0.220620
0.155725 0.211362 0.221100
0.396734 0.210068 0.205949
0.618354 0.191837 0.188572
0.800703 0.180009 0.154037
0.940956 0.198598 0.093398
0.997075 0.244924 0.011184
0.999025 0.355437 0.077261
0.002538 0.368015 0.300033
0.020893 0.375798 0.294727
0.209067 0.386307 0.296333
0.412543 0.397504 0.246227
0.653248 0.380698 0.187122
0.824874 0.362304 0.129645
0.950509 0.374592 0.061153
0.997028 0.398623 0.000646
0.996776 0.445894 0.002861
0.136837 0.553925 0.396805
0.211409 0.556503 0.399775
0.300218 0.559911 0.380394
0.413651 0.556708 0.341559
0.619812 0.578934 0.274433
0.807393 0.584395 0.188543
0.944167 0.566042 0.054404
0.997477 0.555722 0.001571
0.998943 0.565640 0.001244
0.330655 0.715158 0.507814
0.364738 0.714759 0.507977
0.404643 0.719871 0.484297
0.472430 0.714926 0.448289
0.594804 0.720707 0.408066
0.762231 0.744781 0.332664
0.909746 0.751433 0.230530
0.999600 0.736253 0.040279
0.998564 0.712522 0.003703
0.501892 0.844006 0.641359
0.521515 0.843235 0.642506
0.534757 0.844941 0.624129
0.564306 0.843642 0.592861
0.631358 0.840170 0.553214
0.737282 0.852712 0.510832
0.864689 0.865735 0.430621
0.979770 0.865954 0.320509
0.999157 0.855066 0.065691
0.659643 0.925981 0.780295
0.670208 0.929959 0.781154
0.667413 0.929873 0.762787
0.680824 0.929145 0.746932
0.713241 0.928647 0.725732
0.765964 0.929968 0.695130
0.846712 0.936480 0.650884
0.941642 0.942321 0.569780
0.999339 0.938443 0.429550
0.806855 0.983338 0.893128
0.808404 0.982617 0.890178
0.803389 0.983832 0.882151
0.809671 0.987970 0.874887
0.821564 0.986122 0.868988
0.849356 0.986572 0.858940
0.887108 0.991714 0.838068
0.940829 0.992912 0.810483
1.000000 0.995308 0.738762
0.000000 0.040195 0.308289
0.001609 0.045271 0.315681
0.090546 0.042926 0.330991
0.364198 0.001384 0.320430
0.592411 0.001484 0.296170
0.773240 0.013237 0.306443
0.907461 0.211630 0.335473
0.996936 0.286700 0.322735
0.997967 0.334324 0.259121
0.002153 0.113754 0.329510
0.002358 0.111458 0.330454
0.133406 0.124743 0.344625
0.384654 0.096488 0.335698
0.599834 0.097018 0.319060
0.772887 0.161658 0.327870
0.908232 0.274693 0.350858
0.999169 0.318375 0.323651
0.996126 0.360465 0.259868
0.001672 0.219311 0.335463
0.004756 0.225240 0.344372
0.171995 0.244906 0.361196
0.416809 0.252126 0.367144
0.609693 0.274235 0.359709
0.772457 0.321533 0.372347
0.914182 0.354505 0.362283
0.998333 0.389454 0.325143
0.998807 0.414500 0.248870
0.001151 0.377220 0.391102
0.020661 0.382656 0.390711
0.251500 0.396761 0.397866
0.443568 0.413085 0.405744
0.638278 0.421313 0.394624
0.798026 0.434329 0.385031
0.926215 0.456172 0.359170
0.998251 0.482350 0.318235
0.999049 0.501628 0.234950
0.254980 0.562120 0.486916
0.307494 0.565394 0.493455
0.397763 0.571085 0.495624
0.493027 0.576733 0.480435
0.631899 0.590269 0.440966
0.804381 0.592515 0.393167
0.932013 0.586139 0.346356
0.998426 0.596978 0.299542
0.998201 0.606933 0.199169
0.401348 0.721926 0.590668
0.430629 0.721779 0.588152
0.483299 0.725826 0.587552
0.546085 0.728609 0.569205
0.619434 0.726671 0.531451
0.763597 0.749083 0.482287
0.901874 0.757348 0.425672
0.997127 0.742907 0.342958
0.997182 0.725872 0.147815
0.530908 0.847040 0.699158
0.548700 0.847544 0.698924
0.585060 0.847588 0.698244
0.620355 0.849400 0.684145
0.659738 0.846113 0.647885
0.742384 0.853759 0.612928
0.862545 0.864676 0.562673
0.969568 0.868112 0.482792
0.998816 0.854513 0.354542
0.667286 0.927063 0.806686
0.672636 0.930179 0.807539
0.695559 0.929182 0.807657
0.711785 0.931473 0.797408
0.733861 0.930809 0.775181
0.772516 0.929914 0.750179
0.845892 0.937044 0.716643
0.936573 0.941866 0.660035
1.000000 0.938394 0.562488
0.796597 0.984841 0.896656
0.807508 0.984569 0.900405
0.817259 0.986117 0.901070
0.825269 0.985390 0.897938
0.829060 0.986586 0.884474
0.851977 0.986192 0.874931
0.883473 0.989819 0.860933
0.934424 0.990820 0.836553
1.000000 0.996063 0.783253
0.001007 0.097091 0.463699
0.002546 0.102441 0.468752
0.082958 0.111992 0.485985
0.411978 0.108583 0.515785
0.618667 0.020889 0.490196
0.793217 0.102633 0.468046
0.918914 0.231750 0.469910
0.998898 0.368002 0.492256
0.997162 0.519333 0.545029
0.001108 0.162145 0.474447
0.001399 0.167127 0.481026
0.143315 0.179318 0.495326
0.429560 0.189960 0.520320
0.626914 0.156879 0.504335
0.790407 0.207699 0.481130
0.914857 0.298420 0.486943
0.998953 0.414282 0.511138
0.998159 0.537622 0.550196
0.000599 0.269959 0.473576
0.002309 0.280067 0.487550
0.198417 0.284505 0.503550
0.450883 0.310358 0.532175
0.637125 0.310717 0.524748
0.790125 0.346144 0.508729
0.906068 0.412489 0.519638
0.988663 0.509123 0.548428
0.997387 0.562981 0.545639
0.002552 0.391594 0.500050
0.012749 0.396410 0.495847
0.237399 0.408592 0.505628
0.456299 0.437303 0.538099
0.644015 0.464333 0.556579
0.780616 0.494308 0.549628
0.890523 0.545379 0.566536
0.982110 0.585717 0.566777
0.998993 0.595848 0.521109
0.197533 0.555916 0.556389
0.265705 0.556934 0.563340
0.376106 0.565245 0.566181
0.509415 0.580618 0.579273
0.642693 0.602425 0.589691
0.780682 0.620062 0.583549
0.896500 0.635612 0.573643
0.992172 0.654207 0.550249
0.998489 0.661392 0.503517
0.437948 0.724090 0.666216
0.467164 0.726817 0.669408
0.526913 0.733502 0.675235
0.598437 0.740049 0.675431
0.661546 0.742391 0.662515
0.760023 0.756785 0.632187
0.888933 0.759989 0.591642
0.993543 0.748954 0.540056
0.998161 0.751461 0.481707
0.568001 0.853893 0.766666
0.584412 0.851249 0.768452
0.607856 0.852581 0.761258
0.653556 0.853690 0.761313
0.700039 0.855744 0.748224
0.748475 0.855412 0.712045
0.854023 0.869592 0.681746
0.960236 0.872878 0.633912
0.996800 0.857010 0.539486
0.667738 0.931093 0.837504
0.671602 0.933279 0.837633
0.697233 0.930129 0.836297
0.731301 0.934003 0.841228
0.761757 0.933810 0.830352
0.785294 0.932819 0.805583
0.845510 0.936969 0.781334
0.927621 0.942417 0.749205
0.998718 0.941744 0.681784
0.785325 0.984253 0.904862
0.791405 0.986334 0.903698
0.807587 0.986519 0.908501
0.831103 0.985672 0.913567
0.852371 0.986778 0.912171
0.861517 0.986645 0.902302
0.887970 0.989956 0.887943
0.934963 0.992842 0.868439
1.000000 0.992157 0.832398
0.000000 0.173580 0.619690
0.000715 0.182702 0.620819
0.147125 0.190503 0.638456
0.434159 0.206335 0.659996
0.669142 0.226347 0.693247
0.807275 0.203559 0.666474
0.919543 0.294848 0.640109
0.999113 0.413062 0.637734
0.998493 0.542656 0.663734
0.001176 0.231039 0.624139
0.003095 0.232356 0.632547
0.198363 0.245583 0.641250
0.452807 0.259787 0.665664
0.668573 0.290937 0.697756
0.807409 0.275890 0.673561
0.917486 0.349979 0.646848
0.996928 0.453694 0.646854
0.999089 0.569579 0.677327
0.000714 0.337993 0.623848
0.040981 0.334768 0.630466
0.250581 0.335898 0.645746
0.469366 0.359112 0.670502
0.670819 0.400095 0.704855
0.802112 0.396172 0.686996
0.906928 0.450253 0.660847
0.987331 0.532408 0.669993
0.996820 0.629590 0.701438
0.002047 0.418542 0.611442
0.049451 0.428663 0.613803
0.296479 0.449531 0.638533
0.471440 0.469065 0.668337
0.660152 0.516663 0.708234
0.792844 0.532561 0.706927
0.889277 0.574278 0.692139
0.965499 0.634335 0.703232
1.000000 0.704758 0.730040
0.166798 0.565679 0.655516
0.232081 0.563742 0.657181
0.341123 0.569551 0.659304
0.464193 0.574968 0.664474
0.633434 0.617292 0.703012
0.775577 0.660965 0.730285
0.871305 0.688145 0.725071
0.944345 0.732941 0.742892
0.997997 0.759212 0.746587
0.381317 0.709999 0.720085
0.410910 0.712613 0.723475
0.470635 0.717865 0.725629
0.560194 0.727225 0.729020
0.660883 0.739234 0.740829
0.758238 0.764187 0.751761
0.864530 0.778695 0.748428
0.950867 0.790132 0.740841
0.997616 0.794887 0.714458
0.566096 0.846029 0.807321
0.582974 0.850825 0.810532
0.623068 0.854276 0.815682
0.676770 0.859019 0.821199
0.729057 0.864757 0.822332
0.775588 0.864164 0.807963
0.848100 0.873613 0.790211
0.948544 0.874707 0.757819
0.999862 0.858383 0.705116
0.700440 0.936572 0.879691
0.704729 0.934822 0.877485
0.721364 0.935207 0.882211
0.745519 0.935660 0.880047
0.776448 0.937773 0.876447
0.810930 0.936905 0.870469
0.845429 0.936168 0.847004
0.926580 0.943589 0.829215
0.999402 0.943876 0.793919
0.780423 0.987282 0.928883
0.785334 0.986088 0.926652
0.791248 0.986789 0.923249
0.815952 0.987687 0.928544
0.853649 0.986229 0.926897
0.878823 0.988728 0.930552
0.896545 0.989786 0.916690
0.936621 0.993290 0.903941
0.999474 0.995548 0.878868
0.000000 0.284332 0.777230
0.037365 0.284914 0.776538
0.297310 0.293689 0.789368
0.500108 0.313787 0.803459
0.680474 0.349461 0.823002
0.831029 0.401541 0.842855
0.928793 0.389464 0.817856
0.994263 0.474297 0.783155
1.000000 0.589210 0.782570
0.007259 0.320505 0.777316
0.102994 0.323419 0.777581
0.320172 0.333125 0.789103
0.508825 0.351895 0.803477
0.681444 0.389986 0.825043
0.830731 0.443734 0.843762
0.927473 0.432451 0.824061
0.988658 0.506658 0.788567
0.996515 0.612113 0.791083
0.119955 0.400963 0.771467
0.187232 0.398191 0.781397
0.340994 0.405598 0.786921
0.514323 0.429456 0.803124
0.680776 0.468804 0.824325
0.822160 0.529541 0.843916
0.915534 0.518098 0.829227
0.977869 0.578373 0.797913
0.997860 0.662460 0.801495
0.167420 0.494922 0.758976
0.253540 0.499221 0.765470
0.381536 0.510668 0.782180
0.504027 0.517004 0.798039
0.668552 0.560911 0.823024
0.807204 0.628876 0.848566
0.895314 0.627013 0.834477
0.959430 0.667301 0.811499
0.999762 0.724347 0.823415
0.134487 0.582050 0.757244
0.197713 0.582277 0.757413
0.313009 0.583196 0.758554
0.480542 0.602874 0.779851
0.639604 0.644516 0.812996
0.785920 0.708509 0.847888
0.876430 0.725698 0.843643
0.942101 0.754464 0.832386
0.997231 0.794876 0.842259
0.343016 0.719685 0.804248
0.367698 0.720104 0.801723
0.424127 0.720191 0.798593
0.504917 0.721036 0.800129
0.598924 0.720284 0.797171
0.743768 0.767227 0.832082
0.859591 0.811500 0.859784
0.929505 0.830450 0.851899
0.983371 0.857084 0.862904
0.512514 0.837035 0.842293
0.531232 0.838287 0.846780
0.565031 0.837858 0.849927
0.617850 0.843239 0.845665
0.687683 0.849190 0.851639
0.765322 0.860247 0.857645
0.844666 0.875837 0.867532
0.927514 0.885744 0.865227
0.997122 0.889652 0.858494
0.674144 0.929475 0.900624
0.686038 0.932964 0.903162
0.707698 0.933012 0.902833
0.748181 0.934720 0.908930
0.793657 0.939256 0.912434
0.835676 0.943626 0.914833
0.870889 0.940073 0.904137
0.919146 0.947285 0.891913
0.999802 0.943158 0.874465
0.807076 0.985290 0.954903
0.809639 0.987478 0.950319
0.819912 0.986568 0.950052
0.831161 0.987694 0.953136
0.850254 0.989574 0.951485
0.882209 0.990203 0.955340
0.913485 0.992260 0.950130
0.938221 0.993209 0.935306
0.991173 1.000000 0.919609
0.342712 0.425583 0.903977
0.387271 0.427365 0.906843
0.477774 0.440745 0.909363
0.597821 0.459930 0.914584
0.719154 0.490984 0.920092
0.837046 0.548301 0.927378
0.922098 0.591559 0.925434
0.998272 0.584294 0.923818
1.000000 0.642071 0.888150
0.357327 0.455563 0.901329
0.395674 0.455756 0.902755
0.486689 0.466210 0.907240
0.599709 0.483040 0.911418
0.719724 0.519237 0.918728
0.832087 0.571709 0.927582
0.923657 0.620501 0.932559
0.993413 0.608572 0.922927
0.996986 0.663994 0.892859
0.371885 0.507455 0.904746
0.404518 0.509875 0.903831
0.487526 0.519673 0.904350
0.600449 0.541693 0.908862
0.716171 0.574777 0.916583
0.826236 0.626046 0.924268
0.915559 0.676213 0.933361
0.984598 0.662793 0.922819
0.998003 0.707249 0.894493
0.411459 0.600719 0.893506
0.445897 0.598965 0.897814
0.491985 0.594957 0.900451
0.587478 0.608219 0.906857
0.704924 0.642023 0.914021
0.812657 0.692601 0.924141
0.902484 0.740486 0.933743
0.967721 0.729969 0.921231
0.999843 0.757713 0.896355
0.309973 0.651548 0.880783
0.349518 0.657207 0.881114
0.442167 0.663893 0.885869
0.568777 0.684230 0.899062
0.675918 0.701849 0.908550
0.792362 0.746896 0.920211
0.885412 0.802319 0.934362
0.953001 0.796554 0.926724
0.995543 0.816805 0.908453
0.362340 0.756547 0.893565
0.383069 0.756364 0.890793
0.422104 0.750071 0.888666
0.486438 0.740967 0.883942
0.616442 0.754318 0.893068
0.754938 0.792416 0.911560
0.871676 0.845542 0.933039
0.937621 0.856406 0.929182
0.982842 0.871646 0.920911
0.514927 0.856559 0.911759
0.524576 0.858764 0.909909
0.552894 0.859607 0.909914
0.591879 0.856300 0.908537
0.645598 0.851072 0.908053
0.712539 0.844612 0.901536
0.836222 0.875212 0.922421
0.930083 0.910220 0.937754
0.985971 0.916931 0.931613
0.653368 0.929960 0.937725
0.668087 0.929737 0.931653
0.677286 0.930674 0.936835
0.707907 0.929626 0.933857
0.748050 0.932916 0.931361
0.800758 0.933188 0.937103
0.856959 0.938471 0.933694
0.927102 0.948714 0.943264
0.989505 0.951360 0.942579
0.781913 0.987305 0.967682
0.783894 0.988479 0.968231
0.801128 0.988232 0.967556
0.821253 0.987402 0.971621
0.853352 0.988722 0.973781
0.891360 0.990431 0.977392
0.919771 0.992484 0.976249
0.956300 0.993798 0.972884
0.992645 0.996082 0.965595
0.635284 0.666656 0.984314
0.649612 0.670185 0.987351
0.684761 0.678871 0.987251
0.734833 0.687351 0.989273
0.797104 0.703918 0.990143
0.863266 0.727909 0.988789
0.921120 0.758827 0.984322
0.980923 0.772537 0.984360
0.996063 0.756866 0.980377
0.639255 0.681855 0.990330
0.654084 0.682762 0.987178
0.687446 0.689922 0.981941
0.736371 0.700172 0.982095
0.795593 0.716484 0.985073
0.859662 0.741560 0.988085
0.922565 0.770290 0.985566
0.980543 0.783483 0.983677
0.999508 0.768128 0.980774
0.639976 0.712510 0.981911
0.648982 0.714299 0.983247
0.683704 0.720007 0.984369
0.735019 0.729392 0.985318
0.793740 0.745476 0.985279
0.855678 0.766855 0.983872
0.915449 0.795460 0.985102
0.973973 0.808407 0.984226
1.000000 0.791938 0.982582
0.650856 0.767571 0.982807
0.658822 0.764886 0.984994
0.678737 0.762193 0.982640
0.724863 0.768595 0.983401
0.782968 0.782223 0.983332
0.848694 0.800401 0.981562
0.913311 0.823856 0.986411
0.965011 0.838987 0.984970
1.000000 0.823036 0.980377
0.618591 0.807831 0.978424
0.635765 0.807159 0.977844
0.673206 0.814614 0.981777
0.715559 0.815575 0.983555
0.768150 0.816666 0.982414
0.835461 0.832552 0.983480
0.903301 0.855915 0.986065
0.960251 0.873327 0.984632
1.000000 0.860840 0.981339
0.582783 0.856876 0.981853
0.595379 0.857406 0.984551
0.619659 0.854307 0.979484
0.671604 0.853174 0.980937
0.743994 0.861376 0.983765
0.814958 0.866457 0.983756
0.891335 0.884328 0.984934
0.954095 0.905283 0.988548
0.999050 0.897995 0.982414
0.664406 0.923317 0.985077
0.665743 0.919497 0.988107
0.677173 0.919148 0.985973
0.694370 0.913618 0.988423
0.720825 0.907482 0.986237
0.774434 0.903063 0.985571
0.868716 0.911896 0.986175
0.947192 0.931732 0.988720
0.998260 0.936943 0.985725
0.750439 0.962254 0.992611
0.751018 0.962173 0.992525
0.758225 0.964849 0.989182
0.774300 0.964773 0.993118
0.791329 0.964144 0.992733
0.818248 0.960289 0.992432
0.847033 0.953756 0.989429
0.926915 0.952109 0.994969
0.992645 0.966068 0.993092
0.819611 0.992157 0.996063
0.822602 0.996033 0.999500
0.824181 0.996284 0.992378
0.840714 0.994572 0.993622
0.859756 0.997025 0.998993
0.882866 0.999046 0.996632
0.918083 0.995308 0.998260
0.953438 0.999508 0.993137
1.000000 1.000000 1.000000
