ml_luts/presetpro_fuji_astia__lut3d_33.cube
TITLE "Presetpro - Fuji Astia.jpg"
DOMAIN_MIN 0.000000 0.000000 0.000000
DOMAIN_MAX 1.000000 1.000000 1.000000
LUT_3D_SIZE 5
0.000000 0.000000 0.000000
0.168389 0.013519 0.001518
0.468567 0.002975 0.000946
0.732582 0.004471 0.000000
0.988220 0.239227 0.003937
0.000000 0.178741 0.011543
0.212118 0.217070 0.000667
0.537674 0.230275 0.000820
0.771605 0.260029 0.000191
1.000000 0.376465 0.000000
0.000946 0.474518 0.031372
0.079330 0.483433 0.004463
0.511360 0.541145 0.003006
0.809135 0.582748 0.000000
0.999054 0.623459 0.002914
0.001510 0.726478 0.207183
0.151615 0.726784 0.199970
0.475163 0.761799 0.149437
0.774430 0.814240 0.002758
0.998802 0.843361 0.005890
0.388245 0.992157 0.513733
0.439125 0.987686 0.514176
0.578491 0.995056 0.513733
0.769180 0.999023 0.472107
0.992157 1.000000 0.317657
0.017868 0.000000 0.210327
0.225323 0.000544 0.205722
0.464393 0.001308 0.171807
0.717134 0.059587 0.169601
0.974297 0.230629 0.120125
0.000111 0.214939 0.233551
0.240005 0.229983 0.232008
0.518635 0.241299 0.211823
0.754929 0.275877 0.186424
0.987316 0.372112 0.118959
0.034092 0.505001 0.269833
0.216660 0.498059 0.271164
0.527353 0.547377 0.233736
0.807114 0.587436 0.208929
1.000000 0.622009 0.172753
0.096111 0.745378 0.340792
0.238904 0.741194 0.337924
0.480552 0.761851 0.322582
0.776449 0.815833 0.273760
0.999811 0.842951 0.195660
0.403023 0.991623 0.573074
0.446718 0.990149 0.574974
0.575806 0.992832 0.577152
0.769272 0.998865 0.543814
0.986587 0.997047 0.434616
0.002975 0.000000 0.536362
0.258347 0.001385 0.537640
0.556694 0.001488 0.523399
0.688621 0.095154 0.452656
0.939224 0.131362 0.439209
0.001633 0.194889 0.558643
0.277310 0.213187 0.554794
0.560360 0.230463 0.538362
0.703947 0.282173 0.482106
0.955174 0.284069 0.445240
0.079063 0.544617 0.572647
0.296829 0.550863 0.572535
0.543857 0.565674 0.578133
0.766914 0.566696 0.544523
0.994599 0.587151 0.500854
0.348324 0.784115 0.624931
0.400267 0.784889 0.616982
0.499823 0.771627 0.576775
0.773502 0.822820 0.578113
0.997730 0.840706 0.570209
0.448944 0.995193 0.704940
0.489079 0.992313 0.704323
0.591674 0.994141 0.707886
0.765961 0.999291 0.702011
0.982346 1.000000 0.654969
0.238457 0.000984 0.832275
0.390091 0.000622 0.829913
0.629776 0.002956 0.822472
0.827923 0.001987 0.803866
0.938553 0.229187 0.751206
0.251869 0.176167 0.836935
0.393083 0.176563 0.835682
0.626935 0.190277 0.828125
0.826984 0.254417 0.813657
0.941223 0.340950 0.758671
0.001293 0.514526 0.847241
0.221424 0.507225 0.847153
0.569794 0.530491 0.839542
0.809050 0.546900 0.825997
0.947384 0.543693 0.769409
0.286272 0.813957 0.856819
0.376955 0.816097 0.855140
0.570493 0.823364 0.856434
0.791441 0.834583 0.858366
0.990395 0.816435 0.822786
0.641624 0.996063 0.895104
0.667757 0.994121 0.895407
0.744148 0.992927 0.893669
0.796484 0.991634 0.868521
0.985077 0.999779 0.870819
0.533325 0.003937 0.996063
0.598037 0.000755 1.000000
0.745102 0.001953 0.997086
0.920594 0.138023 0.998047
0.996063 0.313721 1.000000
0.517639 0.184517 0.999779
0.583193 0.195801 1.000000
0.727547 0.244091 0.998722
0.910500 0.321511 0.999834
1.000000 0.407402 0.999237
0.395005 0.506760 1.000000
0.488426 0.515808 0.999134
0.666092 0.530426 0.998581
0.868226 0.564072 0.999054
0.997162 0.607772 0.999054
0.335090 0.787712 1.000000
0.402767 0.788269 0.999645
0.566856 0.784195 0.997765
0.819556 0.812696 0.999754
1.000000 0.826256 0.998482
0.682343 0.988220 0.996063
0.714470 0.991402 1.000000
0.786270 0.991150 1.000000
0.888992 0.996826 1.000000
1.000000 0.996063 1.000000
