ml_luts/presetpro_kodachrome__lut3d_33.cube
TITLE "Presetpro - Kodachrome.jpg"
DOMAIN_MIN 0.000000 0.000000 0.000000
DOMAIN_MAX 1.000000 1.000000 1.000000
LUT_3D_SIZE 33
0.000000 0.000000 0.000000
0.007598 0.000118 0.003666
0.019344 0.003699 0.000465
0.034216 0.003577 0.000023
0.049080 0.007305 0.000000
0.061964 0.008384 0.000000
0.080137 0.012377 0.003199
0.095640 0.020595 0.005606
0.113815 0.022552 0.002273
0.137331 0.021250 0.000283
0.163727 0.022661 0.000000
0.193253 0.022608 0.001662
0.224400 0.018654 0.000950
0.262018 0.011389 0.001359
0.301491 0.003431 0.001001
0.340877 0.001070 0.000000
0.379440 0.001953 0.001007
0.417888 0.001005 0.001900
0.457372 0.000000 0.001717
0.495228 0.000000 0.001958
0.529919 0.000950 0.001507
0.565453 0.001662 0.000000
0.606747 0.000000 0.000000
0.641989 0.000000 0.000815
0.677887 0.000763 0.002395
0.719395 0.002384 0.000691
0.754064 0.000618 0.000618
0.794694 0.003849 0.002781
0.831733 0.005981 0.000492
0.878520 0.000000 0.003568
0.907358 0.000254 0.000483
0.945822 0.003932 0.007603
0.984314 0.000000 0.003937
0.000000 0.019483 0.000118
0.007598 0.015677 0.000118
0.019233 0.022567 0.003451
0.034098 0.023024 0.003801
0.043581 0.023347 0.000477
0.064601 0.023834 0.000424
0.081829 0.024638 0.000699
0.098836 0.026859 0.000403
0.114939 0.031754 0.000101
0.139246 0.032709 0.000009
0.163840 0.031724 0.000833
0.191452 0.032072 0.000469
0.227560 0.023595 0.002413
0.267737 0.015350 0.003330
0.305107 0.008248 0.001312
0.343150 0.003079 0.000063
0.383372 0.001953 0.000091
0.420999 0.001061 0.000059
0.457609 0.000066 0.000804
0.496858 0.000901 0.001079
0.534549 0.001926 0.000047
0.567859 0.001788 0.000000
0.604260 0.001687 0.000804
0.645693 0.000000 0.001907
0.681745 0.000726 0.000164
0.719604 0.002269 0.000668
0.763076 0.000019 0.003137
0.803408 0.000693 0.003305
0.840866 0.003808 0.000030
0.872899 0.003344 0.000551
0.911830 0.003452 0.003784
0.956509 0.000241 0.007226
0.991794 0.000118 0.003789
0.000229 0.035303 0.000723
0.004058 0.041709 0.007367
0.015434 0.039142 0.001152
0.026970 0.038958 0.003506
0.045174 0.039171 0.000474
0.067076 0.041643 0.002828
0.079821 0.039995 0.004032
0.104192 0.041774 0.003604
0.124895 0.043738 0.000860
0.144106 0.048944 0.000000
0.168948 0.043495 0.000703
0.200805 0.041852 0.000351
0.237274 0.038091 0.000154
0.272956 0.030626 0.000501
0.311977 0.016885 0.000295
0.352732 0.004960 0.000126
0.391496 0.001896 0.001005
0.428362 0.002739 0.000942
0.464373 0.002611 0.000148
0.501929 0.002370 0.000783
0.539183 0.002354 0.000894
0.575081 0.001039 0.001180
0.612551 0.001663 0.002412
0.647578 0.000966 0.001087
0.682077 0.002620 0.002581
0.724187 0.000142 0.000042
0.764549 0.000113 0.000780
0.803734 0.000620 0.002891
0.841178 0.000735 0.000902
0.879501 0.001106 0.003477
0.918241 0.003890 0.000243
0.950676 0.003230 0.000451
0.985025 0.000236 0.000236
0.000023 0.060958 0.011079
0.000358 0.058515 0.008422
0.007776 0.061122 0.010238
0.016302 0.061301 0.007434
0.040766 0.058804 0.001303
0.059217 0.060929 0.005394
0.080164 0.059580 0.001519
0.105657 0.060716 0.000359
0.128302 0.061173 0.000335
0.148512 0.060269 0.000093
0.178917 0.057912 0.000616
0.211358 0.052665 0.000308
0.243229 0.049691 0.000639
0.279078 0.042892 0.002349
0.319216 0.031393 0.003821
0.361441 0.019380 0.004624
0.398224 0.008543 0.004345
0.433692 0.002127 0.001990
0.472963 0.000447 0.002067
0.509345 0.000793 0.003425
0.543233 0.001948 0.000954
0.579075 0.001599 0.000945
0.617692 0.000942 0.001890
0.654386 0.001999 0.000742
0.688956 0.000589 0.002263
0.727484 0.000332 0.000886
0.768979 0.000841 0.000058
0.809810 0.002630 0.000320
0.845518 0.000382 0.000380
0.881140 0.000421 0.000625
0.921653 0.000678 0.003188
0.956362 0.000434 0.006102
0.980769 0.003591 0.003208
0.000000 0.084762 0.016125
0.000103 0.080997 0.015123
0.001083 0.081090 0.014944
0.013566 0.080911 0.017396
0.034050 0.077927 0.012053
0.053852 0.080696 0.011038
0.080619 0.080720 0.009179
0.105129 0.079042 0.002521
0.127197 0.080260 0.000568
0.158720 0.080215 0.000141
0.188915 0.079275 0.000076
0.223747 0.072742 0.000616
0.258729 0.068613 0.003389
0.294901 0.061357 0.002838
0.331687 0.051928 0.000956
0.369754 0.040568 0.002466
0.407610 0.024612 0.005686
0.442079 0.009588 0.005252
0.478327 0.001907 0.002165
0.516981 0.000347 0.001405
0.552620 0.000899 0.001815
0.587884 0.001364 0.001271
0.624070 0.000417 0.000228
0.661147 0.000972 0.000337
0.699219 0.000713 0.001905
0.734273 0.002132 0.003147
0.775052 0.000114 0.001122
0.814890 0.000492 0.005263
0.850222 0.001204 0.001596
0.886990 0.002895 0.002846
0.923276 0.000497 0.000446
0.960319 0.000455 0.000945
0.994102 0.000492 0.000442
0.000541 0.107960 0.023002
0.000035 0.106841 0.022381
0.000230 0.103968 0.019664
0.005392 0.101248 0.016806
0.017959 0.100699 0.013795
0.046818 0.103063 0.014338
0.073750 0.103530 0.009808
0.098495 0.105560 0.004350
0.131106 0.105709 0.001248
0.165005 0.101278 0.000564
0.200942 0.097521 0.002453
0.240027 0.092571 0.002648
0.273449 0.090645 0.002051
0.309826 0.084250 0.001704
0.345987 0.074530 0.002786
0.381270 0.065363 0.002980
0.419056 0.052636 0.002829
0.455154 0.035534 0.002280
0.490133 0.017979 0.000640
0.526806 0.005145 0.000168
0.564749 0.000456 0.001307
0.601833 0.000392 0.002150
0.634881 0.001159 0.000372
0.670361 0.002354 0.000196
0.707099 0.002212 0.000696
0.741989 0.002384 0.000658
0.783212 0.000101 0.000640
0.820897 0.000565 0.000938
0.855204 0.000680 0.000278
0.891419 0.000770 0.000521
0.926535 0.002862 0.000194
0.958364 0.002946 0.000018
0.987746 0.005562 0.000000
0.000120 0.127935 0.024889
0.000004 0.127819 0.023572
0.000043 0.127193 0.018138
0.001297 0.124260 0.014731
0.003459 0.126430 0.020921
0.031018 0.127036 0.017071
0.064572 0.127101 0.014179
0.099204 0.129561 0.006560
0.137551 0.126464 0.005860
0.171336 0.123676 0.002302
0.206938 0.122349 0.001165
0.246091 0.117101 0.001185
0.283237 0.114211 0.000945
0.319401 0.108910 0.000531
0.357769 0.099950 0.001062
0.396444 0.089601 0.003489
0.432189 0.081892 0.002794
0.466095 0.072475 0.000309
0.501469 0.056594 0.000610
0.536909 0.039720 0.000736
0.572687 0.023051 0.000456
0.610461 0.008775 0.000839
0.645185 0.002734 0.000276
0.680398 0.001671 0.000654
0.715049 0.000645 0.000555
0.750865 0.001437 0.000026
0.788063 0.002098 0.000098
0.826257 0.002393 0.000000
0.861191 0.000930 0.000229
0.900528 0.002179 0.001725
0.930740 0.001424 0.000663
0.963737 0.001353 0.000761
0.994215 0.004930 0.005133
0.000000 0.156479 0.028297
0.000000 0.153614 0.023770
0.000380 0.151399 0.020206
0.001075 0.150715 0.019435
0.000289 0.153482 0.023912
0.016146 0.151668 0.019386
0.052021 0.148681 0.019435
0.091108 0.149073 0.012832
0.129862 0.151270 0.008053
0.171617 0.149114 0.004104
0.211906 0.146105 0.003883
0.251578 0.143387 0.002047
0.294048 0.139529 0.000426
0.330951 0.135626 0.000068
0.369548 0.128344 0.000513
0.409617 0.117851 0.001472
0.446061 0.110022 0.001329
0.481641 0.102838 0.001016
0.517523 0.092187 0.001529
0.551680 0.082290 0.001019
0.585663 0.073301 0.000545
0.622213 0.059534 0.000954
0.657444 0.044256 0.000514
0.692414 0.032174 0.001424
0.724760 0.020415 0.000644
0.758829 0.012028 0.000000
0.793981 0.009334 0.000000
0.832300 0.011646 0.000171
0.866900 0.012482 0.001144
0.904402 0.015563 0.001349
0.936827 0.028239 0.000167
0.968895 0.052332 0.000205
0.999139 0.076692 0.001382
0.000000 0.184296 0.030830
0.000000 0.181272 0.027379
0.000122 0.178457 0.026588
0.000296 0.178303 0.026570
0.001942 0.180563 0.028008
0.005000 0.179630 0.022491
0.036078 0.180117 0.019218
0.083278 0.177463 0.015751
0.129408 0.177035 0.012228
0.174109 0.171605 0.008330
0.218338 0.171207 0.004644
0.256487 0.170285 0.001349
0.298584 0.167959 0.000083
0.340100 0.162631 0.000000
0.380346 0.155277 0.000124
0.421428 0.149260 0.000221
0.460835 0.143165 0.000221
0.498449 0.135654 0.000722
0.534941 0.129218 0.002411
0.568953 0.123955 0.003059
0.599593 0.117470 0.001342
0.631247 0.109970 0.000270
0.667226 0.102006 0.000148
0.702047 0.094570 0.000402
0.737531 0.089069 0.000521
0.771540 0.084146 0.001109
0.807171 0.084150 0.000000
0.843093 0.088554 0.000173
0.873612 0.091451 0.001007
0.907789 0.102116 0.000507
0.939277 0.113393 0.002232
0.971401 0.135437 0.000000
0.995628 0.156746 0.000000
0.000811 0.212091 0.033829
0.000727 0.213235 0.034972
0.000045 0.210636 0.033138
0.000000 0.210460 0.033013
0.006356 0.209607 0.040563
0.003355 0.209349 0.034568
0.017203 0.208869 0.025182
0.071271 0.205594 0.022256
0.122238 0.206469 0.018617
0.167284 0.204708 0.010665
0.213379 0.202669 0.003057
0.258276 0.202316 0.001590
0.301504 0.201226 0.005067
0.344131 0.196934 0.002807
0.386061 0.190867 0.000000
0.426466 0.185424 0.002412
0.465836 0.179928 0.002676
0.505265 0.173389 0.000960
0.545642 0.168329 0.002586
0.585459 0.163627 0.004817
0.618606 0.157581 0.003338
0.646549 0.155368 0.000000
0.678521 0.154798 0.000254
0.711860 0.152895 0.001583
0.748316 0.155139 0.003160
0.785875 0.156740 0.001547
0.818515 0.157367 0.000292
0.852103 0.165205 0.001615
0.884223 0.169119 0.001687
0.915468 0.179244 0.000271
0.946893 0.188861 0.002714
0.975347 0.203393 0.000085
0.998361 0.217715 0.000000
0.000353 0.242066 0.041399
0.002084 0.246443 0.042240
0.000134 0.244059 0.039742
0.000000 0.243415 0.039326
0.004050 0.242135 0.046674
0.002181 0.240008 0.042394
0.003757 0.241380 0.034282
0.053431 0.238787 0.030147
0.112644 0.237439 0.026956
0.161161 0.237769 0.015744
0.212243 0.235174 0.007358
0.259471 0.235252 0.004709
0.303342 0.235808 0.004597
0.347751 0.235080 0.002439
0.389828 0.230109 0.000860
0.430088 0.224477 0.001452
0.469509 0.219681 0.001856
0.509746 0.215444 0.001088
0.552758 0.211953 0.001180
0.594222 0.207214 0.002149
0.629106 0.204389 0.001258
0.660340 0.203669 0.000332
0.693335 0.201673 0.001915
0.727378 0.203696 0.004020
0.763158 0.208390 0.003813
0.795988 0.213727 0.002696
0.827142 0.218031 0.001578
0.858630 0.227400 0.002654
0.890697 0.230880 0.003435
0.923322 0.241735 0.000162
0.952802 0.249265 0.001622
0.981094 0.258825 0.000091
1.000000 0.275936 0.001741
0.000000 0.281624 0.049630
0.001679 0.284110 0.049475
0.000108 0.283335 0.049459
0.000000 0.283185 0.047847
0.001885 0.280770 0.047810
0.002102 0.277120 0.046400
0.000392 0.281650 0.041821
0.031317 0.275623 0.040344
0.097198 0.272679 0.034209
0.155130 0.272560 0.021445
0.206697 0.271786 0.010268
0.251532 0.271811 0.004780
0.297422 0.269573 0.001881
0.343287 0.270247 0.002583
0.391038 0.268044 0.006086
0.433167 0.265003 0.004405
0.470017 0.263445 0.001838
0.509230 0.260276 0.001251
0.552251 0.257586 0.000915
0.595109 0.255742 0.001649
0.633266 0.253309 0.000626
0.670155 0.251167 0.000166
0.705350 0.251692 0.001190
0.741076 0.255420 0.002328
0.775382 0.258165 0.001809
0.807670 0.262699 0.002964
0.839373 0.269573 0.001287
0.868548 0.280631 0.001678
0.898401 0.287126 0.001820
0.929377 0.298021 0.003140
0.959299 0.304664 0.001381
0.983982 0.315020 0.001902
1.000000 0.329151 0.004355
0.001507 0.321487 0.058853
0.003421 0.324817 0.057305
0.003043 0.325819 0.055967
0.003014 0.325961 0.055031
0.004452 0.320479 0.051669
0.002801 0.320898 0.052704
0.003668 0.323437 0.053035
0.012287 0.317796 0.048094
0.073541 0.315043 0.043952
0.142060 0.315951 0.032804
0.197517 0.315101 0.016003
0.243804 0.312404 0.006988
0.288827 0.309186 0.002935
0.332599 0.309633 0.001785
0.381538 0.307770 0.004113
0.427636 0.307940 0.003777
0.467586 0.307514 0.001482
0.508211 0.304625 0.001390
0.549340 0.304481 0.001478
0.589253 0.304975 0.000796
0.629134 0.303591 0.001309
0.669888 0.301461 0.002314
0.708004 0.304562 0.001463
0.745680 0.307658 0.000378
0.783795 0.310309 0.000320
0.815944 0.314938 0.001064
0.848014 0.320971 0.000603
0.876438 0.330547 0.001667
0.906829 0.340021 0.000237
0.934480 0.350372 0.001912
0.963111 0.357763 0.002066
0.986738 0.367832 0.002672
0.997539 0.377884 0.006512
0.000979 0.368234 0.067401
0.002806 0.370062 0.067330
0.003426 0.367457 0.059841
0.004005 0.367838 0.059883
0.002753 0.367138 0.056431
0.002374 0.366898 0.057447
0.002524 0.364621 0.059528
0.003434 0.363666 0.054150
0.040625 0.360317 0.054299
0.114789 0.359420 0.046311
0.184784 0.358840 0.025682
0.233190 0.358308 0.010913
0.281729 0.355003 0.005361
0.326755 0.354301 0.001738
0.372410 0.352197 0.001296
0.417248 0.351131 0.002017
0.461131 0.352266 0.001460
0.506598 0.352264 0.001172
0.546043 0.352795 0.000690
0.581438 0.354323 0.000795
0.621253 0.353775 0.002208
0.663741 0.352111 0.002146
0.704944 0.355215 0.000844
0.746109 0.358143 0.000000
0.785462 0.361295 0.000376
0.820249 0.367300 0.001175
0.854007 0.372740 0.000367
0.882936 0.382076 0.001652
0.913355 0.388701 0.000245
0.942885 0.398647 0.001865
0.969006 0.406693 0.000984
0.990488 0.419394 0.001111
0.997422 0.428278 0.002938
0.000996 0.416132 0.074999
0.001642 0.416146 0.073234
0.001948 0.414770 0.067639
0.001588 0.414374 0.066378
0.000809 0.416154 0.065723
0.004026 0.413483 0.063424
0.001861 0.410291 0.062695
0.001049 0.410628 0.061075
0.010995 0.409006 0.061108
0.077924 0.405502 0.057506
0.157235 0.406718 0.040164
0.216854 0.405075 0.021540
0.269063 0.402330 0.008084
0.316568 0.401479 0.001461
0.361346 0.399082 0.001779
0.404314 0.396360 0.001902
0.450071 0.396223 0.001307
0.497781 0.398549 0.002007
0.538485 0.399924 0.001246
0.575757 0.400903 0.001081
0.616809 0.402417 0.002094
0.659037 0.401941 0.000997
0.700901 0.405359 0.001106
0.741796 0.409227 0.001991
0.779680 0.412427 0.002019
0.818541 0.417434 0.001816
0.854833 0.422685 0.001298
0.886261 0.431547 0.002955
0.919692 0.437465 0.000180
0.947702 0.444770 0.001307
0.974046 0.452950 0.000146
0.996267 0.464891 0.002295
0.999279 0.474415 0.000996
0.000830 0.463711 0.083667
0.000892 0.461740 0.078469
0.000848 0.461761 0.075069
0.000079 0.462081 0.073704
0.002400 0.461497 0.070837
0.004807 0.459839 0.068575
0.004038 0.456641 0.069867
0.001560 0.455920 0.068770
0.000588 0.457625 0.065807
0.033019 0.454009 0.063412
0.117157 0.452956 0.056410
0.192519 0.449951 0.038671
0.250309 0.449081 0.017685
0.301675 0.448507 0.003963
0.348371 0.446306 0.001567
0.392621 0.445105 0.001870
0.439005 0.441953 0.001449
0.485399 0.441148 0.002782
0.528610 0.444237 0.003048
0.570711 0.446458 0.002015
0.611518 0.449461 0.001902
0.652120 0.450913 0.001893
0.693910 0.453025 0.002404
0.734012 0.457205 0.002729
0.772651 0.460585 0.002254
0.812954 0.465199 0.000792
0.852114 0.471249 0.001170
0.883817 0.478978 0.003058
0.920054 0.485592 0.001364
0.947966 0.491114 0.001763
0.976008 0.499039 0.000245
0.997518 0.507550 0.003817
0.998995 0.515380 0.000830
0.000000 0.509812 0.094116
0.000059 0.507905 0.088292
0.000118 0.508072 0.081181
0.000011 0.509802 0.080650
0.001776 0.506561 0.076891
0.002622 0.506987 0.075711
0.002620 0.504218 0.077650
0.001259 0.502360 0.076492
0.001263 0.503552 0.072762
0.005117 0.501142 0.072032
0.070421 0.498049 0.070821
0.156899 0.496951 0.056397
0.227404 0.495811 0.034535
0.283874 0.494931 0.012158
0.333930 0.493438 0.001746
0.380607 0.491776 0.001420
0.425934 0.488708 0.001419
0.470760 0.486750 0.001389
0.515174 0.487306 0.002306
0.560477 0.489615 0.002894
0.604456 0.493669 0.002335
0.644981 0.495421 0.001697
0.686273 0.498799 0.002517
0.727241 0.503675 0.002234
0.767796 0.507061 0.001385
0.808337 0.511995 0.001007
0.845797 0.517701 0.001196
0.876208 0.524786 0.001888
0.911879 0.529699 0.001379
0.945125 0.534556 0.002351
0.973884 0.541401 0.000245
0.996718 0.549918 0.003829
0.999054 0.556732 0.000946
0.000000 0.554238 0.106583
0.000000 0.554987 0.099966
0.000778 0.554351 0.092235
0.002333 0.555218 0.090126
0.002076 0.550946 0.088823
0.002043 0.552912 0.087141
0.000384 0.551293 0.087885
0.000000 0.549326 0.086431
0.001516 0.547758 0.082230
0.002357 0.546242 0.083729
0.025023 0.545500 0.080714
0.111368 0.544281 0.075006
0.197884 0.542035 0.057888
0.262784 0.540496 0.032482
0.318001 0.538332 0.011330
0.367166 0.535752 0.002279
0.411940 0.534077 0.001103
0.457205 0.533450 0.000959
0.503158 0.530571 0.002571
0.548463 0.528959 0.004069
0.594550 0.533064 0.002312
0.636514 0.537198 0.001410
0.677972 0.543347 0.001763
0.720476 0.548326 0.001304
0.760166 0.552879 0.000923
0.799866 0.555522 0.002189
0.836157 0.560603 0.002389
0.868273 0.567125 0.001398
0.902696 0.570874 0.000101
0.939460 0.575249 0.000735
0.967532 0.580808 0.000198
0.994196 0.588634 0.003104
0.998984 0.596554 0.001005
0.001001 0.598759 0.121355
0.000950 0.599605 0.115462
0.001669 0.596848 0.108653
0.003521 0.597473 0.105472
0.002581 0.594989 0.102436
0.002305 0.596910 0.103248
0.000428 0.594351 0.104491
0.000605 0.594109 0.101240
0.001769 0.591286 0.097268
0.002574 0.590235 0.093958
0.002641 0.589296 0.092368
0.064569 0.587831 0.093959
0.161711 0.586149 0.085444
0.242071 0.584939 0.066020
0.302292 0.582187 0.038194
0.355244 0.580385 0.012184
0.402211 0.579082 0.001589
0.448097 0.578949 0.001151
0.494609 0.576728 0.002558
0.538167 0.571959 0.003116
0.581626 0.572486 0.001387
0.624037 0.576385 0.002025
0.667376 0.582585 0.001373
0.710793 0.587193 0.000154
0.749083 0.593345 0.000715
0.788874 0.595612 0.001562
0.828074 0.600600 0.002396
0.864094 0.604819 0.000740
0.897824 0.608626 0.001192
0.933634 0.614785 0.002710
0.961077 0.620027 0.000121
0.989700 0.625528 0.001879
0.998781 0.635050 0.000000
0.001359 0.639968 0.137879
0.002190 0.640750 0.135076
0.003706 0.638555 0.127931
0.002738 0.639406 0.124181
0.000328 0.637839 0.123664
0.001254 0.639692 0.124061
0.001075 0.636373 0.122617
0.001035 0.637345 0.118569
0.001160 0.635032 0.117625
0.001477 0.634238 0.111614
0.001895 0.631420 0.111370
0.027154 0.629985 0.111894
0.122659 0.628116 0.109478
0.219985 0.627388 0.097856
0.286302 0.626633 0.075363
0.343570 0.623755 0.043212
0.394941 0.621537 0.015317
0.440920 0.622495 0.003242
0.485068 0.621574 0.000579
0.528433 0.618264 0.000000
0.572265 0.616211 0.000680
0.614739 0.613686 0.001870
0.657493 0.616219 0.001554
0.699367 0.622423 0.000654
0.740856 0.629629 0.000557
0.781303 0.634478 0.000512
0.821745 0.637989 0.002267
0.859212 0.639513 0.002004
0.893281 0.643542 0.002474
0.926554 0.651915 0.003678
0.957259 0.655746 0.000064
0.986583 0.662188 0.000996
1.000000 0.673052 0.000000
0.000000 0.680370 0.158844
0.001386 0.680252 0.155788
0.004166 0.678478 0.150950
0.002707 0.678339 0.144917
0.000317 0.676955 0.147860
0.001703 0.678946 0.145458
0.002607 0.676345 0.143061
0.002084 0.676310 0.139758
0.001187 0.675682 0.138573
0.001660 0.674931 0.136555
0.001775 0.673034 0.135285
0.006836 0.671248 0.133827
0.089393 0.669365 0.130398
0.197134 0.666686 0.125022
0.273613 0.666847 0.113227
0.333525 0.664763 0.090014
0.388092 0.661249 0.057648
0.435165 0.660729 0.027990
0.478114 0.660470 0.008632
0.522630 0.659653 0.000592
0.568069 0.658182 0.001130
0.609403 0.654287 0.001317
0.649178 0.651224 0.001251
0.690742 0.654333 0.001474
0.733391 0.660327 0.000521
0.773325 0.668791 0.001395
0.814939 0.671777 0.003034
0.851840 0.674331 0.003063
0.887075 0.678722 0.001879
0.917599 0.687531 0.000726
0.951658 0.687587 0.000064
0.980211 0.696322 0.000994
0.999050 0.704925 0.000000
0.001353 0.718652 0.186719
0.000926 0.715691 0.181010
0.000136 0.715714 0.177046
0.000835 0.716709 0.171990
0.001142 0.716051 0.171357
0.003372 0.715922 0.170158
0.003702 0.714372 0.168767
0.004592 0.712362 0.168646
0.003308 0.712281 0.166696
0.002202 0.711211 0.162319
0.002708 0.708999 0.165084
0.003058 0.708541 0.162206
0.067618 0.707670 0.154941
0.176863 0.704608 0.156325
0.263626 0.702945 0.150228
0.327420 0.702868 0.133489
0.382002 0.700224 0.113306
0.428902 0.698528 0.081414
0.474056 0.698258 0.043622
0.520177 0.696552 0.018355
0.566247 0.695762 0.005749
0.606238 0.693430 0.000000
0.644744 0.690381 0.001349
0.685993 0.687808 0.003545
0.723048 0.688190 0.001596
0.763902 0.698030 0.002263
0.807540 0.703633 0.003661
0.846754 0.707298 0.000641
0.881960 0.711822 0.001834
0.909462 0.719043 0.001668
0.942451 0.718911 0.000240
0.975076 0.727064 0.002494
0.997425 0.733908 0.000000
0.003059 0.751745 0.217035
0.002206 0.752013 0.210189
0.000624 0.751444 0.202864
0.002023 0.752907 0.199953
0.003263 0.750613 0.200607
0.003429 0.751180 0.196401
0.004340 0.750707 0.195592
0.004050 0.748292 0.197765
0.003507 0.748332 0.198804
0.002964 0.746341 0.192282
0.002665 0.744214 0.193429
0.002335 0.742910 0.192299
0.052409 0.740859 0.185881
0.162012 0.739568 0.186782
0.257347 0.739048 0.183127
0.324448 0.737372 0.174041
0.379488 0.735480 0.160738
0.426412 0.734143 0.137012
0.473622 0.732256 0.107697
0.519536 0.731134 0.074439
0.563756 0.730433 0.037952
0.605234 0.727654 0.011189
0.643953 0.726317 0.002446
0.683106 0.726288 0.004573
0.717764 0.723314 0.002020
0.755025 0.723949 0.000851
0.799158 0.732247 0.003323
0.839734 0.737696 0.001153
0.872327 0.741549 0.002572
0.903766 0.746531 0.001745
0.938099 0.751312 0.001962
0.972113 0.758005 0.002609
0.994341 0.766571 0.000000
0.000811 0.784006 0.249466
0.001119 0.785961 0.241902
0.000896 0.783919 0.233608
0.001075 0.784074 0.229166
0.002782 0.781167 0.228893
0.001549 0.783633 0.225656
0.003746 0.783294 0.225712
0.003140 0.781620 0.226786
0.003036 0.782332 0.226625
0.002399 0.780925 0.224135
0.001743 0.779416 0.222764
0.003124 0.775932 0.220852
0.048468 0.774597 0.218654
0.160770 0.772183 0.217790
0.259610 0.772307 0.217235
0.326546 0.771791 0.213691
0.382945 0.768452 0.203728
0.430410 0.766894 0.188169
0.476012 0.766013 0.167493
0.520377 0.763959 0.143899
0.562206 0.761813 0.111192
0.601441 0.761101 0.062384
0.641914 0.762192 0.024047
0.680907 0.760642 0.007829
0.717225 0.757041 0.001639
0.749093 0.753897 0.000609
0.787143 0.756689 0.001168
0.827217 0.765865 0.002778
0.861324 0.770887 0.002031
0.898945 0.777512 0.002538
0.933251 0.781381 0.004907
0.964542 0.786776 0.002851
0.987054 0.797486 0.002738
0.000763 0.814949 0.282669
0.001798 0.812695 0.275589
0.001144 0.812858 0.271290
0.001679 0.813717 0.266961
0.001653 0.813691 0.262041
0.003237 0.809729 0.258990
0.002683 0.810926 0.259971
0.002416 0.812539 0.262219
0.002304 0.812540 0.261280
0.002367 0.811181 0.257816
0.003846 0.808641 0.256354
0.003630 0.806126 0.251456
0.064348 0.805565 0.253092
0.175981 0.805077 0.256081
0.269512 0.805089 0.253466
0.335850 0.804640 0.252071
0.391048 0.802841 0.247242
0.438275 0.801689 0.235238
0.483192 0.799377 0.219999
0.526359 0.795508 0.200484
0.564939 0.794456 0.177787
0.602650 0.795016 0.147619
0.641373 0.794877 0.101505
0.677170 0.793529 0.052293
0.713876 0.789272 0.022823
0.746683 0.787151 0.007236
0.782239 0.787067 0.001356
0.818907 0.791041 0.004025
0.855584 0.797997 0.000270
0.892697 0.805491 0.001633
0.928520 0.804538 0.002779
0.957220 0.811320 0.003399
0.985069 0.821808 0.007301
0.002384 0.842499 0.316465
0.003054 0.841829 0.310879
0.003031 0.844640 0.304278
0.003071 0.845003 0.302062
0.001756 0.842700 0.301080
0.004197 0.840306 0.296481
0.002140 0.840329 0.295963
0.001573 0.841784 0.295646
0.002889 0.839754 0.295831
0.003908 0.839415 0.294651
0.001964 0.840599 0.295450
0.007716 0.837325 0.295257
0.092748 0.834402 0.295069
0.204676 0.833905 0.293305
0.286217 0.835119 0.288992
0.349627 0.836047 0.288164
0.405962 0.833356 0.290875
0.452058 0.829222 0.284473
0.493926 0.827816 0.270317
0.535432 0.826649 0.254932
0.572659 0.824327 0.234672
0.608473 0.823407 0.212483
0.644022 0.822364 0.183277
0.681210 0.820978 0.149040
0.717982 0.817681 0.110050
0.750778 0.818464 0.050039
0.785585 0.820576 0.020033
0.815113 0.816700 0.010974
0.846578 0.818403 0.000595
0.885863 0.826280 0.002176
0.921680 0.830617 0.000394
0.953173 0.837995 0.003678
0.983620 0.844858 0.000000
0.000738 0.868150 0.355267
0.000738 0.868150 0.351364
0.001207 0.869401 0.345718
0.000676 0.869484 0.343557
0.004308 0.869768 0.342696
0.002136 0.868931 0.334892
0.003389 0.866655 0.335249
0.003500 0.867455 0.335888
0.003653 0.866747 0.328441
0.003696 0.866103 0.331232
0.004585 0.864235 0.334737
0.046681 0.863763 0.334827
0.146821 0.864991 0.335037
0.243920 0.861376 0.331144
0.312606 0.859154 0.328371
0.370729 0.860021 0.330195
0.422485 0.858446 0.330709
0.466670 0.856790 0.324666
0.507241 0.856794 0.316620
0.544639 0.855446 0.306046
0.580792 0.854921 0.288831
0.617572 0.856168 0.270025
0.651522 0.854494 0.246763
0.685073 0.851859 0.224047
0.717781 0.848898 0.197429
0.754587 0.846914 0.160542
