ml_luts/presetpro_agfa_vista__lut3d_33.cube
TITLE "AGF 11  - Vista.jpg"
DOMAIN_MIN 0.000000 0.000000 0.000000
DOMAIN_MAX 1.000000 1.000000 1.000000
LUT_3D_SIZE 9
0.000000 0.000000 0.000000
0.052494 0.000538 0.000897
0.171562 0.002174 0.008377
0.331356 0.000954 0.018658
0.525558 0.000000 0.018661
0.739757 0.002461 0.014381
0.948052 0.001518 0.012535
1.000000 0.000000 0.032795
1.000000 0.000000 0.101959
0.002991 0.054844 0.019558
0.042520 0.057921 0.002602
0.177244 0.046798 0.009846
0.336037 0.002320 0.010049
0.523596 0.001860 0.009184
0.739565 0.002301 0.001437
0.946113 0.003540 0.000565
0.996572 0.000450 0.003653
0.999103 0.003887 0.080387
0.001198 0.162956 0.036934
0.000736 0.160360 0.029494
0.177345 0.171887 0.000944
0.346695 0.153869 0.001836
0.525177 0.114982 0.000473
0.736189 0.035522 0.001736
0.945311 0.002329 0.004595
0.997079 0.000993 0.004600
0.999237 0.081947 0.029098
0.001507 0.308815 0.078857
0.002891 0.304189 0.067198
0.114852 0.311274 0.029874
0.348804 0.329503 0.002482
0.551380 0.318458 0.002277
0.737514 0.307814 0.004213
0.942387 0.306395 0.001108
0.999392 0.320967 0.000119
0.999050 0.363705 0.002415
0.001953 0.481339 0.129486
0.001276 0.478714 0.120754
0.005298 0.475597 0.096706
0.296574 0.494036 0.007570
0.560273 0.520622 0.000000
0.779362 0.523851 0.000780
0.942356 0.518047 0.000755
0.997711 0.529406 0.000999
0.996078 0.557755 0.001968
0.002987 0.665737 0.194587
0.000102 0.669045 0.186776
0.003299 0.662139 0.174734
0.263503 0.667930 0.126594
0.532505 0.689503 0.001696
0.797994 0.710743 0.002103
0.965042 0.706384 0.003230
0.996458 0.702433 0.003350
0.998493 0.709751 0.000526
0.000000 0.837044 0.331696
0.007898 0.834671 0.327790
0.037779 0.832600 0.313097
0.330234 0.826851 0.287306
0.562618 0.837788 0.222805
0.783208 0.843428 0.059277
0.967301 0.851506 0.001471
0.997061 0.837412 0.002174
0.998482 0.831169 0.000000
0.359459 0.940777 0.552464
0.396645 0.942116 0.554968
0.457192 0.940647 0.538792
0.555025 0.936566 0.521994
0.670044 0.932938 0.486302
0.815944 0.935738 0.417549
0.949202 0.937710 0.290520
0.999945 0.934210 0.014653
0.996914 0.912213 0.000897
0.733337 0.996063 0.788239
0.741180 0.992157 0.784302
0.756104 0.992920 0.784767
0.778336 0.995129 0.778507
0.821579 0.991211 0.765717
0.873131 0.991207 0.740288
0.935074 0.990517 0.674728
1.000000 0.992062 0.521080
1.000000 0.992157 0.286285
0.002991 0.018643 0.064228
0.037354 0.016897 0.052727
0.156543 0.010528 0.047055
0.331484 0.000119 0.042118
0.516411 0.000126 0.024219
0.732341 0.002298 0.001800
0.944556 0.002562 0.002039
1.000000 0.003111 0.017792
0.996517 0.000927 0.098446
0.000040 0.065674 0.073358
0.047121 0.076918 0.074003
0.179014 0.065624 0.060983
0.338092 0.028022 0.048849
0.522685 0.000581 0.022459
0.733349 0.000968 0.000505
0.938597 0.003262 0.002831
0.996282 0.001103 0.004525
0.999924 0.000062 0.084481
0.000707 0.175106 0.108051
0.022220 0.175647 0.095822
0.183994 0.181055 0.072639
0.343975 0.169937 0.043659
0.530446 0.145529 0.010580
0.734425 0.084198 0.006215
0.942606 0.016633 0.002199
0.998958 0.019744 0.002852
0.999142 0.119792 0.017270
0.003295 0.320438 0.145514
0.001211 0.321152 0.133348
0.137576 0.317536 0.110117
0.357509 0.336873 0.039073
0.549601 0.334792 0.002191
0.740174 0.321822 0.002062
0.938127 0.321743 0.002739
0.999021 0.339499 0.001030
0.999658 0.379288 0.005405
0.001709 0.490385 0.185383
0.001109 0.488521 0.180780
0.033533 0.486118 0.160804
0.307354 0.501000 0.110412
0.566600 0.524995 0.001729
0.778438 0.527240 0.000940
0.941196 0.523818 0.001255
0.999560 0.536710 0.001413
0.998152 0.561813 0.001579
0.002372 0.676288 0.251565
0.000730 0.676252 0.239889
0.002318 0.669739 0.231453
0.276121 0.671995 0.193281
0.537702 0.692805 0.089130
0.798226 0.713139 0.000519
0.963638 0.708628 0.001434
0.997384 0.706344 0.001771
0.999225 0.709970 0.002135
0.000582 0.841803 0.376556
0.005022 0.838006 0.371326
0.072509 0.836374 0.354933
0.347738 0.833027 0.332336
0.566994 0.834997 0.281985
0.784499 0.846327 0.172644
0.968799 0.853428 0.003262
0.997105 0.839589 0.002333
0.998194 0.830266 0.003441
0.392722 0.939978 0.583362
0.415165 0.946646 0.580342
0.479239 0.939109 0.572421
0.564767 0.937315 0.556271
0.675552 0.933273 0.524529
0.815356 0.935209 0.460936
0.944884 0.934851 0.352534
0.999938 0.938829 0.035932
0.999556 0.912061 0.000000
0.739892 0.991749 0.795674
0.745428 0.989626 0.796032
0.760912 0.994148 0.794045
0.784993 0.990904 0.783831
0.823141 0.991560 0.777195
0.872087 0.990532 0.753155
0.931342 0.988657 0.694434
0.998834 0.992196 0.552486
1.000000 0.992157 0.283294
0.001198 0.039665 0.163719
0.020790 0.039260 0.150296
0.149716 0.035622 0.134483
0.295947 0.038263 0.139199
0.517182 0.000378 0.138618
0.744735 0.000667 0.124528
0.946690 0.001896 0.081951
0.998527 0.001917 0.006510
0.996063 0.001518 0.079506
0.000205 0.088226 0.168637
0.033692 0.094389 0.172920
0.165758 0.100519 0.161231
0.321566 0.096872 0.155712
0.534196 0.009020 0.152505
0.742978 0.002013 0.130299
0.943854 0.002651 0.082919
0.997018 0.001183 0.003333
0.996322 0.000348 0.064498
0.001276 0.186704 0.191116
0.026541 0.189681 0.187651
0.183735 0.203147 0.188392
0.350967 0.203486 0.183010
0.541307 0.187265 0.165228
0.748280 0.156862 0.134752
0.946744 0.109091 0.072656
0.998161 0.106235 0.001966
0.999233 0.179783 0.007460
0.001273 0.332959 0.237557
0.007809 0.338086 0.237380
0.178828 0.341211 0.230935
0.357798 0.353018 0.195475
0.546352 0.351385 0.167767
0.747384 0.350339 0.126341
0.942836 0.351810 0.051504
0.999311 0.364415 0.003886
0.998259 0.395467 0.002162
0.001655 0.505764 0.303162
0.002528 0.506829 0.299816
0.107474 0.509203 0.269337
0.323217 0.510747 0.245163
0.569813 0.535730 0.183323
0.776281 0.538043 0.119617
0.939803 0.537073 0.025666
0.997565 0.550784 0.002743
0.997974 0.566448 0.001118
0.001744 0.688660 0.381023
0.002287 0.688703 0.361925
0.011945 0.688108 0.332330
0.306243 0.680561 0.313566
0.544824 0.698980 0.264119
0.799988 0.719908 0.168937
0.959814 0.715395 0.053792
0.999264 0.713261 0.001409
0.998611 0.715965 0.002172
0.007908 0.846582 0.480927
0.018025 0.843832 0.467942
0.187603 0.840790 0.457166
0.389687 0.836351 0.435882
0.574931 0.838298 0.401176
0.784967 0.848338 0.333550
0.964992 0.855329 0.208800
0.998841 0.844035 0.056888
0.999701 0.831433 0.001545
0.444028 0.942510 0.650201
0.462631 0.943069 0.648832
0.513787 0.940058 0.640234
0.591843 0.937498 0.625175
0.686776 0.932605 0.598234
0.813939 0.934684 0.555136
0.937722 0.939071 0.472046
0.998155 0.937341 0.301035
0.999014 0.915799 0.064216
0.752174 0.993568 0.815232
0.758831 0.993640 0.819600
0.771632 0.992401 0.810967
0.799822 0.991012 0.807901
0.832909 0.990471 0.803341
0.875182 0.989489 0.783046
0.932364 0.991495 0.737700
0.997567 0.991905 0.638124
0.997826 0.992699 0.304726
0.000000 0.072521 0.279827
0.000199 0.075632 0.277049
0.155505 0.078116 0.267161
0.293640 0.078055 0.254719
0.446321 0.110868 0.254051
0.698710 0.008757 0.272978
0.947662 0.002691 0.264160
0.999729 0.000579 0.239299
0.997967 0.002033 0.174549
0.000284 0.119695 0.292800
0.003593 0.127858 0.293330
0.175065 0.131371 0.289090
0.305399 0.134349 0.268376
0.463449 0.159880 0.274781
0.716834 0.055524 0.282755
0.955849 0.001386 0.274539
0.998321 0.000958 0.251859
0.998642 0.001716 0.170708
0.000838 0.205149 0.311608
0.001629 0.209489 0.309926
0.176198 0.220992 0.316892
0.327758 0.233876 0.302952
0.506818 0.250365 0.309365
0.753530 0.205750 0.311574
0.959365 0.178964 0.296372
0.997935 0.197987 0.252582
1.000000 0.229823 0.167592
0.000770 0.337466 0.341663
0.002461 0.344976 0.345865
0.171590 0.356040 0.347716
0.353211 0.373206 0.352704
0.555060 0.376864 0.346098
0.763527 0.379911 0.329158
0.952402 0.383146 0.300191
0.999012 0.398951 0.254048
0.997779 0.416817 0.158670
0.001537 0.522921 0.418264
0.002209 0.526000 0.419128
0.177142 0.530015 0.417919
0.354131 0.535364 0.401736
0.566317 0.551726 0.372614
0.766759 0.551446 0.339439
0.942569 0.555133 0.306015
0.997036 0.569884 0.258234
0.999525 0.578668 0.151447
0.001659 0.699431 0.506468
0.003532 0.702074 0.505406
0.212699 0.702916 0.502070
0.359629 0.703793 0.469084
0.550910 0.706410 0.438614
0.792969 0.729207 0.395695
0.952961 0.723880 0.348370
0.997913 0.721675 0.280392
0.997633 0.723866 0.167688
0.183651 0.848645 0.614296
0.270549 0.849906 0.618779
0.375289 0.848310 0.612512
0.450729 0.847039 0.573504
0.591320 0.840976 0.548242
0.780646 0.850812 0.511984
0.954486 0.860227 0.447272
0.999153 0.849756 0.379391
0.999862 0.835998 0.255365
0.561541 0.938185 0.753550
0.581905 0.937847 0.752428
0.580745 0.939808 0.729740
0.632598 0.938032 0.713347
0.708606 0.934787 0.696643
0.811699 0.935388 0.667921
0.927827 0.937381 0.616912
0.999490 0.937220 0.512934
0.998559 0.919545 0.385800
0.791756 0.993622 0.849110
0.790761 0.989708 0.841430
0.794904 0.992433 0.839450
0.813013 0.991136 0.837512
0.839674 0.989498 0.828485
0.878538 0.990732 0.819569
0.927805 0.989850 0.791866
0.982983 0.993650 0.730681
0.998009 0.994614 0.521125
0.000000 0.119613 0.419602
0.000345 0.122181 0.417000
0.132255 0.124889 0.411876
0.307533 0.127394 0.403017
0.453407 0.128464 0.395065
0.619097 0.175283 0.397714
0.869701 0.129776 0.432224
0.997721 0.048965 0.445454
0.998108 0.123535 0.445221
0.001049 0.155396 0.431870
0.001782 0.164290 0.432045
0.147445 0.169511 0.426542
0.319051 0.169552 0.417018
0.463073 0.176822 0.405988
0.630230 0.223746 0.410461
0.882510 0.193331 0.447114
0.995497 0.140743 0.456329
0.997028 0.218645 0.448253
0.002823 0.232346 0.441463
0.002247 0.236314 0.444066
0.133152 0.251098 0.456994
0.332475 0.257698 0.449137
0.484814 0.270184 0.436222
0.659453 0.316798 0.449016
0.911474 0.296457 0.477151
0.998511 0.290453 0.480552
0.998203 0.343262 0.464440
0.000753 0.352629 0.474857
0.004912 0.355852 0.481603
0.073677 0.365914 0.483438
0.326396 0.384171 0.490985
0.513548 0.404461 0.486908
0.712061 0.437260 0.505266
0.942201 0.431707 0.520104
0.999251 0.447783 0.509350
0.996550 0.459198 0.449362
0.000503 0.515213 0.530388
0.001696 0.518337 0.534921
0.067265 0.526737 0.534187
0.336078 0.545544 0.548487
0.548107 0.566387 0.554600
0.762972 0.575247 0.554137
0.942419 0.583633 0.540390
0.998041 0.596129 0.510507
0.998108 0.600067 0.451927
0.002070 0.711031 0.637150
0.002449 0.715211 0.633343
0.161103 0.719088 0.635028
0.408459 0.722105 0.637626
0.574025 0.723011 0.621147
0.776494 0.738945 0.602334
0.930548 0.735182 0.562307
0.999203 0.736026 0.523612
0.998632 0.737646 0.471407
0.140427 0.854530 0.720360
0.238626 0.857526 0.721305
0.371837 0.855834 0.722650
0.526882 0.853736 0.718192
0.632940 0.851044 0.700008
0.769944 0.854321 0.674081
0.932811 0.866423 0.650873
0.997922 0.856862 0.604808
0.998619 0.845821 0.519222
0.515459 0.943598 0.800728
0.542880 0.944771 0.802739
0.614795 0.940572 0.805324
0.695875 0.938309 0.805911
0.738533 0.936501 0.783481
0.810452 0.932766 0.768857
0.914250 0.937713 0.745439
0.995970 0.944374 0.697440
0.996820 0.925493 0.619982
0.785248 0.991211 0.867615
0.799522 0.991411 0.867772
0.828918 0.990662 0.873207
0.846112 0.988930 0.869947
0.857430 0.992050 0.858887
0.890499 0.989172 0.853323
0.927990 0.991020 0.839428
0.979277 0.993166 0.807005
1.000000 0.988297 0.705826
0.003921 0.174984 0.584393
0.001063 0.178050 0.582591
0.045249 0.179164 0.577076
0.300530 0.180889 0.577126
0.475447 0.179319 0.565901
0.633755 0.181955 0.562973
0.807131 0.249517 0.568283
0.994569 0.335171 0.618238
0.998493 0.387730 0.655376
0.000170 0.198003 0.592827
0.002252 0.211507 0.599111
0.060836 0.216985 0.592138
0.308742 0.217300 0.586329
0.485066 0.219356 0.576291
0.642441 0.224666 0.574819
0.814237 0.295318 0.581899
0.994253 0.369096 0.630849
0.998682 0.419488 0.664589
0.001191 0.272526 0.603136
0.002393 0.273594 0.605359
0.023457 0.286070 0.611351
0.308811 0.294025 0.612199
0.499270 0.299570 0.604557
0.661581 0.314251 0.602172
0.830693 0.385388 0.612064
0.998134 0.444163 0.656542
1.000000 0.490347 0.684771
0.001190 0.379187 0.627607
0.003062 0.380696 0.629852
0.003008 0.384951 0.633513
0.278465 0.402108 0.647109
0.511567 0.417655 0.646149
0.686117 0.441031 0.642365
0.852453 0.510978 0.661501
0.996972 0.548037 0.697203
0.999209 0.583008 0.711422
0.001627 0.528027 0.673578
0.002395 0.529451 0.677361
0.003439 0.531744 0.676662
0.230908 0.540540 0.682018
0.500917 0.560447 0.692791
0.713418 0.592512 0.698601
0.883130 0.641942 0.721867
0.997630 0.659228 0.737754
0.999523 0.678751 0.729515
0.002189 0.692218 0.729376
0.001493 0.694885 0.730376
0.005866 0.700742 0.735360
0.320385 0.708901 0.737540
0.550620 0.724422 0.748937
0.749669 0.744952 0.760612
0.914841 0.757123 0.758740
0.999852 0.766747 0.747917
0.997426 0.766470 0.722129
0.065039 0.856466 0.809307
0.156012 0.860771 0.809394
0.351263 0.859138 0.811790
0.518396 0.861366 0.813194
0.668473 0.861914 0.812513
0.784303 0.860058 0.802754
0.913740 0.871169 0.798681
0.996946 0.866454 0.772905
0.999660 0.858019 0.733420
0.530693 0.947722 0.852614
0.551422 0.947535 0.851539
0.607964 0.945406 0.848155
0.683692 0.943205 0.849208
0.773396 0.941790 0.850258
0.835817 0.939414 0.844006
0.906067 0.941474 0.831252
0.989313 0.947649 0.821762
0.998549 0.934840 0.784933
0.746079 0.997543 0.885296
0.755987 0.998188 0.883852
0.779481 0.995123 0.882762
0.826470 0.992079 0.888118
0.884701 0.991682 0.895401
0.903875 0.993827 0.887616
0.932563 0.988536 0.879110
0.976053 0.992873 0.860803
1.000000 0.991600 0.823071
0.001518 0.247826 0.776794
0.001998 0.251698 0.778780
0.002600 0.253246 0.774858
0.302186 0.252085 0.771052
0.511715 0.250877 0.765487
0.690925 0.249567 0.757341
0.848533 0.260792 0.760931
0.966651 0.374502 0.749788
0.999016 0.550346 0.794884
0.000000 0.266625 0.782155
0.001991 0.279469 0.782508
0.002582 0.279719 0.777800
0.305309 0.282984 0.774574
0.511518 0.284209 0.772754
0.696320 0.285289 0.765303
0.853900 0.301381 0.766869
0.971632 0.409199 0.754699
0.999763 0.576451 0.801214
0.002625 0.328108 0.785114
0.001435 0.326696 0.788905
0.003109 0.341373 0.791281
0.294811 0.349587 0.789076
0.514918 0.351811 0.783181
0.702282 0.362825 0.776852
0.856679 0.383166 0.778332
0.968775 0.485490 0.773724
0.997891 0.623936 0.812593
0.002336 0.425819 0.792629
0.002650 0.425183 0.795881
0.001804 0.426091 0.798703
0.235690 0.440434 0.805699
0.509852 0.454101 0.802255
0.710810 0.465934 0.796972
0.865282 0.498981 0.797139
0.966688 0.595666 0.800648
0.999332 0.686215 0.828599
0.001278 0.556316 0.814491
0.002133 0.556088 0.812098
0.002483 0.552008 0.811788
0.053292 0.548343 0.811659
0.473496 0.568754 0.820948
0.713680 0.593535 0.820623
0.869354 0.628219 0.818083
0.967989 0.708779 0.828473
0.999271 0.757439 0.847092
0.002266 0.705670 0.841325
0.004608 0.704993 0.840271
0.004367 0.704949 0.838990
0.150279 0.704982 0.836619
0.450173 0.705843 0.835930
0.699872 0.724961 0.841270
0.876219 0.758823 0.844530
0.972118 0.808713 0.851353
0.999568 0.827453 0.863121
0.000732 0.841864 0.855824
0.021888 0.842440 0.857334
0.189949 0.843435 0.856956
0.421270 0.844837 0.858853
0.606209 0.848535 0.860967
0.767555 0.856778 0.862075
0.895449 0.869792 0.867713
0.984558 0.881569 0.867716
0.998369 0.881760 0.861162
0.487985 0.946425 0.887878
0.515213 0.951115 0.888785
0.582306 0.946610 0.887910
0.675875 0.946346 0.892492
0.775087 0.945419 0.893885
0.853652 0.944363 0.892491
0.916330 0.940482 0.885993
0.980799 0.951873 0.889487
0.998840 0.945217 0.871445
0.752175 0.999245 0.920799
0.759089 0.999410 0.919847
0.785421 0.997091 0.922317
0.817945 0.996606 0.919008
0.856525 0.992065 0.919422
0.909123 0.990796 0.921076
0.943397 0.992157 0.921641
0.972902 0.992465 0.909215
0.997826 0.994545 0.887795
0.000500 0.381432 0.911709
0.016631 0.382228 0.911274
0.220449 0.382022 0.909647
0.430509 0.380646 0.910062
0.609606 0.379702 0.902788
0.775544 0.387292 0.901024
0.918199 0.403178 0.890253
0.999594 0.444040 0.891202
0.999508 0.561821 0.865143
0.009319 0.385079 0.916939
0.014986 0.400082 0.912896
0.217614 0.407518 0.911558
0.425594 0.406230 0.905179
0.609625 0.406754 0.905130
0.775258 0.411918 0.902978
0.917078 0.433895 0.895936
0.999616 0.467564 0.890054
1.000000 0.585584 0.870292
0.000931 0.433115 0.913521
0.005382 0.429994 0.914580
0.160763 0.452979 0.911156
0.416770 0.460745 0.911252
0.605692 0.462453 0.905616
0.775673 0.471464 0.900343
0.915051 0.492186 0.898037
0.999275 0.527297 0.896605
0.998335 0.637017 0.877182
0.003093 0.512805 0.913435
0.001337 0.513096 0.914869
0.013460 0.511390 0.913975
0.371819 0.533884 0.910224
0.594928 0.543763 0.910537
0.769169 0.553564 0.903679
0.910307 0.576483 0.899531
0.995866 0.612049 0.896146
0.999074 0.704422 0.884276
0.002388 0.619299 0.915745
0.002442 0.617281 0.915150
0.004532 0.609396 0.914837
0.179566 0.608414 0.914758
0.547430 0.633729 0.908978
0.755521 0.647416 0.906828
0.899446 0.667798 0.899187
0.986771 0.704308 0.896625
0.999126 0.781592 0.887129
0.001625 0.747888 0.916075
0.002101 0.745299 0.913767
0.002270 0.741918 0.915250
0.158181 0.734803 0.911471
0.432546 0.720367 0.913291
0.714826 0.740614 0.910642
0.885937 0.764563 0.904044
0.977542 0.795997 0.900721
0.999983 0.855451 0.902573
0.029215 0.859336 0.921119
0.058007 0.857558 0.922857
0.236079 0.860295 0.917563
0.408603 0.856255 0.917188
0.563723 0.849471 0.911832
0.705287 0.846719 0.910978
0.862060 0.852721 0.911979
0.967867 0.881483 0.910866
0.998957 0.915635 0.920780
0.463886 0.937744 0.926084
0.480069 0.940666 0.928876
0.542649 0.939788 0.927230
0.628893 0.937358 0.930346
0.717762 0.937172 0.927398
0.816063 0.935248 0.929454
0.901658 0.939002 0.924136
0.966450 0.952883 0.933796
0.996869 0.954013 0.931946
0.712257 0.999954 0.963875
0.724230 0.999126 0.960954
0.756531 0.998590 0.962959
0.796583 0.996424 0.963218
0.849358 0.996336 0.963486
0.901918 0.994923 0.959491
0.941337 0.994708 0.959320
0.981281 0.995989 0.965485
0.996509 0.996063 0.957298
0.552948 0.647064 0.992157
0.584255 0.653961 0.990784
0.636055 0.653923 0.986267
0.718624 0.651497 0.983334
0.806900 0.660782 0.982406
0.896122 0.670155 0.979866
0.969917 0.684304 0.972755
1.000000 0.706768 0.968544
1.000000 0.721558 0.968628
0.540825 0.647537 0.987385
0.587147 0.659766 0.990112
0.642826 0.667785 0.986215
0.715975 0.670612 0.988978
0.808871 0.674621 0.984451
0.892613 0.684714 0.975936
0.969154 0.696177 0.969287
0.999167 0.718404 0.968049
1.000000 0.735871 0.957386
0.502945 0.666435 0.994552
0.539394 0.672659 0.993176
0.634731 0.697361 0.988077
0.720009 0.700489 0.986223
0.807068 0.706810 0.983932
0.891625 0.712559 0.979111
0.963156 0.725492 0.976498
0.999989 0.743230 0.966729
1.000000 0.758812 0.960785
0.459790 0.707802 0.991630
0.494410 0.709414 0.990372
0.580577 0.716357 0.992625
0.701906 0.743400 0.986080
0.798697 0.751482 0.984312
0.881596 0.755713 0.980182
0.953656 0.763885 0.974148
0.999881 0.780453 0.970423
0.999474 0.791638 0.962292
0.337463 0.753953 0.994049
0.384649 0.757284 0.996416
0.490372 0.758816 0.996254
0.634314 0.769024 0.990906
0.776443 0.793579 0.986817
0.869801 0.802688 0.985584
0.939465 0.813511 0.977120
0.996044 0.822958 0.971977
0.999054 0.836304 0.968567
0.417236 0.836739 0.996605
0.438555 0.835995 0.996089
0.484258 0.830158 0.996393
0.554307 0.826530 0.996907
0.692669 0.824249 0.993029
0.845685 0.847862 0.987566
0.928334 0.858489 0.982864
0.987304 0.865206 0.976403
1.000000 0.880425 0.971600
0.562973 0.903916 0.998047
0.572535 0.903293 0.994629
0.609329 0.902661 0.994358
0.656680 0.899499 0.995437
0.717876 0.895508 0.995728
0.789121 0.889307 0.993301
0.907280 0.901709 0.990080
0.972561 0.912133 0.984363
1.000000 0.920357 0.976250
0.688232 0.959511 0.999546
0.696092 0.953600 0.999229
0.716995 0.953754 0.999225
0.751188 0.953818 0.998295
0.799431 0.952774 0.996956
0.845219 0.951702 0.999801
0.894482 0.949177 0.998182
0.950354 0.955606 0.992236
1.000000 0.965141 0.985794
0.764709 1.000000 1.000000
0.768582 1.000000 1.000000
0.783768 0.997047 0.996284
0.809315 0.997539 0.996590
0.843140 1.000000 0.998993
0.884766 0.994576 0.997539
0.922096 0.997047 0.994118
0.963059 0.996517 0.993592
1.000000 1.000000 1.000000
