ml_luts/presetpro_portra_400__lut3d_33.cube
TITLE "Presetpro - Portra 400.jpg"
DOMAIN_MIN 0.000000 0.000000 0.000000
DOMAIN_MAX 1.000000 1.000000 1.000000
LUT_3D_SIZE 9
0.000000 0.000000 0.000000
0.034229 0.003937 0.000000
0.135597 0.024284 0.000984
0.303417 0.027550 0.002461
0.489120 0.002975 0.002914
0.667702 0.000000 0.000000
0.817443 0.001739 0.000000
0.949326 0.007023 0.000442
1.000000 0.176483 0.000000
0.000454 0.038193 0.004769
0.020835 0.048730 0.006601
0.152685 0.083832 0.005639
0.320330 0.093384 0.001488
0.502201 0.073679 0.000595
0.673176 0.035888 0.001299
0.824123 0.037765 0.002250
0.950410 0.119256 0.003874
1.000000 0.222599 0.000000
0.000221 0.156853 0.033020
0.003786 0.158811 0.037296
0.107889 0.188089 0.015615
0.333934 0.220198 0.001044
0.527393 0.200669 0.000874
0.689896 0.194805 0.001850
0.832851 0.205406 0.000982
0.957693 0.244474 0.000570
0.999023 0.310791 0.000755
0.000950 0.311787 0.103912
0.002019 0.311064 0.113653
0.030713 0.323040 0.107578
0.279374 0.347894 0.077797
0.524490 0.382254 0.006796
0.700327 0.360410 0.000000
0.845793 0.348564 0.001492
0.958296 0.378559 0.003497
0.994953 0.421982 0.000000
0.000946 0.455857 0.185318
0.000118 0.455690 0.193916
0.030682 0.454925 0.204125
0.256155 0.478386 0.192341
0.455498 0.501526 0.164131
0.682440 0.552525 0.098654
0.831757 0.548687 0.005699
0.953665 0.526537 0.000999
1.000000 0.540223 0.003845
0.002415 0.598023 0.273113
0.004046 0.601972 0.278491
0.117909 0.602228 0.291424
0.284196 0.613082 0.290208
0.440746 0.637224 0.276811
0.616826 0.663987 0.255448
0.800293 0.713428 0.223589
0.923705 0.714937 0.162173
0.999050 0.701458 0.082134
0.090591 0.751740 0.375588
0.162986 0.746454 0.379994
0.260620 0.748499 0.390333
0.363908 0.748407 0.409247
0.476711 0.762817 0.402229
0.607964 0.780557 0.397938
0.740240 0.795078 0.389717
0.885389 0.825502 0.385152
0.991173 0.838790 0.367867
0.415165 0.856873 0.543621
0.427474 0.859480 0.549242
0.469718 0.856638 0.556842
0.522491 0.857047 0.572992
0.582222 0.863797 0.579311
0.658323 0.872675 0.581664
0.751228 0.881728 0.580081
0.844640 0.889482 0.578218
0.945107 0.914215 0.590298
0.650970 0.952942 0.749023
0.658382 0.949906 0.749355
0.678643 0.956093 0.757073
0.701466 0.952942 0.767151
0.735352 0.955902 0.781342
0.774567 0.959831 0.780396
0.819839 0.972466 0.780838
0.875496 0.979416 0.782292
0.945099 0.984314 0.788239
0.003483 0.003491 0.049011
0.040808 0.003499 0.046099
0.140733 0.000774 0.062305
0.316530 0.001970 0.058270
0.501713 0.001110 0.075527
0.673726 0.000516 0.080104
0.821975 0.002747 0.077048
0.954413 0.084139 0.092327
0.999954 0.207847 0.120048
0.000000 0.060240 0.060143
0.034060 0.067323 0.065639
0.166861 0.079895 0.069278
0.334691 0.088263 0.074790
0.513528 0.075895 0.072212
0.678978 0.060644 0.072271
0.829583 0.083775 0.076684
0.955077 0.158143 0.086398
0.999943 0.246746 0.116538
0.000607 0.182095 0.110159
0.002046 0.183598 0.110673
0.140770 0.200244 0.099319
0.356400 0.216698 0.068392
0.535690 0.205882 0.053737
0.692483 0.203204 0.054476
0.833512 0.221589 0.061554
0.960836 0.261026 0.072939
0.998252 0.327134 0.111235
0.000047 0.325428 0.162710
0.000429 0.324810 0.163728
0.106082 0.335254 0.173216
0.303946 0.356169 0.152761
0.536367 0.385634 0.109706
0.707135 0.359973 0.038419
0.846488 0.358203 0.021672
0.959632 0.387150 0.040924
0.997841 0.433781 0.087274
0.001102 0.465809 0.229235
0.003847 0.465133 0.235054
0.129346 0.465065 0.247980
0.288046 0.484095 0.238678
0.472805 0.509689 0.217918
0.691208 0.554328 0.176229
0.833076 0.548186 0.097853
0.955986 0.527892 0.013724
0.999826 0.547318 0.035606
0.000336 0.609920 0.304289
0.015369 0.609219 0.303975
0.187207 0.608082 0.318114
0.316507 0.618241 0.326547
0.460917 0.640988 0.311530
0.622706 0.668245 0.296061
0.805444 0.713502 0.272029
0.923687 0.713807 0.219206
0.999898 0.701311 0.162033
0.169471 0.752139 0.397848
0.214112 0.752605 0.409777
0.293008 0.750460 0.415151
0.387857 0.750952 0.431181
0.491375 0.764893 0.429357
0.618859 0.778910 0.422939
0.745901 0.796164 0.417005
0.887074 0.825585 0.420605
0.986147 0.840311 0.398931
0.428554 0.859961 0.558005
0.444633 0.859662 0.564209
0.480209 0.859750 0.569789
0.533726 0.857630 0.591210
0.595229 0.863139 0.602296
0.668104 0.871559 0.602229
0.750298 0.882948 0.596370
0.845087 0.893782 0.590397
0.946123 0.916399 0.605115
0.654010 0.952988 0.758041
0.660547 0.949888 0.749577
0.682437 0.952950 0.759776
0.701767 0.953329 0.768764
0.737600 0.950350 0.784220
0.776460 0.958046 0.780288
0.824781 0.966693 0.787964
0.876631 0.976701 0.791763
0.937256 0.984314 0.795987
0.001518 0.004906 0.163719
0.036063 0.003089 0.166839
0.162853 0.007303 0.182655
0.303248 0.002077 0.186281
0.497486 0.002216 0.182472
0.679199 0.001587 0.188969
0.824342 0.091333 0.228091
0.951715 0.179297 0.241970
0.997826 0.268410 0.260323
0.003917 0.085065 0.179736
0.012244 0.082533 0.190443
0.175712 0.094214 0.204528
0.330175 0.084916 0.199238
0.518950 0.052009 0.198184
0.684950 0.110415 0.219880
0.830184 0.170324 0.237490
0.952381 0.221424 0.244911
0.999806 0.296253 0.260096
0.001797 0.201647 0.201614
0.002007 0.209281 0.212049
0.198559 0.222388 0.225012
0.377563 0.231247 0.226003
0.544971 0.236210 0.231687
0.699912 0.247032 0.230521
0.836733 0.264238 0.235015
0.953403 0.305464 0.242826
0.997465 0.361635 0.253491
0.006463 0.347993 0.258410
0.119686 0.354636 0.268656
0.215267 0.355699 0.270842
0.358457 0.375466 0.266930
0.559829 0.385074 0.238811
0.717979 0.369713 0.221165
0.847206 0.383674 0.220593
0.954039 0.412331 0.229203
0.998111 0.456458 0.252379
0.159531 0.485130 0.322918
0.177869 0.487216 0.318353
0.244974 0.487014 0.320076
0.354011 0.498194 0.325988
0.510271 0.522785 0.316168
0.702260 0.561851 0.286352
0.842703 0.545871 0.240363
0.957282 0.535243 0.212548
0.999748 0.563202 0.229767
0.185454 0.624088 0.374951
0.205070 0.626450 0.372416
0.278665 0.626403 0.376962
0.377323 0.625143 0.391012
0.494699 0.648407 0.386573
0.645914 0.674511 0.378755
0.811594 0.717780 0.359734
0.923137 0.714350 0.315359
0.999571 0.695054 0.267474
0.271717 0.758338 0.446680
0.298841 0.758495 0.453880
0.356572 0.758134 0.463408
0.435863 0.756034 0.480360
0.525215 0.765524 0.491210
0.634128 0.784407 0.485311
0.752502 0.799295 0.479925
0.890853 0.830917 0.485801
0.985300 0.839176 0.459263
0.462555 0.863700 0.588815
0.480165 0.861416 0.594437
0.509361 0.861155 0.602828
0.558592 0.863337 0.617131
0.615877 0.862804 0.635355
0.681387 0.872500 0.637966
0.760249 0.882468 0.637395
0.847710 0.892158 0.631910
0.949385 0.916200 0.646746
0.662971 0.952713 0.762306
0.666556 0.955193 0.763469
0.683929 0.953564 0.771463
0.713255 0.954924 0.781285
0.741142 0.953541 0.790093
0.782439 0.959640 0.798417
0.826813 0.967081 0.801029
0.881218 0.979849 0.805136
0.944214 0.988983 0.807396
0.000526 0.022621 0.304428
0.001964 0.019810 0.310432
0.171606 0.029423 0.325242
0.355660 0.017354 0.345028
0.488943 0.001701 0.325010
0.654507 0.001279 0.321042
0.817553 0.001500 0.323582
0.953837 0.043544 0.334984
1.000000 0.286743 0.382294
0.000199 0.096051 0.317362
0.003537 0.102829 0.327883
0.184996 0.115642 0.336905
0.369575 0.123035 0.351518
0.501216 0.113068 0.337024
0.667308 0.095779 0.334737
0.827779 0.083465 0.335090
0.956893 0.184791 0.351891
0.998839 0.342384 0.400961
0.000792 0.219791 0.326264
0.000258 0.227206 0.335303
0.200134 0.234531 0.351257
0.392113 0.252876 0.371966
0.531792 0.248486 0.359252
0.696425 0.244008 0.357244
0.841302 0.275191 0.365789
0.950276 0.354359 0.396536
0.998309 0.414945 0.408883
0.003519 0.357715 0.355954
0.037779 0.366118 0.353334
0.246910 0.379585 0.373460
0.424882 0.396927 0.399644
0.583036 0.398458 0.391414
0.722206 0.409679 0.393923
0.846295 0.426187 0.392395
0.951855 0.453239 0.394540
0.996639 0.493072 0.402728
0.168737 0.506073 0.395796
0.237710 0.510854 0.410513
0.355678 0.516499 0.426049
0.444206 0.523543 0.436778
0.560240 0.545664 0.435626
0.723392 0.560648 0.409202
0.849368 0.546810 0.382369
0.948731 0.559787 0.381569
0.998134 0.585938 0.392189
0.341980 0.643796 0.478880
0.371118 0.646227 0.483499
0.407004 0.650941 0.482518
0.457573 0.652164 0.483148
0.548098 0.661421 0.493299
0.671937 0.688743 0.488554
0.819768 0.721350 0.473620
0.926950 0.707174 0.424591
0.999168 0.693134 0.388763
0.419284 0.768424 0.552442
0.430292 0.764967 0.550100
0.446980 0.769262 0.546685
0.498798 0.769671 0.553399
0.572029 0.770017 0.574381
0.660001 0.787727 0.574673
0.768137 0.804169 0.573174
0.892016 0.833609 0.577362
0.987176 0.835568 0.542082
0.524972 0.865044 0.652099
0.532039 0.865721 0.647097
0.545950 0.865852 0.651229
0.590318 0.864564 0.660855
0.642603 0.865106 0.679803
0.700399 0.872647 0.686067
0.771318 0.883396 0.688096
0.852736 0.894147 0.687327
0.952295 0.919710 0.701620
0.676945 0.954445 0.781902
0.678767 0.952507 0.780682
0.693932 0.956231 0.784719
0.715511 0.956922 0.795073
0.750185 0.957340 0.806357
0.786337 0.959548 0.816380
0.830023 0.967551 0.818542
0.884477 0.978782 0.821968
0.950882 0.986755 0.826359
0.000000 0.055908 0.434265
0.000095 0.065550 0.438427
0.150566 0.072662 0.456077
0.373947 0.087118 0.481680
0.553284 0.084213 0.500336
0.661072 0.073788 0.471615
0.790737 0.096619 0.465225
0.931755 0.135252 0.475954
0.998993 0.224533 0.485276
0.002745 0.124532 0.444450
0.002844 0.127732 0.449051
0.171788 0.142470 0.462566
0.384452 0.161357 0.487672
0.563191 0.167554 0.506751
0.663639 0.164027 0.479530
0.800315 0.171513 0.474009
0.934551 0.199758 0.478244
0.998093 0.270256 0.489727
0.000870 0.246658 0.452389
0.003973 0.242030 0.464503
0.195877 0.245631 0.473969
0.405333 0.270778 0.500963
0.577663 0.290209 0.520996
0.683080 0.282668 0.495990
0.813045 0.288187 0.494164
0.940882 0.309542 0.493592
0.997509 0.365513 0.501774
0.001331 0.359190 0.457518
0.004664 0.366946 0.461901
0.223400 0.374991 0.479654
0.417803 0.396533 0.513991
0.594817 0.425373 0.546028
0.704240 0.420685 0.524804
0.836106 0.423900 0.520486
0.946173 0.451081 0.526403
0.999260 0.523704 0.553413
0.078270 0.506431 0.496147
0.179775 0.511065 0.503692
0.309464 0.523102 0.516277
0.456533 0.541217 0.539524
0.607319 0.569023 0.569813
0.733802 0.572126 0.562763
0.843920 0.583151 0.561539
0.934901 0.599982 0.558373
0.999497 0.624977 0.563721
0.286610 0.657276 0.552757
0.327156 0.660359 0.556002
0.416473 0.665992 0.567582
0.528698 0.674543 0.591817
0.613489 0.682392 0.608515
0.702910 0.704951 0.614352
0.827004 0.715477 0.589740
0.931327 0.698301 0.549863
0.999523 0.709348 0.552132
0.452221 0.775383 0.627743
0.478150 0.777034 0.634774
0.529049 0.777561 0.646120
0.580248 0.781169 0.651308
0.623865 0.783104 0.656794
0.694863 0.791390 0.671188
0.784027 0.809903 0.669036
0.896059 0.832382 0.668165
0.987400 0.829831 0.626797
0.589941 0.870064 0.721352
0.600533 0.866575 0.724963
0.608845 0.869863 0.722499
0.630603 0.869870 0.718805
0.669123 0.871138 0.724200
0.722935 0.872847 0.738972
0.785257 0.885411 0.745366
0.861234 0.896997 0.745567
0.960354 0.923266 0.755106
0.700881 0.954895 0.818588
0.703061 0.957747 0.811619
0.711799 0.956756 0.816414
0.727684 0.958822 0.818592
0.756828 0.958351 0.821670
0.797075 0.961702 0.836592
0.836632 0.969452 0.842461
0.888659 0.977823 0.841631
0.955979 0.988220 0.846176
0.000000 0.107357 0.570599
0.000385 0.107105 0.574658
0.133791 0.119644 0.590618
0.369837 0.133955 0.613873
0.574824 0.164366 0.644794
0.727442 0.179713 0.663101
0.808164 0.178696 0.631905
0.916797 0.225580 0.626747
0.999050 0.295570 0.628487
0.001985 0.158553 0.576181
0.003080 0.162145 0.581644
0.164144 0.174583 0.595109
0.381337 0.190433 0.616833
0.581119 0.220652 0.649194
0.729846 0.237247 0.670579
0.813306 0.237873 0.639087
0.916420 0.268682 0.627942
0.999843 0.330191 0.635413
0.000377 0.255567 0.584112
0.001886 0.252397 0.592612
0.195131 0.264714 0.599414
0.398192 0.284697 0.625901
0.592132 0.318012 0.657334
0.733386 0.341511 0.676417
0.816653 0.337313 0.649575
0.916422 0.357681 0.640697
0.998629 0.405081 0.643378
0.003173 0.372331 0.574251
0.016306 0.377938 0.584076
0.239702 0.387130 0.611965
0.406118 0.396590 0.633016
0.596048 0.434802 0.669601
0.739463 0.470459 0.692218
0.818945 0.462651 0.667516
0.915393 0.470194 0.654670
0.999609 0.507639 0.660868
0.002848 0.499140 0.600756
0.080133 0.500438 0.605254
0.247713 0.508874 0.610279
0.406092 0.523048 0.632934
0.588094 0.556812 0.676062
0.739355 0.604456 0.712203
0.820572 0.592811 0.687683
0.916620 0.601740 0.681688
0.998014 0.626970 0.685692
0.200142 0.652187 0.645709
0.255717 0.654753 0.649879
0.355574 0.660680 0.658748
0.475756 0.675398 0.674231
0.611235 0.693845 0.699954
0.735651 0.722283 0.730007
0.829073 0.724573 0.722430
0.913412 0.731015 0.713936
0.991964 0.744155 0.715332
0.392114 0.783644 0.695383
0.421616 0.784880 0.692622
0.479854 0.786540 0.702811
0.567289 0.790290 0.717454
0.667027 0.797118 0.739528
0.734614 0.803744 0.755134
0.806468 0.819969 0.761983
0.897959 0.828958 0.749198
0.994404 0.813838 0.709625
0.560199 0.873344 0.758441
0.576197 0.874247 0.757916
0.612200 0.873785 0.769577
0.662987 0.874123 0.778703
0.713941 0.877634 0.788017
0.746278 0.876697 0.789964
0.800445 0.885302 0.803990
0.875856 0.900835 0.801901
0.968012 0.924573 0.805557
0.707779 0.957802 0.850029
0.714665 0.959364 0.849034
0.733684 0.962620 0.850257
0.753714 0.962572 0.854657
0.772369 0.964691 0.854067
0.800192 0.966767 0.857716
0.846288 0.969473 0.873060
0.895228 0.980920 0.870238
0.958927 0.989696 0.874535
0.002937 0.166679 0.726486
0.000410 0.170926 0.727967
0.172341 0.180509 0.737667
0.396294 0.195727 0.755602
0.583420 0.223938 0.775120
0.746387 0.282759 0.798423
0.857926 0.311693 0.806669
0.920523 0.311978 0.778205
1.000000 0.374504 0.774513
0.000662 0.209411 0.729038
0.002218 0.211447 0.733492
0.198676 0.222276 0.740832
0.401215 0.236433 0.756193
0.585552 0.266137 0.777695
0.748973 0.323945 0.799969
0.858815 0.348219 0.809131
0.922929 0.345355 0.782167
0.999989 0.405138 0.773361
0.001282 0.283125 0.731300
0.001565 0.284787 0.734263
0.216491 0.296833 0.741357
0.413658 0.313211 0.755886
0.591054 0.345190 0.777452
0.748258 0.401789 0.799836
0.854400 0.430567 0.807705
0.916183 0.427012 0.785084
0.993919 0.467274 0.775814
0.002516 0.401701 0.726011
0.081965 0.402608 0.728946
0.222882 0.393779 0.745682
0.412089 0.408875 0.758369
0.591515 0.443966 0.779997
0.746112 0.505872 0.802904
0.846826 0.541832 0.812374
0.906787 0.531474 0.788547
0.983739 0.556249 0.782240
0.002003 0.500538 0.711525
0.002085 0.502167 0.717489
0.196956 0.507578 0.723357
0.402383 0.524516 0.752275
0.570185 0.546305 0.777554
0.734517 0.608514 0.806927
0.837883 0.650862 0.817531
0.897075 0.639383 0.800569
0.977512 0.648418 0.793362
0.016657 0.639251 0.739606
0.092279 0.638955 0.739212
0.244125 0.639411 0.741881
0.384902 0.646145 0.746771
0.531443 0.656464 0.760475
0.709540 0.701365 0.799853
0.835511 0.748658 0.829981
0.895090 0.736588 0.810410
0.977711 0.743564 0.809498
0.287843 0.776939 0.768211
0.328052 0.777277 0.777153
0.399239 0.778268 0.776323
0.501472 0.784491 0.785543
0.612203 0.791628 0.798587
0.727958 0.806363 0.816966
0.829295 0.830973 0.839654
0.902943 0.829652 0.835725
0.983147 0.834517 0.830429
0.506051 0.879713 0.807616
0.526576 0.877296 0.811143
0.559081 0.880850 0.813713
0.624599 0.880256 0.819284
0.694678 0.884626 0.829028
0.772668 0.888376 0.842177
0.830419 0.893068 0.852700
0.892546 0.905343 0.861947
0.972084 0.919638 0.856204
0.676468 0.968414 0.878212
0.684765 0.968550 0.878221
0.705904 0.966003 0.878101
0.734453 0.969675 0.883563
0.778038 0.969696 0.886898
0.822889 0.973828 0.895547
0.857418 0.974070 0.898571
0.905739 0.981697 0.904136
0.972534 0.992157 0.901520
0.060513 0.257836 0.864716
0.176649 0.267087 0.865267
0.321902 0.274055 0.865506
0.474002 0.290752 0.875833
0.621390 0.320942 0.881018
0.759027 0.375641 0.893329
0.873977 0.456667 0.899337
0.949629 0.485365 0.902155
0.999119 0.477898 0.886467
0.092446 0.290855 0.864236
0.193277 0.293609 0.864557
0.329485 0.300971 0.867823
0.480016 0.319309 0.876193
0.624608 0.349857 0.884047
0.760328 0.402523 0.892980
0.872887 0.485964 0.903536
0.947227 0.509899 0.900689
0.998468 0.504425 0.885186
0.101862 0.349308 0.863248
0.202287 0.352402 0.866841
0.334446 0.362845 0.866046
0.480071 0.378582 0.873169
0.623821 0.409958 0.880789
0.756843 0.464400 0.887262
0.868748 0.544414 0.901624
0.937276 0.565234 0.901633
0.991809 0.553699 0.884682
0.132021 0.439434 0.857702
0.189043 0.434559 0.860002
0.314197 0.438572 0.867410
0.467614 0.455872 0.871755
0.619254 0.489208 0.878226
0.749764 0.544792 0.890236
0.862157 0.615860 0.900556
0.927650 0.639429 0.902318
0.977554 0.622979 0.884342
0.060793 0.546972 0.849930
0.163144 0.544490 0.853023
0.312205 0.549041 0.856519
0.436503 0.547418 0.868063
0.589217 0.571827 0.873081
0.738893 0.623557 0.887691
0.846472 0.690105 0.896468
0.920921 0.713431 0.901532
0.964516 0.700495 0.887047
0.002299 0.648331 0.843408
0.002097 0.648533 0.843296
0.109247 0.645205 0.841030
0.337582 0.647047 0.847927
0.543188 0.665594 0.865733
0.699725 0.695120 0.880553
0.832522 0.753883 0.897275
0.915469 0.786994 0.905656
0.963107 0.774959 0.892832
0.163101 0.775571 0.855771
0.215317 0.772158 0.853811
0.301865 0.774903 0.858208
0.411205 0.773371 0.858733
0.524889 0.773575 0.858403
0.646099 0.775612 0.863402
0.802403 0.810041 0.892006
0.912908 0.851255 0.917543
0.969368 0.838515 0.900040
0.421193 0.880188 0.875981
0.445219 0.877587 0.879061
0.486317 0.879509 0.873613
0.553694 0.879876 0.876434
0.634274 0.881400 0.883546
0.722348 0.883808 0.888744
0.814672 0.892929 0.893034
0.912726 0.916729 0.924098
0.988600 0.914734 0.920398
0.626457 0.972988 0.911308
0.633392 0.981042 0.914058
0.654076 0.976061 0.917014
0.689964 0.978542 0.915522
0.740862 0.979141 0.922693
0.794368 0.980632 0.924098
0.862540 0.985417 0.937089
0.920962 0.987369 0.942528
0.983875 0.998184 0.946083
0.482361 0.450989 0.980377
0.505382 0.461823 0.979008
0.557404 0.469826 0.970581
0.638202 0.492119 0.974041
0.727386 0.520553 0.975464
0.818623 0.563728 0.974964
0.895325 0.619392 0.977013
0.967705 0.678478 0.979416
1.000000 0.686279 0.980377
0.483719 0.474503 0.974018
0.506690 0.481100 0.976157
0.562154 0.490497 0.980096
0.638411 0.507477 0.978357
0.724716 0.538849 0.977234
0.815042 0.582189 0.978764
0.893550 0.637530 0.981780
0.957650 0.692537 0.977141
0.999462 0.697541 0.979889
0.484756 0.521782 0.974732
0.510881 0.522230 0.974195
0.558529 0.535499 0.971727
0.639211 0.548733 0.977442
0.726425 0.580341 0.974518
0.808786 0.620805 0.974797
0.889380 0.665109 0.975868
0.954773 0.713922 0.977867
1.000000 0.719162 0.971344
0.470169 0.578384 0.974567
0.496941 0.581822 0.973906
0.552374 0.590713 0.974169
0.626654 0.607542 0.970731
0.716068 0.633032 0.974171
0.803916 0.665438 0.975057
0.883216 0.705964 0.975420
0.950965 0.747933 0.975474
1.000000 0.752934 0.977417
0.477280 0.675385 0.968567
0.496748 0.674801 0.971716
0.533207 0.668629 0.972984
0.597223 0.666240 0.973419
0.694184 0.685700 0.973976
0.791996 0.715216 0.977554
0.873543 0.749866 0.976154
0.945519 0.785536 0.976318
0.998993 0.792160 0.981339
0.389763 0.751419 0.966167
0.418386 0.753657 0.967936
0.477611 0.751651 0.970199
0.565217 0.752131 0.972543
0.654447 0.749394 0.973488
0.757857 0.763141 0.975507
0.860876 0.794876 0.979973
0.940841 0.826970 0.982306
0.997585 0.835820 0.980919
0.404908 0.844139 0.969383
0.423363 0.842800 0.973230
0.455939 0.839415 0.971218
0.506955 0.836528 0.974286
0.589351 0.829121 0.971153
0.711917 0.826945 0.978229
0.822935 0.837665 0.982553
0.934289 0.865787 0.982350
0.997047 0.882118 0.982674
0.523544 0.926071 0.980442
0.533134 0.924227 0.980475
0.555008 0.927152 0.982482
0.587909 0.922081 0.980455
0.642506 0.920817 0.981949
0.697838 0.917086 0.983883
0.774513 0.908512 0.986042
0.900458 0.909544 0.991721
0.999451 0.938240 0.999023
0.623535 1.000000 0.992157
0.638241 1.000000 0.996063
0.644882 0.997047 0.989983
0.675480 0.999050 0.992161
0.710815 1.000000 0.993164
0.765629 0.998493 0.995548
0.824296 0.999245 0.992378
0.902985 0.999508 0.992695
1.000000 1.000000 1.000000
