ml_luts/presetpro_warm_tones__lut3d_33.cube
TITLE "Presetpro - Warm Tones.jpg"
DOMAIN_MIN 0.000000 0.000000 0.000000
DOMAIN_MAX 1.000000 1.000000 1.000000
LUT_3D_SIZE 9
0.003937 0.003937 0.000000
0.046578 0.008251 0.003445
0.108597 0.028977 0.010338
0.222500 0.030403 0.016723
0.399994 0.001953 0.020691
0.596115 0.000950 0.016109
0.766678 0.000763 0.003708
0.903534 0.004318 0.000141
1.000000 0.196075 0.000000
0.003036 0.050942 0.032940
0.026202 0.068675 0.010251
0.121896 0.073385 0.007940
0.247376 0.070554 0.017519
0.420219 0.030029 0.015604
0.611770 0.001495 0.007329
0.775676 0.004607 0.001602
0.909092 0.071508 0.005571
0.999557 0.238727 0.000000
0.002937 0.137459 0.059128
0.002488 0.141575 0.068281
0.064907 0.174627 0.034493
0.280910 0.191295 0.004710
0.471180 0.153931 0.001324
0.645468 0.138026 0.002233
0.798870 0.154506 0.000835
0.916383 0.227693 0.001285
0.997047 0.328751 0.002617
0.000000 0.272148 0.099579
0.000000 0.271942 0.101879
0.001234 0.294751 0.083376
0.200438 0.341690 0.007627
0.511765 0.373400 0.002464
0.687946 0.335382 0.000987
0.819526 0.326716 0.001527
0.927563 0.371058 0.001718
0.997539 0.437240 0.002842
0.000000 0.436233 0.141098
0.002062 0.435646 0.147022
0.002926 0.437927 0.149650
0.072495 0.474977 0.093548
0.425026 0.516197 0.001961
0.708454 0.557755 0.000706
0.829437 0.534874 0.000614
0.932383 0.521021 0.002285
0.997086 0.547058 0.002975
0.001041 0.592228 0.212166
0.005250 0.588931 0.215616
0.002081 0.587237 0.219780
0.110975 0.600840 0.197124
0.396173 0.630411 0.139042
0.628932 0.659963 0.013272
0.830667 0.700546 0.002806
0.926305 0.691814 0.000403
0.998524 0.681877 0.000000
0.033691 0.722343 0.324737
0.064742 0.721425 0.322117
0.205025 0.719721 0.326681
0.325604 0.717192 0.333630
0.460358 0.733795 0.299312
0.615440 0.754617 0.251780
0.763102 0.774561 0.154940
0.913949 0.811895 0.003937
1.000000 0.813950 0.000000
0.437855 0.828919 0.477360
0.448787 0.826870 0.478088
0.479922 0.827627 0.485730
0.524059 0.827950 0.489280
0.578623 0.831360 0.483942
0.653251 0.849782 0.455080
0.748082 0.865351 0.414305
0.856341 0.884553 0.339064
0.984161 0.911262 0.203041
0.639221 0.941162 0.666656
0.640640 0.941174 0.660297
0.654365 0.940628 0.664932
0.676498 0.943623 0.679504
0.708847 0.944092 0.688232
0.745227 0.956848 0.678467
0.789665 0.970047 0.655876
0.856778 0.983875 0.626899
0.945099 1.000000 0.564697
0.003036 0.011334 0.068275
0.040924 0.019585 0.066157
0.111769 0.032530 0.068815
0.231072 0.039273 0.079997
0.404980 0.008596 0.092743
0.604035 0.001217 0.087261
0.767135 0.000341 0.076865
0.901723 0.014096 0.066750
0.999954 0.219127 0.048954
0.001177 0.068566 0.082987
0.029589 0.073020 0.080843
0.113081 0.087534 0.081342
0.250077 0.086252 0.086980
0.427894 0.058540 0.084326
0.619125 0.002716 0.083442
0.780071 0.003972 0.074050
0.908338 0.117376 0.052717
0.997383 0.257406 0.037052
0.000454 0.155013 0.117253
0.001745 0.156803 0.109744
0.078027 0.182195 0.097003
0.287937 0.186073 0.077540
0.474838 0.164997 0.070879
0.651558 0.155922 0.062385
0.797003 0.175654 0.045525
0.918122 0.241346 0.016290
0.999339 0.335774 0.001440
0.000318 0.290825 0.142348
0.000579 0.291413 0.141601
0.002001 0.299748 0.136095
0.226861 0.346573 0.082065
0.519869 0.370803 0.005682
0.689990 0.331479 0.001643
0.819511 0.335323 0.001210
0.927564 0.381346 0.002104
0.997505 0.438854 0.002405
0.001259 0.450886 0.181679
0.001251 0.449497 0.182737
0.003465 0.446005 0.190415
0.129624 0.479789 0.156980
0.446018 0.518495 0.053656
0.707782 0.556183 0.001862
0.830788 0.532616 0.000651
0.934281 0.520316 0.001806
0.998606 0.551117 0.001867
0.001869 0.599281 0.247237
0.003461 0.598066 0.248267
0.003482 0.595683 0.247556
0.185894 0.604410 0.242304
0.416088 0.631938 0.192695
0.637388 0.661573 0.086597
0.832663 0.699337 0.002799
0.926478 0.687769 0.002973
0.999798 0.677776 0.000849
0.108061 0.725131 0.343653
0.164279 0.725494 0.347620
0.259822 0.721879 0.353498
0.361271 0.720212 0.358304
0.480627 0.734727 0.332129
0.620318 0.754412 0.288044
0.765977 0.776469 0.211516
0.919427 0.812324 0.030288
0.999339 0.810400 0.000358
0.452996 0.827561 0.490280
0.464498 0.831040 0.492607
0.495593 0.830685 0.496821
0.539244 0.828816 0.506228
0.589478 0.832481 0.506161
0.658415 0.848668 0.475679
0.752130 0.868153 0.433676
0.856330 0.886289 0.362759
0.989944 0.911431 0.250788
0.647064 0.941162 0.677456
0.644966 0.937739 0.674504
0.663254 0.942558 0.675715
0.682909 0.942979 0.686099
0.711284 0.944630 0.692606
0.744367 0.954879 0.683783
0.792582 0.965795 0.665309
0.857514 0.982990 0.635199
0.944218 0.996063 0.582943
0.000763 0.028221 0.161003
0.020329 0.033817 0.158231
0.113226 0.048428 0.160553
0.237333 0.043293 0.159284
0.430874 0.003021 0.156463
0.620524 0.001056 0.162959
0.772621 0.007477 0.187717
0.901175 0.124737 0.188239
0.999779 0.252952 0.192017
0.001011 0.078754 0.168797
0.016445 0.087672 0.176082
0.120904 0.097647 0.174269
0.257758 0.096911 0.167686
0.447131 0.052621 0.169444
0.626508 0.058289 0.185012
0.778264 0.101108 0.189806
0.906724 0.177477 0.185763
0.995528 0.287116 0.187487
0.001167 0.172294 0.178746
0.000907 0.179536 0.184238
0.120124 0.194596 0.191841
0.297026 0.197352 0.192581
0.478228 0.198597 0.188515
0.652834 0.195840 0.184214
0.798768 0.217710 0.180558
0.912835 0.275698 0.173828
0.998316 0.356571 0.175430
0.000270 0.317676 0.225561
0.002149 0.323969 0.233156
0.099890 0.325698 0.228879
0.288320 0.356615 0.205391
0.533140 0.359389 0.172152
0.693032 0.337239 0.162630
0.820031 0.356109 0.152446
0.920701 0.395795 0.149964
0.998398 0.451947 0.152771
0.007881 0.474903 0.278473
0.015989 0.475206 0.271032
0.071392 0.471917 0.263505
0.245533 0.487170 0.255544
0.483806 0.525356 0.206301
0.716537 0.552302 0.143992
0.834423 0.526665 0.116566
0.932605 0.521782 0.091557
0.998924 0.554966 0.101181
0.051742 0.613376 0.327841
0.070182 0.613115 0.325589
0.170101 0.612126 0.318134
0.303797 0.609215 0.322341
0.459810 0.635823 0.291768
0.655572 0.663920 0.240632
0.834953 0.698117 0.153174
0.926926 0.684777 0.108313
0.999359 0.672137 0.067115
0.289375 0.729073 0.405527
0.305640 0.731107 0.403695
0.351624 0.728928 0.408359
0.424685 0.725260 0.412712
0.514483 0.735329 0.400884
0.637008 0.757186 0.368605
0.772128 0.780006 0.314242
0.920303 0.812228 0.227365
1.000000 0.810625 0.186453
0.492271 0.832700 0.528099
0.503612 0.832706 0.530115
0.526201 0.832323 0.530183
0.563503 0.832225 0.538759
0.609685 0.833286 0.542717
0.671525 0.850098 0.523001
0.757837 0.866223 0.487126
0.858471 0.885601 0.434004
0.991595 0.912459 0.345015
0.654373 0.938988 0.687256
0.658704 0.941872 0.689016
0.668543 0.940109 0.694521
0.688699 0.943150 0.701739
0.722152 0.943615 0.710701
0.754602 0.954923 0.704726
0.798996 0.969090 0.687985
0.860322 0.984604 0.658261
0.941162 0.996063 0.614708
0.000000 0.049503 0.285797
0.000474 0.057473 0.286606
0.134391 0.068711 0.293972
0.301661 0.067243 0.304416
0.454479 0.020039 0.285736
0.650793 0.001476 0.280193
0.806742 0.000608 0.274879
0.925332 0.017906 0.281719
1.000000 0.268646 0.318585
0.003538 0.103584 0.298345
0.001148 0.108569 0.296365
0.155065 0.121026 0.304716
0.314152 0.127974 0.310422
0.470609 0.105329 0.296107
0.660274 0.046947 0.292970
0.807544 0.010456 0.282730
0.918249 0.152223 0.295825
0.996803 0.319992 0.332812
0.000558 0.194972 0.305786
0.001344 0.196664 0.312322
0.155372 0.215071 0.318892
0.337095 0.235065 0.327563
0.505756 0.227649 0.316693
0.677207 0.209830 0.307535
0.805861 0.237707 0.307449
0.907118 0.320265 0.321816
0.996836 0.392465 0.328607
0.001190 0.339451 0.320689
0.003601 0.346201 0.325390
0.172288 0.355676 0.331883
0.362145 0.371893 0.340761
0.542957 0.370670 0.334767
0.689960 0.378531 0.330453
0.813365 0.393563 0.325484
0.915477 0.422919 0.320538
0.997567 0.473082 0.323003
0.075970 0.500231 0.363043
0.176153 0.503119 0.364980
0.307826 0.505048 0.381032
0.392148 0.508554 0.378440
0.542107 0.535311 0.358876
0.721260 0.538901 0.327110
0.834004 0.520995 0.308684
0.925452 0.535795 0.303669
0.998940 0.566837 0.308399
0.347700 0.631687 0.440123
0.375643 0.633301 0.445538
0.403190 0.633280 0.436523
0.434338 0.630034 0.425267
0.526249 0.640043 0.413302
0.679884 0.669005 0.383041
0.836033 0.692570 0.341599
0.928409 0.673040 0.313057
0.999764 0.664407 0.285446
0.468542 0.736670 0.512796
0.472639 0.739722 0.504429
0.477004 0.737696 0.496455
0.512299 0.735704 0.493184
0.569640 0.735076 0.492779
0.660379 0.757329 0.471102
0.780892 0.780726 0.435080
0.922905 0.812280 0.384616
0.999717 0.801370 0.351511
0.566557 0.836810 0.594328
0.566742 0.835433 0.589896
0.575378 0.836993 0.589162
0.601261 0.837474 0.584272
0.641648 0.834045 0.592684
0.691079 0.846858 0.586625
0.764472 0.867375 0.558983
0.861909 0.885193 0.516069
0.993742 0.918409 0.454786
0.672512 0.944145 0.717152
0.674046 0.945970 0.716542
0.681229 0.945661 0.714825
0.702516 0.946755 0.722637
0.729822 0.948729 0.726891
0.763274 0.951991 0.732025
0.801797 0.967701 0.715489
0.863059 0.983014 0.690436
0.947094 0.994061 0.654373
0.002014 0.079392 0.433334
0.000118 0.085132 0.435062
0.178379 0.092388 0.441117
0.377449 0.099045 0.455376
0.555336 0.085724 0.464569
0.675793 0.051506 0.438303
0.823276 0.092228 0.439590
0.933579 0.158068 0.433391
0.999054 0.240234 0.428405
0.001408 0.134199 0.441422
0.003093 0.137606 0.445289
0.201507 0.145243 0.450750
0.393170 0.160114 0.461280
0.563828 0.162206 0.469834
0.678043 0.151559 0.444062
0.826567 0.181263 0.440357
0.929987 0.219692 0.436926
0.997875 0.279638 0.431015
0.001705 0.224418 0.449509
0.002527 0.229722 0.455785
0.217713 0.243302 0.461637
0.412774 0.265959 0.469554
0.576193 0.285307 0.478277
0.692395 0.282161 0.458269
0.825370 0.302347 0.452350
0.927317 0.317749 0.446354
0.999119 0.363384 0.441738
0.001346 0.357809 0.455109
0.002858 0.361594 0.460254
0.188474 0.370382 0.462539
0.417785 0.394575 0.480959
0.587817 0.421509 0.492850
0.707879 0.423489 0.478441
0.823446 0.421730 0.467664
0.916446 0.439118 0.456087
0.988190 0.495134 0.468561
0.042427 0.515716 0.468193
0.143294 0.520155 0.470581
0.301382 0.525434 0.478508
0.456044 0.535788 0.493636
0.599014 0.547520 0.505306
0.722661 0.547069 0.493484
0.821627 0.549658 0.483097
0.909305 0.560083 0.475377
0.992188 0.584885 0.473503
0.365507 0.650633 0.515928
0.400135 0.651379 0.520341
0.467979 0.651986 0.528244
0.558054 0.653762 0.539697
0.612874 0.652432 0.538345
0.710216 0.676669 0.525357
0.833963 0.679920 0.492383
0.923076 0.663459 0.467858
0.999268 0.670545 0.462748
0.539017 0.749645 0.593216
0.552554 0.749844 0.590803
0.584143 0.750325 0.599357
0.616452 0.749689 0.598232
0.636061 0.747658 0.585133
0.692620 0.757119 0.574941
0.792169 0.783226 0.555596
0.917636 0.806313 0.519637
1.000000 0.789066 0.489346
0.639154 0.842650 0.670484
0.642125 0.843214 0.670933
0.646773 0.843120 0.665215
0.654941 0.844433 0.657939
0.674247 0.843577 0.648346
0.714752 0.846127 0.650993
0.775453 0.866753 0.632974
0.870897 0.886393 0.606276
0.996937 0.916323 0.565891
0.707031 0.949021 0.760849
0.709183 0.945875 0.759301
0.713688 0.948109 0.756969
0.721401 0.950357 0.754206
0.744583 0.952377 0.758690
0.775076 0.955273 0.768608
0.814640 0.967903 0.758701
0.867247 0.981602 0.739267
0.954895 0.995117 0.706833
0.002430 0.115169 0.583240
0.083732 0.117922 0.585782
0.275211 0.123160 0.589194
0.460999 0.134804 0.602754
0.633902 0.177450 0.613625
0.759895 0.205884 0.620306
0.831507 0.215174 0.592208
0.930367 0.296950 0.589762
0.997539 0.383846 0.593163
0.013418 0.168155 0.590126
0.133106 0.171636 0.590869
0.297305 0.178502 0.596611
0.472579 0.194376 0.605843
0.636637 0.235762 0.616307
0.759292 0.264412 0.623771
0.829481 0.273886 0.594152
0.931322 0.338581 0.594531
0.997067 0.410130 0.594258
0.029390 0.263606 0.595393
0.154200 0.267770 0.597321
0.314558 0.278821 0.600237
0.484942 0.300993 0.609696
0.644275 0.341191 0.621291
0.756876 0.371303 0.627832
0.828669 0.375356 0.601241
0.920668 0.421307 0.602153
0.998975 0.465053 0.601911
0.003054 0.384092 0.588806
0.097322 0.388038 0.595155
0.303017 0.400663 0.603706
0.487929 0.422192 0.612517
0.643810 0.460483 0.625478
0.750827 0.492507 0.636287
0.825068 0.494213 0.616180
0.914664 0.518612 0.610958
0.994488 0.529857 0.609340
0.072678 0.531099 0.599360
0.176113 0.533550 0.599915
0.311981 0.536253 0.603614
0.461352 0.540847 0.610660
0.630323 0.565957 0.630310
0.744713 0.596946 0.642606
0.824802 0.598728 0.631757
0.910059 0.595876 0.618581
0.993973 0.599581 0.604378
0.347098 0.659625 0.614470
0.383904 0.659367 0.617916
0.454718 0.662437 0.621106
0.547717 0.668199 0.628417
0.646814 0.674892 0.639575
0.741418 0.686340 0.652473
0.825823 0.683987 0.638842
0.903355 0.684253 0.625971
0.991274 0.690966 0.621415
0.547128 0.763027 0.662946
0.555992 0.764615 0.661209
0.592606 0.766669 0.665241
0.641322 0.766568 0.672584
0.701572 0.768766 0.684557
0.739996 0.768566 0.677588
0.809194 0.788666 0.671566
0.915671 0.792916 0.641248
1.000000 0.773184 0.614996
0.643714 0.853072 0.723108
0.652577 0.852077 0.724824
0.672235 0.856436 0.728347
0.704076 0.855056 0.731712
0.732989 0.856159 0.731550
0.749824 0.854749 0.723304
0.794430 0.865464 0.717821
0.878008 0.888100 0.699345
0.998583 0.910225 0.665828
0.731392 0.953922 0.801987
0.736521 0.952455 0.802978
0.751851 0.952042 0.805014
0.762562 0.952832 0.803334
0.773338 0.956654 0.799321
0.791171 0.959494 0.792481
0.828596 0.961154 0.798878
0.879196 0.982875 0.785599
0.958324 0.996063 0.766155
0.259819 0.175056 0.723305
0.311231 0.179790 0.728108
0.424631 0.188124 0.731607
0.564579 0.212453 0.735215
0.693184 0.265137 0.742412
0.800643 0.348648 0.748318
0.877837 0.387983 0.754930
0.923789 0.395010 0.725285
0.999557 0.469399 0.729424
0.278368 0.228134 0.729642
0.330536 0.228298 0.728054
0.439306 0.241159 0.732999
0.566559 0.264207 0.736102
0.693533 0.312344 0.744070
0.798758 0.390565 0.750379
0.874578 0.423396 0.753202
0.919707 0.427389 0.728376
0.995297 0.493106 0.727072
0.294262 0.318968 0.728211
0.343459 0.323567 0.728158
0.447027 0.335678 0.734900
0.572965 0.358177 0.736336
0.693520 0.400499 0.741865
0.793378 0.467955 0.750803
0.867089 0.494455 0.755235
0.915266 0.493476 0.731254
0.989401 0.543856 0.728220
0.272391 0.432753 0.727153
0.330122 0.436349 0.729165
0.439941 0.447473 0.731028
0.565950 0.469661 0.737522
0.685578 0.503814 0.745046
0.786622 0.555224 0.753810
0.855909 0.580855 0.758200
0.907311 0.575861 0.737414
0.984063 0.607921 0.736671
0.215164 0.545383 0.716884
0.273861 0.550454 0.720091
0.394013 0.553424 0.723985
0.538243 0.566756 0.733092
0.669529 0.594183 0.745550
0.777645 0.631991 0.757140
0.847920 0.659062 0.763147
0.900852 0.654013 0.747922
0.987388 0.669304 0.752518
0.370820 0.670955 0.726638
0.401294 0.669434 0.728573
0.455772 0.671063 0.730285
0.539109 0.671487 0.733558
0.636131 0.673855 0.737063
0.753833 0.702094 0.757644
0.844010 0.732221 0.773132
0.903972 0.728801 0.756863
0.985114 0.725150 0.751670
0.516291 0.770248 0.744711
0.532020 0.770591 0.742859
0.568484 0.768808 0.744375
0.622046 0.775127 0.748023
0.685487 0.779037 0.755427
0.759095 0.785506 0.762611
0.829625 0.797358 0.774707
0.903881 0.791855 0.758717
0.992470 0.790596 0.747585
0.639937 0.869624 0.776707
0.656126 0.869271 0.780201
0.673417 0.867342 0.782834
0.704133 0.868555 0.787384
0.745919 0.871091 0.793839
0.793758 0.873089 0.798724
0.827345 0.871623 0.789258
0.893580 0.890912 0.790866
0.995069 0.898960 0.763583
0.728516 0.958390 0.834419
0.737444 0.960505 0.836521
0.746147 0.959427 0.839175
0.769601 0.962947 0.840827
0.801327 0.963467 0.846218
0.834701 0.967222 0.850400
0.850189 0.969816 0.843018
0.898234 0.982165 0.837638
0.972534 0.995529 0.823441
0.496185 0.296517 0.848084
0.520155 0.298807 0.841806
0.580174 0.315111 0.843654
0.664331 0.350602 0.845580
0.748255 0.399778 0.846628
0.831539 0.465323 0.851439
0.893943 0.541550 0.851663
0.953157 0.562109 0.849451
0.992683 0.558842 0.837268
0.500020 0.337920 0.847267
0.525434 0.342574 0.843290
0.585692 0.357405 0.844126
0.664564 0.383762 0.846025
0.750353 0.430445 0.847931
0.825696 0.491507 0.849834
0.890186 0.562565 0.853074
0.949816 0.576493 0.855148
0.991235 0.574109 0.834816
0.502643 0.414832 0.843863
0.529416 0.421378 0.844437
0.585368 0.431987 0.845551
0.662712 0.456195 0.844402
0.746114 0.494135 0.846258
0.821074 0.548697 0.850227
0.887375 0.605993 0.853796
0.939790 0.615834 0.851172
0.988825 0.607541 0.836619
0.488971 0.506513 0.840438
0.518557 0.511040 0.840511
0.575567 0.522321 0.842033
0.656917 0.541723 0.846259
0.738571 0.571740 0.847481
0.814579 0.612026 0.849777
0.883190 0.657804 0.856686
0.938278 0.668125 0.859271
0.980552 0.659081 0.837752
0.449589 0.595665 0.834278
0.481144 0.597005 0.836063
0.542667 0.602140 0.840559
0.631805 0.616956 0.843021
0.721965 0.639217 0.846698
0.804637 0.671612 0.851979
0.876159 0.707573 0.857339
0.933764 0.725115 0.857803
0.977068 0.716696 0.843143
0.437672 0.689606 0.835178
0.458787 0.689427 0.837759
0.500463 0.688465 0.837240
0.579497 0.688379 0.836770
0.681394 0.699052 0.842933
0.780265 0.726594 0.853011
0.866542 0.760529 0.858650
0.930289 0.781243 0.863332
0.979005 0.777217 0.852121
0.531002 0.787723 0.836886
0.543607 0.787256 0.838530
0.573875 0.785815 0.839348
0.617611 0.786749 0.841176
0.677382 0.786774 0.843226
0.742988 0.785422 0.846477
0.844702 0.809986 0.858540
0.927951 0.841835 0.874984
0.989191 0.837165 0.858459
0.614215 0.875166 0.848141
0.627898 0.875832 0.846701
0.645933 0.877162 0.849475
0.678003 0.877115 0.850056
0.724796 0.878982 0.851685
0.778566 0.882841 0.856412
0.846941 0.888068 0.859748
0.912367 0.904420 0.868973
0.996107 0.893708 0.857250
0.725048 0.968628 0.878964
0.729287 0.971235 0.879472
0.748665 0.969011 0.878504
0.769354 0.968238 0.881108
0.800555 0.972065 0.884497
0.843688 0.977066 0.887660
0.890364 0.979512 0.899877
0.923381 0.980789 0.891955
0.980930 0.996063 0.889450
0.678436 0.513733 0.937256
0.689255 0.521622 0.940719
0.720581 0.539207 0.938233
0.761307 0.555946 0.935745
0.811707 0.584381 0.935303
0.866623 0.620533 0.933319
0.919823 0.662979 0.935738
0.970089 0.702935 0.932450
1.000000 0.705872 0.929413
0.681472 0.537247 0.941608
0.690233 0.542030 0.937020
0.719178 0.553512 0.937151
0.759473 0.575077 0.936396
0.811547 0.601600 0.936499
0.865257 0.635364 0.938073
0.919042 0.672294 0.934344
0.976210 0.712947 0.932944
1.000000 0.713715 0.930355
0.678436 0.580375 0.938233
0.690562 0.586467 0.938233
0.720623 0.595953 0.937634
0.759959 0.611516 0.936921
0.808186 0.636028 0.933670
0.863242 0.663221 0.934096
0.915192 0.694137 0.931097
0.970991 0.728146 0.932412
0.997826 0.729180 0.931687
0.671104 0.635315 0.937809
0.686478 0.640536 0.940442
0.711544 0.645959 0.937632
0.751798 0.657909 0.936853
0.802282 0.677109 0.936646
0.859413 0.698091 0.935683
0.914910 0.726981 0.936895
0.969290 0.756746 0.933332
1.000000 0.760777 0.931831
0.647125 0.685333 0.936310
0.658905 0.689434 0.937887
0.689212 0.694069 0.937832
0.734763 0.703493 0.937590
0.788269 0.719132 0.936722
0.847485 0.740063 0.931986
0.909207 0.763412 0.937241
0.965034 0.791086 0.934355
1.000000 0.797089 0.933273
0.607868 0.748993 0.937653
0.621301 0.747211 0.938074
0.653265 0.748394 0.940242
0.700991 0.752457 0.941535
0.760676 0.761713 0.943588
0.834116 0.780694 0.941782
0.904613 0.802996 0.938523
0.962451 0.829479 0.935211
1.000000 0.837284 0.934242
0.618408 0.826477 0.942825
0.625551 0.827008 0.943730
0.642158 0.826452 0.942164
0.670362 0.823375 0.941515
0.718937 0.821308 0.940407
0.791605 0.824514 0.941791
0.881918 0.846840 0.945152
0.956721 0.874697 0.941343
0.997826 0.888016 0.941704
0.663780 0.911266 0.937302
0.674610 0.910961 0.940792
0.683864 0.909847 0.939174
0.711370 0.910918 0.944403
0.743087 0.911053 0.945095
0.788648 0.907051 0.949207
0.843731 0.904924 0.944661
0.938986 0.917160 0.952150
0.999557 0.938271 0.942142
0.725494 0.988220 0.949005
0.729401 0.988220 0.949005
0.742157 0.988441 0.945320
0.759312 0.989700 0.942642
0.792160 0.990265 0.946106
0.832295 0.991207 0.948452
0.878212 0.992378 0.951958
0.942150 0.996063 0.947006
0.996063 0.996063 0.949005
