ml_luts/presetpro_fuji_provia__lut3d_33.cube
TITLE "Presetpro - Fuji Provia +.jpg"
DOMAIN_MIN 0.000000 0.000000 0.000000
DOMAIN_MAX 1.000000 1.000000 1.000000
LUT_3D_SIZE 5
0.000000 0.000000 0.000000
0.130372 0.013291 0.000763
0.484314 0.002975 0.004883
0.833336 0.001518 0.000763
0.996063 0.207855 0.003937
0.002174 0.153915 0.027466
0.150724 0.185311 0.005615
0.527332 0.176571 0.001244
0.853901 0.203407 0.002520
0.999779 0.377434 0.000000
0.001007 0.442124 0.065659
0.001587 0.429485 0.087700
0.517776 0.537254 0.001549
0.871098 0.589737 0.001007
1.000000 0.652878 0.003036
0.002953 0.743149 0.172096
0.000654 0.739325 0.181591
0.420566 0.763119 0.178264
0.814167 0.852257 0.051670
1.000000 0.883866 0.000000
0.474518 0.992157 0.564697
0.535515 0.989983 0.576469
0.674515 0.990204 0.629470
0.820831 0.997505 0.646843
0.980377 0.996063 0.615692
0.000000 0.000221 0.183868
0.183048 0.001276 0.175695
0.512474 0.003662 0.167778
0.842083 0.000677 0.183681
1.000000 0.255661 0.149308
0.002552 0.184038 0.213920
0.192309 0.201730 0.215676
0.540587 0.212736 0.208080
0.853758 0.249234 0.187711
0.998066 0.397238 0.147499
0.000221 0.493668 0.254624
0.112591 0.482186 0.249930
0.541535 0.551628 0.229813
0.866622 0.593166 0.182940
0.999622 0.659378 0.143253
0.003786 0.768211 0.301714
0.005483 0.759907 0.310130
0.438069 0.763151 0.319759
0.813335 0.854371 0.307724
0.998936 0.886408 0.282655
0.469826 0.996284 0.611008
0.535971 0.993465 0.620268
0.669823 0.990009 0.661354
0.813604 0.995909 0.689974
0.983559 1.000000 0.671119
0.000946 0.000946 0.520630
0.259266 0.001720 0.522221
0.608208 0.001488 0.516060
0.878586 0.074158 0.542488
0.999054 0.272675 0.527588
0.000614 0.149349 0.543434
0.264418 0.160666 0.547913
0.617477 0.181389 0.540775
0.875145 0.320715 0.558276
0.997658 0.414612 0.537865
0.001991 0.534820 0.567711
0.085028 0.549418 0.574248
0.585751 0.585468 0.595047
0.854872 0.609987 0.577215
0.999023 0.668625 0.555847
0.002316 0.818298 0.573227
0.089881 0.816793 0.574829
0.496874 0.804407 0.575953
0.808394 0.863657 0.618953
0.983009 0.887184 0.619377
0.459778 0.998993 0.726440
0.500672 0.997986 0.722126
0.655815 0.993645 0.746552
0.802994 0.995388 0.783966
0.970581 0.999054 0.789184
0.261787 0.001739 0.844131
0.442824 0.002037 0.847465
0.739376 0.001072 0.845963
0.956978 0.000734 0.847025
1.000000 0.441620 0.839218
0.258106 0.053624 0.853884
0.438653 0.018332 0.851998
0.729211 0.003421 0.852268
0.943439 0.211609 0.849204
0.999434 0.568500 0.851246
0.000976 0.470612 0.860252
0.060475 0.467314 0.859137
0.646360 0.518576 0.861786
0.892248 0.606167 0.859495
0.967945 0.768829 0.867222
0.002014 0.841635 0.851643
0.003277 0.844330 0.858947
0.528612 0.856305 0.860837
0.804595 0.884673 0.873657
0.954294 0.891313 0.865153
0.248566 0.998489 0.870155
0.390097 0.999567 0.865963
0.607864 0.998959 0.870770
0.787142 0.997711 0.881281
0.972984 1.000000 0.902939
0.670593 0.000000 0.996063
0.741486 0.002953 0.997826
0.902985 0.001968 0.999054
0.998482 0.000984 0.999237
1.000000 0.392151 0.996063
0.654907 0.001518 1.000000
0.723528 0.000299 0.999456
0.884693 0.001373 0.999748
0.996168 0.179279 0.997053
0.999245 0.507630 0.999023
0.480271 0.431244 0.998993
0.594570 0.445515 0.999291
0.802369 0.460342 0.998108
0.964886 0.560646 0.998718
0.996140 0.721573 0.998993
0.004372 0.810806 0.999779
0.173696 0.808197 0.995769
0.554199 0.804382 0.998787
0.841233 0.844619 0.997738
1.000000 0.892166 0.991714
0.372559 1.000000 1.000000
0.449776 1.000000 0.997383
0.614746 0.998031 0.999054
0.787476 0.999237 1.000000
0.996063 1.000000 1.000000
