ml_luts/presetpro_pastel_morning__lut3d_33.cube
TITLE "Presetpro - Pastel Morning"
DOMAIN_MIN 0.000000 0.000000 0.000000
DOMAIN_MAX 1.000000 1.000000 1.000000
LUT_3D_SIZE 9
0.031372 0.035309 0.043152
0.049915 0.035309 0.040066
0.135605 0.041947 0.038025
0.266075 0.032844 0.026894
0.436233 0.002014 0.010819
0.600990 0.000000 0.000526
0.746841 0.003716 0.000442
0.884278 0.049065 0.000000
1.000000 0.164703 0.007843
0.029991 0.047443 0.041767
0.059485 0.062082 0.032618
0.161605 0.078920 0.032904
0.294285 0.075341 0.018790
0.454149 0.063284 0.003479
0.617103 0.050535 0.003954
0.759586 0.072579 0.003220
0.887093 0.137097 0.008311
0.999119 0.214664 0.000500
0.000221 0.135063 0.053917
0.021317 0.140609 0.056441
0.140299 0.172762 0.023466
0.329586 0.204307 0.001639
0.494339 0.192558 0.000618
0.646487 0.197636 0.000286
0.777691 0.216307 0.001865
0.899165 0.252413 0.000161
0.996071 0.298470 0.000000
0.000526 0.275963 0.093079
0.000000 0.275760 0.096374
0.042342 0.298771 0.074747
0.278068 0.348968 0.006671
0.526907 0.398378 0.002373
0.676796 0.371186 0.001684
0.804275 0.361176 0.002644
0.912377 0.378526 0.002145
0.998493 0.403385 0.003964
0.000000 0.441177 0.142197
0.001097 0.439436 0.140583
0.002407 0.438969 0.144153
0.182199 0.477278 0.089407
0.436271 0.523491 0.000572
0.692179 0.574547 0.002930
0.817459 0.543717 0.000252
0.927164 0.517597 0.000835
1.000000 0.516648 0.001007
0.002033 0.584778 0.222988
0.005590 0.583860 0.224184
0.002890 0.581709 0.232296
0.160353 0.594964 0.209102
0.375091 0.629953 0.156172
0.595330 0.662413 0.028494
0.815586 0.702562 0.001241
0.929992 0.677099 0.002710
0.998959 0.652531 0.000950
0.019745 0.706878 0.338455
0.032769 0.713200 0.343499
0.166533 0.708652 0.347864
0.278825 0.706137 0.349704
0.406346 0.726921 0.323829
0.555261 0.751805 0.286016
0.720369 0.769834 0.207804
0.904536 0.808337 0.032454
1.000000 0.795868 0.011955
0.360394 0.816666 0.509258
0.375903 0.814161 0.516233
0.402641 0.815900 0.515779
0.454973 0.814814 0.527149
0.510748 0.818990 0.519173
0.588759 0.839215 0.489174
0.696615 0.856694 0.454839
0.816992 0.875931 0.396371
0.970497 0.899075 0.290756
0.603912 0.925476 0.725494
0.608764 0.922512 0.714660
0.624816 0.925476 0.717964
0.647052 0.928978 0.728496
0.678436 0.927521 0.735291
0.714722 0.941177 0.728924
0.764724 0.952950 0.713417
0.828881 0.967682 0.692699
0.913727 0.972534 0.639221
0.035752 0.029278 0.069962
0.058567 0.031145 0.061868
0.145157 0.018852 0.062645
0.280842 0.005386 0.072943
0.445059 0.000971 0.076414
0.608248 0.003393 0.066670
0.753624 0.002032 0.055774
0.888803 0.054184 0.033134
0.999954 0.172115 0.026268
0.019797 0.061880 0.071537
0.071788 0.068459 0.083974
0.165172 0.074895 0.081740
0.300953 0.073537 0.078526
0.462570 0.060394 0.072995
0.623944 0.046259 0.065569
0.766347 0.074793 0.044856
0.891464 0.140846 0.026628
0.996500 0.221186 0.017963
0.039561 0.155739 0.109011
0.061911 0.154886 0.105863
0.160753 0.179057 0.087826
0.338887 0.195397 0.067540
0.498785 0.190468 0.056669
0.648131 0.198216 0.042122
0.779789 0.216454 0.022016
0.901482 0.252151 0.004902
0.998401 0.302766 0.003951
0.002046 0.296928 0.142302
0.000996 0.295583 0.141800
0.092745 0.306131 0.135200
0.293019 0.356949 0.075525
0.532055 0.393534 0.001957
0.679047 0.364448 0.001793
0.807048 0.361454 0.003068
0.913678 0.380185 0.001318
0.998664 0.407150 0.003506
0.001913 0.452578 0.183855
0.001052 0.453688 0.185882
0.004788 0.449882 0.193243
0.215173 0.482377 0.157831
0.450743 0.527579 0.061738
0.696417 0.570683 0.002307
0.819291 0.541299 0.001624
0.927406 0.513570 0.002589
0.999952 0.518469 0.001190
0.002101 0.590640 0.264459
0.001569 0.593037 0.266623
0.016372 0.587684 0.264703
0.211419 0.597059 0.258768
0.395530 0.631075 0.214019
0.602933 0.663716 0.131821
0.818633 0.702449 0.001634
0.929440 0.678748 0.000622
0.999165 0.649147 0.004040
0.070578 0.714943 0.370757
0.131309 0.712081 0.370393
0.218211 0.710473 0.372470
0.311791 0.707259 0.381162
0.422411 0.725879 0.357361
0.563380 0.750545 0.321340
0.722539 0.772737 0.262577
0.906336 0.806472 0.142640
0.999966 0.794467 0.143521
0.385253 0.814220 0.529507
0.396060 0.815081 0.531449
0.424075 0.815520 0.532375
0.470219 0.816363 0.537832
0.522922 0.821911 0.536372
0.600558 0.836662 0.516303
0.704051 0.854995 0.477948
0.820686 0.875634 0.420322
0.968949 0.900075 0.333062
0.611755 0.925476 0.718627
0.615256 0.928039 0.727654
0.631754 0.926743 0.732088
0.651911 0.927456 0.735487
0.682100 0.925869 0.743407
0.716215 0.938814 0.735256
0.763569 0.949659 0.724271
0.832730 0.962157 0.697020
0.915329 0.976074 0.652748
0.018189 0.029198 0.162506
0.081733 0.023750 0.169461
0.172253 0.022173 0.165390
0.292508 0.009865 0.163176
0.467758 0.001465 0.162838
0.630125 0.000495 0.159060
0.758402 0.001684 0.174780
0.886712 0.089107 0.179189
0.996826 0.191185 0.180817
0.003313 0.079890 0.182228
0.078293 0.083291 0.178334
0.184333 0.084783 0.185681
0.312271 0.076726 0.178105
0.482285 0.013446 0.169296
0.628977 0.040635 0.175632
0.763185 0.099729 0.182794
0.889891 0.158443 0.177176
0.995640 0.232998 0.187837
0.004185 0.178509 0.188736
0.078758 0.183022 0.193531
0.197975 0.191966 0.198977
0.350171 0.195991 0.197669
0.506915 0.199879 0.194339
0.652034 0.210162 0.184715
0.783505 0.229051 0.182371
0.896227 0.264083 0.175818
0.999456 0.314871 0.179877
0.043992 0.325937 0.232919
0.125413 0.331961 0.242431
0.190834 0.333651 0.238961
0.337731 0.368772 0.214154
0.544426 0.380257 0.185187
0.683692 0.362336 0.181378
0.802839 0.372417 0.174315
0.907018 0.390409 0.170304
0.998446 0.418053 0.182365
0.092674 0.478928 0.299553
0.104367 0.480773 0.292739
0.173049 0.477859 0.278117
0.285975 0.492095 0.271595
0.482178 0.534891 0.229175
0.699520 0.565487 0.179726
0.820687 0.533514 0.170617
0.928461 0.515802 0.171096
0.999874 0.525841 0.182854
0.104721 0.610641 0.352283
0.117980 0.609309 0.344805
0.203707 0.605969 0.343524
0.301383 0.601718 0.345758
0.434548 0.633681 0.320785
0.621393 0.665847 0.278618
0.822686 0.698890 0.215084
0.927428 0.672581 0.211084
0.999634 0.645835 0.217089
0.242985 0.719788 0.436438
0.260578 0.721063 0.438092
0.311887 0.717950 0.437733
0.376547 0.714325 0.438241
0.458462 0.726669 0.430917
0.584159 0.750136 0.404632
0.734125 0.772377 0.359614
0.908885 0.808577 0.297907
0.999622 0.792887 0.291609
0.429911 0.820552 0.571313
0.441781 0.817456 0.569046
0.462850 0.820133 0.574024
0.502713 0.817246 0.577708
0.551685 0.818061 0.580903
0.616517 0.836770 0.562825
0.711703 0.856440 0.536716
0.827793 0.874279 0.489636
0.970934 0.901276 0.415778
0.621795 0.922547 0.739219
0.626611 0.926933 0.738879
0.641605 0.927481 0.742455
0.661563 0.926188 0.747216
0.693359 0.929028 0.756809
0.726356 0.938557 0.751164
0.771557 0.952179 0.743442
0.832892 0.965128 0.718225
0.913506 0.977013 0.686486
0.000000 0.030418 0.315708
0.076743 0.030071 0.318225
0.222707 0.020166 0.319769
0.363858 0.004608 0.328229
0.489283 0.002134 0.310015
0.653841 0.002329 0.306810
0.788028 0.002705 0.288363
0.901463 0.004993 0.278387
0.994469 0.205902 0.312149
0.001030 0.091903 0.329322
0.074747 0.092674 0.329278
0.231717 0.098702 0.334807
0.375409 0.098519 0.338375
0.500365 0.100303 0.317844
0.659827 0.076752 0.314368
0.792460 0.028230 0.293611
0.902542 0.120291 0.297989
0.992163 0.262476 0.326675
0.001690 0.212458 0.336166
0.014882 0.210337 0.342182
0.226384 0.214692 0.349070
0.385439 0.232253 0.355451
0.524218 0.239344 0.341749
0.669313 0.223013 0.325551
0.788680 0.237254 0.319413
0.891319 0.294854 0.326589
0.987909 0.344931 0.330850
0.001398 0.358772 0.349980
0.064299 0.361207 0.351468
0.236098 0.372736 0.362573
0.394770 0.385560 0.374881
0.546286 0.384575 0.365258
0.674445 0.389380 0.354797
0.793694 0.397048 0.344863
0.903057 0.413414 0.343509
0.994621 0.437250 0.342733
0.177096 0.509695 0.398615
0.232062 0.512920 0.403385
0.332165 0.514559 0.416780
0.397237 0.513927 0.411216
0.528627 0.547050 0.394839
0.704226 0.551764 0.370516
0.817892 0.530783 0.357883
0.914872 0.531054 0.351763
0.998631 0.540033 0.353889
0.336843 0.633272 0.482483
0.360512 0.632590 0.483256
0.383517 0.632252 0.474534
0.413817 0.627623 0.460157
0.495284 0.638610 0.449831
0.647398 0.670667 0.428263
0.822926 0.692926 0.398545
0.920324 0.663987 0.381676
0.999567 0.643680 0.376171
0.422424 0.731291 0.551993
0.423601 0.731937 0.549978
0.431279 0.729866 0.535685
0.462986 0.727613 0.528833
0.517929 0.723709 0.530133
0.612943 0.749008 0.513430
0.749718 0.774903 0.489943
0.910597 0.806950 0.448720
0.998773 0.787959 0.435472
0.514620 0.823576 0.640552
0.515772 0.824159 0.640049
0.521607 0.825464 0.634873
0.549692 0.825199 0.634040
0.586406 0.821222 0.639202
0.644733 0.833395 0.631555
0.725082 0.853823 0.611509
0.833743 0.872113 0.579755
0.977252 0.905469 0.530411
0.641666 0.927376 0.763260
0.650434 0.929655 0.766777
0.658982 0.927883 0.765200
0.676946 0.929122 0.768807
0.705313 0.930925 0.772007
0.738989 0.937394 0.778071
0.779650 0.950553 0.765614
0.839063 0.964018 0.750821
0.917633 0.975517 0.718552
0.001892 0.044220 0.487213
0.067352 0.044414 0.487270
0.251911 0.035625 0.497810
0.425321 0.033798 0.506428
0.576363 0.034485 0.510246
0.669479 0.077824 0.471497
0.802280 0.165336 0.471192
0.914723 0.200361 0.457848
1.000000 0.232376 0.447189
0.002327 0.113872 0.501616
0.076288 0.117173 0.501341
0.260625 0.121902 0.503298
0.429038 0.134298 0.511157
0.579885 0.149912 0.516954
0.672350 0.174823 0.480539
0.805788 0.231910 0.474349
0.912121 0.248237 0.464758
0.996162 0.269804 0.449656
0.001247 0.240040 0.505325
0.026254 0.234343 0.512512
0.254077 0.243555 0.514608
0.433042 0.267074 0.521882
0.582201 0.290730 0.525530
0.679549 0.306552 0.498049
0.803188 0.335461 0.489928
0.908293 0.328568 0.473953
0.998234 0.340691 0.459137
0.002457 0.388678 0.509382
0.001646 0.393439 0.516295
0.223296 0.397842 0.519626
0.422180 0.410838 0.531850
0.577161 0.436048 0.542558
0.685344 0.443279 0.523685
0.801877 0.434441 0.505523
0.901932 0.428572 0.481880
0.987663 0.454517 0.487371
0.091179 0.533401 0.523094
0.186092 0.536933 0.525912
0.311583 0.541120 0.531444
0.445408 0.549761 0.545119
0.574036 0.560039 0.558773
0.696775 0.554145 0.542757
0.799504 0.549454 0.526806
0.896020 0.547550 0.514601
0.989586 0.558823 0.502434
0.355480 0.653938 0.573240
0.385753 0.653643 0.573394
0.443942 0.654724 0.584075
0.527188 0.654543 0.595638
0.579195 0.652391 0.589612
0.680536 0.676577 0.582795
0.818161 0.680148 0.557294
0.911837 0.658197 0.537741
0.998354 0.654295 0.535383
0.495781 0.744149 0.646408
0.511509 0.744996 0.648566
0.545221 0.743986 0.652139
0.575325 0.743036 0.651578
0.592216 0.739038 0.636280
0.651642 0.751011 0.627497
0.762940 0.777136 0.614094
0.909141 0.798797 0.595610
0.998375 0.780788 0.576164
0.598415 0.829930 0.724344
0.601236 0.831782 0.724927
0.607742 0.830365 0.716295
0.613314 0.831803 0.708805
0.633926 0.830156 0.700413
0.672776 0.830052 0.698441
0.742951 0.852390 0.689134
0.844339 0.872619 0.669913
0.979065 0.906950 0.641964
0.686340 0.929413 0.802979
0.688086 0.929056 0.799954
0.688904 0.931255 0.798413
0.699737 0.933842 0.796783
0.720612 0.936752 0.802910
0.756592 0.937613 0.809210
0.794312 0.949387 0.802147
0.849398 0.964308 0.789881
0.924530 0.974518 0.764771
0.000954 0.081367 0.661228
0.105399 0.081148 0.659630
0.285100 0.084758 0.663837
0.455571 0.104497 0.671935
0.618239 0.158163 0.681356
0.743091 0.202340 0.681982
0.812461 0.238252 0.638439
0.908837 0.334938 0.630957
0.994438 0.412800 0.635605
0.002628 0.152523 0.663110
0.121802 0.155360 0.666218
0.295465 0.162529 0.668106
0.463750 0.181318 0.673425
0.619956 0.229956 0.683094
0.744476 0.263900 0.687887
0.809360 0.295741 0.643863
0.908778 0.370402 0.634987
0.992045 0.434287 0.635674
0.001793 0.270601 0.671098
0.111822 0.271851 0.670541
0.296130 0.284581 0.670329
0.463556 0.306026 0.678083
0.618464 0.344996 0.686148
0.735514 0.377322 0.688365
0.805781 0.393735 0.654384
0.901120 0.447605 0.651804
0.985732 0.478623 0.646868
0.002080 0.418899 0.668719
0.072230 0.418983 0.668840
0.285714 0.424338 0.677727
0.453533 0.439495 0.684327
0.611151 0.470256 0.693624
0.727423 0.497696 0.697414
0.801361 0.507384 0.670634
0.892054 0.534732 0.666954
0.982517 0.528350 0.653844
0.051409 0.555916 0.672035
0.156253 0.556408 0.673977
0.292408 0.560126 0.677423
0.435673 0.563775 0.683727
0.593265 0.578580 0.696534
0.719719 0.602140 0.708063
0.799388 0.605966 0.691357
0.891100 0.592836 0.670297
0.981857 0.578758 0.646652
0.317840 0.669582 0.686588
0.350258 0.670004 0.686786
0.422354 0.672115 0.688231
0.516643 0.675169 0.695709
0.616025 0.680409 0.706948
0.712597 0.686401 0.714561
0.803970 0.678681 0.700083
0.886825 0.671270 0.680908
0.977979 0.667952 0.672247
0.510702 0.761806 0.720944
0.526468 0.761754 0.722739
0.561198 0.762422 0.727307
0.611364 0.760816 0.733736
0.672242 0.763377 0.743967
0.710607 0.759885 0.733436
0.786898 0.782610 0.734107
0.901997 0.787729 0.712467
0.989250 0.768293 0.697364
0.618838 0.842042 0.773439
0.626880 0.842429 0.775660
0.646380 0.842620 0.780037
0.676978 0.844104 0.782357
0.707674 0.841353 0.781448
0.719053 0.841229 0.771016
0.767601 0.848798 0.766553
0.857857 0.874544 0.757219
0.983400 0.900658 0.740542
0.717121 0.935310 0.844616
0.722191 0.937474 0.845048
0.733623 0.936707 0.849263
0.745493 0.936198 0.847620
0.752764 0.938894 0.839676
0.772370 0.942045 0.836800
0.809197 0.945838 0.840465
0.862125 0.964020 0.828431
0.932804 0.974995 0.815129
0.144569 0.156868 0.796089
0.226634 0.163920 0.797100
0.352489 0.179624 0.799770
0.500161 0.207384 0.803648
0.640679 0.262520 0.806713
0.763737 0.337737 0.811753
0.858424 0.377203 0.807621
0.908577 0.401741 0.775754
0.980614 0.483566 0.766891
0.169498 0.222871 0.802751
0.242716 0.227360 0.800703
0.366392 0.238315 0.803534
0.500893 0.267004 0.805589
0.639142 0.312982 0.808588
0.764384 0.381624 0.813627
0.859867 0.413751 0.810910
0.906288 0.433717 0.780866
0.978910 0.506845 0.772364
0.190668 0.328964 0.800588
0.256892 0.334354 0.801646
0.374214 0.346059 0.805000
0.507961 0.368192 0.805723
0.639046 0.407111 0.808479
0.759243 0.461027 0.813269
0.850955 0.487558 0.814234
0.899557 0.496308 0.782048
0.969980 0.554785 0.777927
0.211573 0.460232 0.801067
0.269564 0.462134 0.802679
0.368528 0.465585 0.801629
0.505192 0.483690 0.806032
0.636285 0.511804 0.808843
0.753963 0.552362 0.812863
0.839032 0.575443 0.814113
0.890766 0.579278 0.789649
0.967462 0.614084 0.790002
0.157505 0.573963 0.789681
0.231211 0.576290 0.791462
0.354382 0.577836 0.797340
0.496925 0.587029 0.804497
0.625980 0.603914 0.809622
0.748191 0.632801 0.815571
0.833879 0.651889 0.819238
0.887847 0.655110 0.800136
0.967224 0.676315 0.802578
0.334393 0.681041 0.796779
0.363417 0.682331 0.798688
0.425505 0.684031 0.800545
0.508378 0.685010 0.800903
0.605543 0.685665 0.803474
0.728114 0.705529 0.817747
0.826410 0.724517 0.823906
0.888072 0.725911 0.811695
0.970080 0.714287 0.801011
0.484238 0.772361 0.804287
0.501937 0.774225 0.805996
0.538667 0.774416 0.807243
0.595855 0.775736 0.808696
0.665001 0.778082 0.814434
0.742775 0.783116 0.819587
0.816299 0.790474 0.828414
0.888633 0.782078 0.811277
0.975050 0.775099 0.797207
0.629323 0.856676 0.831824
0.642599 0.855447 0.833378
0.658266 0.857739 0.834014
0.689851 0.858827 0.835274
0.731783 0.860656 0.839598
0.778553 0.859853 0.844165
0.809790 0.857007 0.835590
0.878458 0.877064 0.837347
0.977423 0.888389 0.820262
0.721871 0.943367 0.877892
0.729322 0.942369 0.880574
0.738115 0.944817 0.878517
0.759917 0.944446 0.884409
0.787560 0.946030 0.884125
0.817545 0.949028 0.886949
0.831510 0.950373 0.881659
0.875556 0.961368 0.878899
0.950005 0.978645 0.862534
0.351910 0.293083 0.899506
0.388514 0.299402 0.897799
0.464723 0.319052 0.901497
0.566258 0.349596 0.902331
0.673760 0.392811 0.900522
0.780568 0.449916 0.902131
0.873758 0.520422 0.901399
0.945613 0.542764 0.902447
0.984798 0.548397 0.876961
0.363604 0.341838 0.905398
0.395920 0.345309 0.899858
0.472584 0.358939 0.902355
0.572591 0.386131 0.902180
0.673474 0.427117 0.900762
0.778728 0.481139 0.899174
0.871537 0.541214 0.903261
0.937928 0.559574 0.903937
0.982739 0.564440 0.877839
0.381181 0.423974 0.898922
0.412743 0.429242 0.896821
0.480166 0.440696 0.898413
0.574264 0.462536 0.898834
0.678588 0.493588 0.900350
0.779375 0.536982 0.900167
0.869287 0.585059 0.902836
0.936236 0.597942 0.902154
0.977773 0.601976 0.878805
0.391859 0.521002 0.895403
0.423630 0.522940 0.898004
0.490601 0.532703 0.898616
0.582723 0.549190 0.898636
0.681177 0.572609 0.898275
0.777661 0.603451 0.898104
0.866774 0.641167 0.901823
0.929547 0.653014 0.901976
0.968116 0.649724 0.879220
0.398998 0.613291 0.894429
0.431354 0.615489 0.893514
0.493390 0.621599 0.895412
0.575863 0.627223 0.897438
0.677219 0.642588 0.898765
0.774898 0.666947 0.901411
0.862852 0.696099 0.901319
0.925580 0.709417 0.900562
0.963541 0.708302 0.882189
0.403357 0.698877 0.888333
0.422504 0.698656 0.890678
0.469431 0.700014 0.888638
0.550420 0.702952 0.891352
0.653462 0.711056 0.894727
0.757630 0.726322 0.903552
0.854722 0.751668 0.905583
0.920219 0.766487 0.905105
0.961556 0.770669 0.889535
0.506434 0.786855 0.886482
0.519574 0.790536 0.891967
0.550966 0.790844 0.893801
0.597584 0.791338 0.894349
0.658957 0.790992 0.893446
0.732812 0.790792 0.893100
0.827544 0.806723 0.900779
0.915746 0.828079 0.911554
0.970111 0.828869 0.900748
0.601941 0.870720 0.898489
0.615368 0.871236 0.894809
0.636204 0.873312 0.895102
0.671246 0.870116 0.895787
0.718341 0.872431 0.898049
0.771557 0.876012 0.903348
0.835396 0.882217 0.906567
0.901168 0.889082 0.910015
0.977275 0.875484 0.895462
0.721508 0.955052 0.918141
0.730675 0.953914 0.919802
0.745955 0.954878 0.923427
0.763404 0.953704 0.920617
0.795538 0.953949 0.924362
0.832934 0.955494 0.925733
0.876846 0.960178 0.933159
0.907322 0.966061 0.929529
0.960773 0.975971 0.922997
0.556854 0.501953 0.984314
0.571117 0.501511 0.979935
0.609252 0.518860 0.982040
0.672501 0.537716 0.979969
0.748062 0.563751 0.977539
0.825504 0.597561 0.972523
0.894883 0.635513 0.972557
0.960839 0.671970 0.971619
1.000000 0.678436 0.968628
0.557308 0.521118 0.979508
0.577281 0.525059 0.977508
0.620143 0.535352 0.979025
0.678230 0.556368 0.982614
0.750639 0.579971 0.978203
0.823653 0.611674 0.975742
0.896607 0.646623 0.972085
0.962477 0.679906 0.969493
1.000000 0.689270 0.967777
0.575493 0.570793 0.977890
0.594341 0.573900 0.979428
0.629604 0.581455 0.976389
0.686516 0.595904 0.974834
0.752537 0.616512 0.974472
0.825216 0.643464 0.974121
0.894619 0.672191 0.972736
0.958521 0.705502 0.972384
1.000000 0.709579 0.966011
0.589737 0.628422 0.980392
0.604558 0.630399 0.977357
0.637704 0.636949 0.975773
0.691802 0.646162 0.978554
0.757397 0.662819 0.977528
0.824987 0.681664 0.974460
0.894414 0.708767 0.973001
0.956556 0.732370 0.966410
1.000000 0.738198 0.969582
0.591949 0.688110 0.975403
0.605463 0.689961 0.978817
0.631672 0.691349 0.976112
0.686167 0.697489 0.979498
0.749527 0.708786 0.977859
0.821545 0.726683 0.975933
0.890812 0.745350 0.972965
0.951847 0.769241 0.973156
0.998993 0.779449 0.970520
0.565124 0.748989 0.977951
0.579997 0.750511 0.977187
0.614240 0.750362 0.975362
0.669136 0.754299 0.980623
0.732454 0.758192 0.976689
0.807015 0.768962 0.976330
0.881722 0.788342 0.973896
0.946551 0.812018 0.970629
0.996063 0.822022 0.972035
0.593155 0.825272 0.974297
0.597955 0.824821 0.973710
0.618358 0.824475 0.976036
0.650415 0.822417 0.975137
0.702435 0.822799 0.977696
0.778197 0.824975 0.978554
0.859434 0.832562 0.977833
0.934666 0.859204 0.976565
0.994323 0.869385 0.977440
0.655937 0.902554 0.973072
0.662589 0.903378 0.976562
0.675952 0.902195 0.976743
0.702290 0.901576 0.979368
0.735773 0.901509 0.979372
0.779633 0.899854 0.978587
0.835642 0.897607 0.978015
0.919110 0.908060 0.985501
0.987732 0.922981 0.983814
0.721558 0.972534 0.976471
0.732392 0.971619 0.979462
0.737244 0.971023 0.973297
0.757385 0.970097 0.976898
0.790130 0.972549 0.974579
0.826999 0.971600 0.976982
0.871567 0.973518 0.978211
0.929012 0.975971 0.977406
0.980377 0.980377 0.988220
