ml_luts/presetpro_moody_stock__lut3d_33.cube
TITLE "Presetpro - Moody Stock.jpg"
DOMAIN_MIN 0.000000 0.000000 0.000000
DOMAIN_MAX 1.000000 1.000000 1.000000
LUT_3D_SIZE 5
0.003937 0.050995 0.050995
0.033875 0.057617 0.065903
0.280456 0.060791 0.051987
0.714935 0.000763 0.000000
0.976471 0.000000 0.000000
0.000763 0.155342 0.084412
0.010141 0.156883 0.077574
0.416775 0.203518 0.001480
0.787230 0.208508 0.003502
0.987465 0.232560 0.001198
0.000000 0.462616 0.147995
0.002743 0.448219 0.154949
0.474068 0.445542 0.065216
0.820019 0.501755 0.000755
0.985260 0.570603 0.002029
0.002174 0.762100 0.354698
0.315998 0.754709 0.374794
0.580627 0.735813 0.339599
0.773542 0.745854 0.242931
0.930710 0.779412 0.034256
0.611755 0.925476 0.709808
0.657073 0.926033 0.734627
0.714737 0.922577 0.726578
0.794648 0.924721 0.723533
0.898041 0.937256 0.701965
0.000000 0.058151 0.153687
0.055736 0.067631 0.137815
0.322361 0.048523 0.109627
0.743727 0.000757 0.022636
0.984413 0.035835 0.004455
0.001467 0.183066 0.196612
0.022231 0.188982 0.186325
0.435804 0.189024 0.138205
0.798822 0.179819 0.014999
0.988144 0.273169 0.000544
0.002411 0.492248 0.287743
0.003604 0.489071 0.275169
0.518425 0.474550 0.227621
0.834650 0.517588 0.074904
0.991623 0.554260 0.001900
0.013922 0.772993 0.436489
0.315101 0.766980 0.448670
0.597126 0.746307 0.436816
0.771373 0.755320 0.363512
0.932112 0.786253 0.258636
0.592605 0.930824 0.723213
0.636019 0.924984 0.735546
0.712227 0.922730 0.745266
0.795191 0.924235 0.737618
0.895867 0.938233 0.720452
0.000000 0.085327 0.427505
0.007076 0.083111 0.430584
0.540062 0.001449 0.409599
0.817406 0.001922 0.292366
0.986344 0.002029 0.203995
0.001610 0.235287 0.465496
0.001487 0.216908 0.474300
0.584103 0.175854 0.450153
0.810362 0.116270 0.333950
0.992027 0.151604 0.222279
0.001991 0.533836 0.548073
0.044702 0.540581 0.542318
0.602962 0.551453 0.540924
0.825791 0.536404 0.464407
0.985260 0.515686 0.290771
0.103855 0.789761 0.628849
0.339232 0.789243 0.626829
0.611776 0.778879 0.625103
0.768237 0.772736 0.588625
0.916599 0.804775 0.536762
0.521561 0.937195 0.761719
0.573009 0.937534 0.767746
0.688194 0.930862 0.791176
0.788441 0.928955 0.788388
0.893158 0.939286 0.774430
0.000221 0.139969 0.739982
0.005156 0.125933 0.744518
0.597412 0.006863 0.752239
0.896057 0.005392 0.712404
0.997604 0.209824 0.578766
0.001299 0.267952 0.749675
0.026218 0.269309 0.751938
0.608443 0.267675 0.758979
0.886401 0.301711 0.728441
0.991335 0.374010 0.608519
0.001449 0.548515 0.758617
0.261634 0.554429 0.756458
0.606108 0.571829 0.769028
0.827985 0.622329 0.757434
0.939877 0.597107 0.661930
0.320904 0.792158 0.802506
0.423656 0.793737 0.798847
0.604117 0.798954 0.796154
0.769749 0.817541 0.803916
0.896546 0.803858 0.745412
0.489967 0.944336 0.871567
0.526543 0.945261 0.868634
0.615883 0.943600 0.860234
0.765154 0.938244 0.861573
0.891708 0.941261 0.856194
0.352936 0.349030 0.949005
0.481583 0.356873 0.951966
0.695145 0.395065 0.949082
0.866683 0.491173 0.943467
0.996063 0.552948 0.913727
0.415917 0.460571 0.949479
0.510631 0.469223 0.944666
0.693703 0.503647 0.944496
0.846872 0.580629 0.942118
0.977234 0.620048 0.914261
0.476608 0.670593 0.944092
0.545357 0.678749 0.941559
0.667206 0.676918 0.942154
0.806034 0.717678 0.940277
0.947006 0.737198 0.922516
0.496834 0.832352 0.951210
0.532646 0.832712 0.948196
0.622730 0.826660 0.946690
0.756361 0.831650 0.942612
0.910568 0.850677 0.930832
0.611755 0.937256 0.952942
0.627662 0.937477 0.955338
0.678436 0.943085 0.950027
0.768089 0.948250 0.951210
0.886261 0.949005 0.945099
