ml_luts/presetpro_moody_stock__lut3d_33.cube
TITLE "Presetpro - Moody Stock.jpg"
DOMAIN_MIN 0.000000 0.000000 0.000000
DOMAIN_MAX 1.000000 1.000000 1.000000
LUT_3D_SIZE 33
0.003937 0.050995 0.050995
0.000123 0.058327 0.058445
0.003433 0.048264 0.055366
0.001035 0.053883 0.065600
0.000095 0.054855 0.059818
0.004377 0.057682 0.062134
0.014338 0.056139 0.062744
0.021980 0.061195 0.065820
0.033875 0.057617 0.065903
0.057217 0.061633 0.062748
0.072325 0.065803 0.055174
0.100046 0.065920 0.056732
0.127929 0.066246 0.062878
0.161999 0.065322 0.061404
0.201458 0.064461 0.058838
0.237778 0.065665 0.056746
0.280456 0.060791 0.051987
0.334293 0.049208 0.047112
0.392938 0.031353 0.042127
0.453943 0.010531 0.037248
0.510846 0.001480 0.033318
0.562401 0.000921 0.025950
0.616522 0.000000 0.013594
0.664560 0.000000 0.002457
0.714935 0.000763 0.000000
0.757247 0.003079 0.000000
0.797070 0.002579 0.000000
0.839472 0.000000 0.000000
0.869130 0.000492 0.000046
0.903096 0.003591 0.000332
0.930145 0.000236 0.000000
0.953323 0.000118 0.000000
0.976471 0.000000 0.000000
0.000123 0.051231 0.054897
0.000004 0.062258 0.062376
0.000107 0.058855 0.058966
0.000032 0.059016 0.059049
0.002900 0.059068 0.058636
0.001178 0.061526 0.058899
0.004239 0.060932 0.060041
0.017844 0.064605 0.059347
0.035633 0.064232 0.055644
0.057543 0.070976 0.059698
0.077826 0.069822 0.057914
0.102834 0.068957 0.057831
0.130250 0.071693 0.057375
0.163536 0.073872 0.057833
0.201658 0.074446 0.053668
0.246096 0.072599 0.049492
0.291987 0.068640 0.046473
0.342120 0.059802 0.042660
0.401538 0.041667 0.039245
0.460684 0.018434 0.032784
0.515949 0.003867 0.024197
0.569571 0.002056 0.014538
0.620058 0.001979 0.005092
0.666938 0.002909 0.000948
0.715911 0.001672 0.000000
0.759380 0.003012 0.000647
0.802273 0.000389 0.002519
0.839989 0.000524 0.000579
0.869233 0.000492 0.000356
0.903096 0.003569 0.000354
0.930611 0.000229 0.000451
0.960658 0.003560 0.003666
0.980255 0.003814 0.003666
0.000000 0.062025 0.062261
0.000000 0.062722 0.062729
0.000214 0.062737 0.062515
0.000229 0.062750 0.059389
0.000216 0.062977 0.059052
0.002964 0.066252 0.062154
0.007444 0.064952 0.061845
0.021223 0.069673 0.057216
0.037006 0.070239 0.057537
0.059696 0.073383 0.056096
0.084644 0.076827 0.058104
0.106754 0.079553 0.058300
0.131899 0.081589 0.054465
0.167505 0.082039 0.051603
0.206115 0.082954 0.049136
0.249205 0.082838 0.048305
0.297394 0.079136 0.044350
0.349267 0.070747 0.041014
0.406157 0.055561 0.037405
0.463366 0.034044 0.028584
0.520284 0.012259 0.022730
0.576378 0.001058 0.015088
0.625971 0.002424 0.005530
0.674875 0.001894 0.000817
0.724468 0.000106 0.000000
0.765774 0.000345 0.000148
0.807428 0.000601 0.000671
0.844112 0.000499 0.001045
0.873238 0.003021 0.002827
0.903614 0.003045 0.000022
0.930612 0.000644 0.000029
0.960666 0.006767 0.000236
0.980148 0.003679 0.000236
0.000000 0.070183 0.063076
0.000000 0.067076 0.066211
0.000021 0.070004 0.063278
0.000023 0.070206 0.062765
0.000293 0.070544 0.063047
0.000341 0.073888 0.065151
0.002383 0.074876 0.060314
0.020630 0.080209 0.060467
0.038082 0.084253 0.051733
0.059740 0.083601 0.052658
0.084734 0.085698 0.056089
0.115038 0.086855 0.057062
0.142741 0.089787 0.055580
0.181059 0.091408 0.050136
0.220394 0.092946 0.047858
0.261901 0.093968 0.045569
0.310852 0.093287 0.044165
0.362403 0.087488 0.039871
0.416987 0.074286 0.030029
0.474527 0.056104 0.021291
0.530718 0.033770 0.013425
0.582398 0.013425 0.007034
0.634823 0.002683 0.001434
0.686075 0.000264 0.001740
0.728957 0.000332 0.000249
0.767821 0.000977 0.000011
0.810467 0.002665 0.000113
0.846670 0.000120 0.000381
0.879572 0.000711 0.000367
0.906089 0.000313 0.000681
0.930768 0.000374 0.000545
0.957871 0.000765 0.000100
0.980354 0.003911 0.003208
0.000000 0.081821 0.073097
0.003208 0.081289 0.076737
0.000407 0.075553 0.067724
0.000020 0.078076 0.069826
0.003054 0.078817 0.065290
0.000545 0.083956 0.066263
0.001119 0.087946 0.060092
0.019059 0.089827 0.058928
0.035208 0.097572 0.055596
0.062742 0.097645 0.051521
0.093125 0.100551 0.053950
0.122793 0.103493 0.056187
0.154323 0.108185 0.055720
0.190925 0.109625 0.049248
0.230834 0.109152 0.044150
0.277309 0.108995 0.038908
0.327537 0.108299 0.033852
0.379316 0.104216 0.026935
0.433332 0.095890 0.019057
0.488146 0.085008 0.014698
0.545778 0.069784 0.007998
0.600362 0.050164 0.003257
0.647900 0.028692 0.004986
0.694189 0.010578 0.006926
0.735918 0.003117 0.001636
0.777400 0.004680 0.004104
0.812519 0.001463 0.005072
0.849764 0.002534 0.003533
0.881522 0.000391 0.001157
0.910485 0.002487 0.003065
0.939112 0.000869 0.002734
0.958057 0.003379 0.000961
0.974850 0.008797 0.003433
0.000000 0.096815 0.073983
0.000573 0.096796 0.075578
0.000073 0.092900 0.071274
0.002804 0.090546 0.071654
0.000924 0.095357 0.070766
0.000096 0.099428 0.067732
0.000326 0.098320 0.063822
0.013410 0.099181 0.062314
0.032059 0.106470 0.063813
0.062485 0.107714 0.060385
0.101246 0.113711 0.058537
0.133811 0.118603 0.050382
0.168678 0.123223 0.048595
0.207467 0.125260 0.045153
0.247147 0.128252 0.036029
0.293225 0.131325 0.029333
0.345679 0.130522 0.023367
0.398812 0.126574 0.014945
0.452066 0.120358 0.007327
0.506012 0.111764 0.003211
0.560123 0.101443 0.003574
0.613257 0.090021 0.004828
0.661735 0.076566 0.004107
0.707597 0.062915 0.005506
0.750733 0.050084 0.001110
0.786769 0.039650 0.001784
0.821973 0.035299 0.003061
0.856155 0.033242 0.002514
0.888871 0.036018 0.000858
0.913708 0.042217 0.005267
0.935979 0.049467 0.000642
0.960920 0.065129 0.002900
0.980472 0.078009 0.004911
0.002579 0.109693 0.074999
0.002579 0.110270 0.075826
0.002579 0.109108 0.078323
0.003201 0.108718 0.078798
0.002665 0.109874 0.074406
0.005257 0.112424 0.075417
0.001116 0.114962 0.074214
0.007943 0.115221 0.069749
0.029528 0.119414 0.068836
0.057993 0.123050 0.059809
0.096912 0.129517 0.057413
0.137403 0.134813 0.052086
0.178411 0.142111 0.049253
0.221783 0.146729 0.041690
0.268346 0.149965 0.031763
0.317609 0.153746 0.021977
0.371507 0.154262 0.010912
0.426564 0.152655 0.003543
0.479644 0.150044 0.002134
0.532629 0.143198 0.002796
0.583166 0.135704 0.002150
0.632077 0.130851 0.000974
0.678737 0.123821 0.000914
0.718502 0.117208 0.001403
0.758418 0.110258 0.002396
0.795849 0.104211 0.007979
0.829430 0.099351 0.003659
0.862578 0.099079 0.000925
0.893294 0.101994 0.001274
0.918511 0.107126 0.006819
0.940979 0.114124 0.002647
0.960574 0.122189 0.000703
0.982477 0.136024 0.000973
0.003079 0.128375 0.082480
0.003079 0.127861 0.083982
0.003079 0.127694 0.084862
0.003079 0.127757 0.084990
0.005394 0.130124 0.081997
0.004213 0.128698 0.079946
0.000737 0.131570 0.078257
0.005219 0.132177 0.074488
0.018504 0.135325 0.073891
0.050591 0.137093 0.065869
0.091140 0.146071 0.060410
0.131603 0.152789 0.051997
0.178632 0.160034 0.043350
0.230382 0.167444 0.034055
0.282172 0.174065 0.024018
0.335242 0.178843 0.011701
0.393534 0.178901 0.003070
0.452156 0.177797 0.001411
0.505386 0.178376 0.001079
0.556952 0.177640 0.000690
0.605145 0.174969 0.001838
0.650519 0.171075 0.002456
0.697656 0.166572 0.000052
0.734024 0.163143 0.000120
0.771185 0.159711 0.001365
0.808317 0.156436 0.004488
0.839615 0.154414 0.001209
0.869860 0.157222 0.001725
0.897239 0.159463 0.000304
0.921144 0.165280 0.001552
0.945562 0.169927 0.000703
0.964714 0.176503 0.000069
0.987005 0.186300 0.001383
0.000763 0.155342 0.084412
0.000852 0.155216 0.084929
0.000769 0.153067 0.086898
0.002733 0.150953 0.087028
0.003678 0.151497 0.086447
0.001235 0.150883 0.083809
0.001910 0.151549 0.084743
0.003879 0.153432 0.082606
0.010141 0.156883 0.077574
0.040946 0.158028 0.072743
0.085207 0.163444 0.068088
0.131126 0.171726 0.060386
0.180891 0.178628 0.048060
0.233326 0.186145 0.036631
0.289791 0.194394 0.024360
0.351361 0.200350 0.008704
0.416775 0.203518 0.001480
0.476162 0.206092 0.001512
0.528733 0.207753 0.001080
0.582809 0.208417 0.001435
0.631207 0.209399 0.001985
0.672684 0.209265 0.002648
0.713838 0.208909 0.000236
0.749767 0.209039 0.001560
0.787230 0.208508 0.003502
0.821817 0.206777 0.002798
0.849612 0.206601 0.001482
0.875518 0.207383 0.001146
0.902805 0.210423 0.000000
0.928019 0.215528 0.000000
0.948628 0.216124 0.000000
0.966083 0.224600 0.000037
0.987465 0.232560 0.001198
0.000000 0.182355 0.085368
0.000819 0.183535 0.091223
0.000814 0.180898 0.095558
0.001809 0.179722 0.095835
0.004772 0.180252 0.097984
0.002494 0.177585 0.090089
0.003104 0.177520 0.092922
0.001703 0.178466 0.087326
0.003541 0.183085 0.084669
0.031533 0.185510 0.078289
0.079365 0.186870 0.070472
0.129521 0.194263 0.064770
0.179896 0.203873 0.056764
0.234676 0.211019 0.043288
0.296012 0.217723 0.027668
0.359833 0.225032 0.012791
0.426874 0.229497 0.003325
0.492194 0.234435 0.000814
0.551371 0.240725 0.001123
0.605177 0.242613 0.001020
0.649787 0.243530 0.000576
0.690290 0.245749 0.000698
0.728746 0.247569 0.000342
0.763408 0.253332 0.001396
0.799991 0.254828 0.001830
0.830114 0.253908 0.001298
0.861628 0.255499 0.002884
0.885506 0.254745 0.002235
0.910755 0.255702 0.001996
0.933060 0.259722 0.001980
0.953221 0.263203 0.001945
0.970784 0.266005 0.003706
0.989144 0.273721 0.000283
0.000000 0.213836 0.093244
0.000342 0.216937 0.098458
0.000353 0.211975 0.101743
0.000693 0.209320 0.102199
0.001752 0.212935 0.104829
0.001029 0.208623 0.099740
0.001351 0.207216 0.099974
0.000380 0.206911 0.096718
0.000520 0.211330 0.093241
0.031583 0.213911 0.085928
0.080302 0.216738 0.080182
0.126162 0.221150 0.073206
0.178473 0.228406 0.066422
0.236614 0.234984 0.052499
0.298806 0.241277 0.034704
0.362521 0.249501 0.016838
0.430451 0.254838 0.004447
0.497222 0.259917 0.000723
0.558592 0.267993 0.001041
0.617429 0.274537 0.002209
0.667060 0.279848 0.001970
0.708844 0.282363 0.000910
0.746508 0.283923 0.001620
0.780471 0.290608 0.002788
0.812210 0.292833 0.001786
0.838556 0.298438 0.001094
0.869897 0.300682 0.002579
0.893009 0.302433 0.004924
0.915036 0.302174 0.002171
0.938562 0.304182 0.000861
0.957349 0.306968 0.000846
0.972842 0.312069 0.001608
0.989710 0.317265 0.000000
0.000921 0.246500 0.101796
0.002434 0.249489 0.106513
0.000155 0.248231 0.109359
0.000114 0.249379 0.113347
0.001312 0.247740 0.110721
0.000232 0.246906 0.109192
0.000145 0.243617 0.107524
0.001650 0.241195 0.106914
0.000516 0.243357 0.100855
0.029589 0.246079 0.091816
0.083736 0.248715 0.088431
0.134022 0.250104 0.081177
0.183304 0.253124 0.076120
0.237796 0.257984 0.063290
0.299576 0.266057 0.044424
0.364783 0.274120 0.024697
0.432293 0.280377 0.008028
0.499442 0.286571 0.000768
0.561906 0.294986 0.000344
0.620257 0.304419 0.001374
0.673285 0.310594 0.001906
0.720756 0.315623 0.001349
0.761546 0.321747 0.002191
0.795033 0.327171 0.004125
0.826327 0.330955 0.003524
0.849519 0.338310 0.001477
0.876707 0.343159 0.001928
0.895533 0.348731 0.003853
0.915624 0.352051 0.000767
0.940398 0.350367 0.000976
0.957766 0.353297 0.001466
0.972945 0.358125 0.001025
0.989464 0.361438 0.004226
0.004475 0.286240 0.110824
0.001514 0.288646 0.114583
0.000089 0.287768 0.115258
0.000864 0.289544 0.120477
0.000860 0.285548 0.117642
0.002997 0.285198 0.117965
0.000637 0.284076 0.114156
0.001234 0.282489 0.112927
0.002054 0.279056 0.111554
0.032498 0.280590 0.105302
0.093054 0.283622 0.100138
0.150305 0.284040 0.091658
0.197587 0.286877 0.087137
0.247443 0.289611 0.073923
0.304379 0.293746 0.052844
0.366620 0.300938 0.032003
0.434897 0.307776 0.012253
0.501435 0.315504 0.001730
0.561467 0.323267 0.000536
0.618545 0.330055 0.000826
0.670533 0.338468 0.001468
0.719029 0.347163 0.000780
0.764142 0.357844 0.001358
0.802258 0.366322 0.001929
0.835147 0.371566 0.002295
0.856152 0.376087 0.000598
0.880274 0.381801 0.000735
0.900229 0.388554 0.001950
0.922177 0.395789 0.003254
0.942138 0.395725 0.000685
0.959282 0.399454 0.002255
0.975306 0.402381 0.002924
0.991116 0.406841 0.003921
0.004904 0.327920 0.123412
0.002418 0.328857 0.124601
0.001420 0.328116 0.123521
0.001921 0.328736 0.126399
0.001104 0.326423 0.127784
0.003345 0.326283 0.126183
0.001504 0.323933 0.123998
0.000771 0.322691 0.123699
0.001542 0.319731 0.121452
0.045296 0.316788 0.114976
0.107522 0.321136 0.108697
0.169255 0.320059 0.102613
0.217960 0.322466 0.095418
0.266172 0.325379 0.080798
0.318567 0.325816 0.063829
0.374006 0.330165 0.045825
0.438474 0.337111 0.021373
0.503903 0.345650 0.004304
0.563535 0.352875 0.001368
0.620951 0.358575 0.001376
0.671965 0.368232 0.001958
0.718030 0.377735 0.002387
0.762955 0.388209 0.002511
0.802261 0.398151 0.001260
0.836054 0.405221 0.002309
0.859754 0.414702 0.002874
0.884426 0.421549 0.001153
0.904553 0.427317 0.000590
0.926065 0.435319 0.002212
0.942572 0.440310 0.001101
0.962069 0.443094 0.001062
0.976752 0.446316 0.003696
0.990798 0.450468 0.000979
0.004915 0.370790 0.132618
0.006030 0.371971 0.133932
0.001447 0.370178 0.133318
0.001730 0.370886 0.137523
0.001726 0.367634 0.136704
0.003117 0.368542 0.133832
0.002669 0.367174 0.133506
0.000809 0.363103 0.133634
0.001568 0.360595 0.131282
0.058020 0.357295 0.124526
0.129667 0.359634 0.119521
0.189634 0.357603 0.113114
0.240723 0.358868 0.104324
0.291736 0.362489 0.091316
0.341794 0.362093 0.075513
0.390260 0.363999 0.057503
0.444348 0.369270 0.034087
0.504238 0.376445 0.011049
0.564522 0.383936 0.001622
0.621456 0.390178 0.002050
0.671634 0.399015 0.002047
0.717409 0.408999 0.004010
0.759993 0.419673 0.003644
0.796973 0.429804 0.001256
0.831689 0.437050 0.001607
0.861805 0.448012 0.003207
0.886729 0.457205 0.002103
0.906908 0.466027 0.000749
0.927938 0.474491 0.001277
0.942203 0.481517 0.003050
0.961781 0.484630 0.001170
0.973664 0.488461 0.001701
0.989937 0.492871 0.000996
0.002661 0.417401 0.137177
0.004563 0.417411 0.141334
0.002357 0.413857 0.143286
0.003610 0.413909 0.148684
0.003962 0.410115 0.147705
0.004561 0.410701 0.145109
0.003941 0.410542 0.144011
0.000826 0.407997 0.142844
0.002521 0.403626 0.142810
0.064009 0.401442 0.138608
0.149038 0.397407 0.131968
0.212870 0.397570 0.125290
0.265403 0.398591 0.118148
0.315736 0.400958 0.107798
0.363342 0.402051 0.090111
0.409884 0.402540 0.068622
0.457704 0.405527 0.047262
0.508527 0.408451 0.023964
0.562314 0.412808 0.006772
0.616537 0.421473 0.001627
0.667281 0.431999 0.000880
0.713741 0.442623 0.001983
0.755830 0.452451 0.002652
0.790526 0.463257 0.002548
0.824969 0.470373 0.000207
0.857421 0.477765 0.001142
0.882126 0.488091 0.002336
0.904680 0.498969 0.002716
0.926658 0.509573 0.002859
0.941456 0.516039 0.002378
0.959922 0.521292 0.001831
0.971123 0.527013 0.000081
0.988045 0.532621 0.000830
0.000000 0.462616 0.147995
0.003740 0.461759 0.153700
0.003160 0.460014 0.157676
0.004648 0.459499 0.161607
0.005581 0.457855 0.160892
0.004520 0.455541 0.158058
0.002555 0.452997 0.157512
0.001210 0.453930 0.157108
0.002743 0.448219 0.154949
0.068235 0.445908 0.150724
0.164533 0.438195 0.143379
0.237107 0.437392 0.138307
0.288834 0.437818 0.129755
0.335656 0.439614 0.121235
0.383105 0.442200 0.108915
0.428718 0.443012 0.089365
0.474068 0.445542 0.065216
0.519010 0.447091 0.040624
0.563847 0.447514 0.017360
0.613043 0.453853 0.002530
0.662832 0.464787 0.001238
0.708714 0.475016 0.001788
0.750027 0.483458 0.001976
0.785664 0.492860 0.002729
0.820019 0.501755 0.000755
0.851082 0.509139 0.000567
0.877321 0.518734 0.002477
0.899146 0.529171 0.001968
0.920912 0.539209 0.001770
0.937671 0.547410 0.000434
0.957157 0.554428 0.001010
0.970729 0.564690 0.001970
0.985260 0.570603 0.002029
0.001016 0.506114 0.160787
0.004016 0.506122 0.165506
0.001625 0.507075 0.170685
0.003631 0.506735 0.176703
0.006011 0.503782 0.176201
0.003660 0.500573 0.174032
0.001803 0.497307 0.173440
0.001111 0.497043 0.171259
0.002431 0.492201 0.168268
0.077608 0.488925 0.164845
0.180428 0.483012 0.161438
0.255452 0.479419 0.154250
0.310180 0.476446 0.144538
0.358488 0.478993 0.137299
0.405986 0.482087 0.128548
0.447207 0.483159 0.112612
0.487327 0.485678 0.089714
0.530590 0.489384 0.064375
0.573299 0.489975 0.034495
0.615904 0.490715 0.008727
0.657906 0.497859 0.002143
0.700773 0.506215 0.002567
0.741433 0.514809 0.001251
0.778468 0.524195 0.001081
0.813713 0.533977 0.001156
0.844776 0.541152 0.000369
0.872550 0.550936 0.001560
0.892178 0.560180 0.001016
0.913617 0.567518 0.001037
0.934105 0.576868 0.001076
0.951676 0.585283 0.000342
0.968560 0.595964 0.005422
0.982404 0.603707 0.004002
0.001940 0.550499 0.174780
0.001940 0.550485 0.176958
0.001071 0.550756 0.183330
0.002900 0.551177 0.192538
0.005347 0.546777 0.193827
0.004370 0.544533 0.193278
0.002767 0.542267 0.190473
0.001402 0.541135 0.186961
0.005093 0.537113 0.183480
0.092025 0.531719 0.182974
0.194527 0.529479 0.181386
0.270242 0.525151 0.171840
0.330065 0.518757 0.165971
0.379251 0.520425 0.160178
0.424213 0.522355 0.149775
0.463521 0.522158 0.134747
0.501317 0.524341 0.115594
0.543326 0.528517 0.094200
0.584955 0.529448 0.066709
0.622525 0.529248 0.033126
0.657515 0.534119 0.008504
0.695311 0.538908 0.000800
0.734745 0.546519 0.000267
0.771057 0.557270 0.000773
0.805705 0.565622 0.000508
0.834859 0.572285 0.000261
0.863744 0.582572 0.000229
0.883381 0.590215 0.001219
0.905185 0.597938 0.001313
0.928082 0.604784 0.001787
0.945579 0.614841 0.000253
0.962053 0.622393 0.003994
0.977947 0.631626 0.002215
0.001598 0.593889 0.196573
0.000998 0.593359 0.196239
0.001560 0.592357 0.203164
0.001795 0.592977 0.210331
0.002609 0.590953 0.213775
0.003208 0.590678 0.213799
0.001606 0.586061 0.208538
0.001925 0.585348 0.207567
0.013632 0.581375 0.201355
0.112280 0.575367 0.203492
0.213324 0.575464 0.201564
0.288071 0.569977 0.193116
0.348206 0.563617 0.188101
0.396295 0.563217 0.184813
0.439357 0.561831 0.175377
0.479441 0.561027 0.160355
0.517893 0.563578 0.143536
0.556617 0.566801 0.125875
0.593748 0.567900 0.106283
0.629435 0.569130 0.077782
0.663357 0.573032 0.040875
0.696196 0.574887 0.013225
0.731122 0.578303 0.002509
0.766079 0.586374 0.000811
0.799493 0.595278 0.000113
0.825396 0.603604 0.000354
0.854703 0.612501 0.000000
0.876593 0.618647 0.000000
0.898684 0.627668 0.000093
0.917465 0.634879 0.000871
0.941551 0.643108 0.001982
0.954568 0.650519 0.000096
0.973893 0.657743 0.000000
0.002430 0.635334 0.218498
0.000076 0.634787 0.218339
0.001388 0.632945 0.226227
0.001480 0.633560 0.230528
0.002101 0.631454 0.239460
0.001588 0.634055 0.238740
0.000664 0.627598 0.232749
0.001261 0.625582 0.231449
0.040244 0.624128 0.226093
0.147056 0.617980 0.228141
0.239448 0.617601 0.225340
0.306423 0.611676 0.220668
0.365806 0.606341 0.215367
0.414687 0.604157 0.212020
0.456397 0.600835 0.203317
0.495642 0.600213 0.188814
0.531778 0.602524 0.176657
0.566490 0.605237 0.161984
0.601287 0.608193 0.142047
0.634868 0.609767 0.123023
0.666425 0.611335 0.096298
0.698044 0.613839 0.058254
0.729924 0.614380 0.027416
0.759407 0.617527 0.008210
0.790795 0.626626 0.000712
0.816508 0.634853 0.000000
0.844680 0.642089 0.000000
0.869121 0.646306 0.000148
0.892401 0.654516 0.000997
0.909265 0.663037 0.001516
0.934687 0.668894 0.003135
0.948081 0.676592 0.000148
0.968643 0.683769 0.000000
0.002584 0.673407 0.244186
0.000497 0.673651 0.246077
0.001294 0.670467 0.252061
0.002188 0.671078 0.256815
0.002553 0.668885 0.267200
0.002585 0.668805 0.268692
0.000698 0.666718 0.264245
0.019365 0.663382 0.262839
0.098622 0.662901 0.259569
0.195285 0.657533 0.256605
0.269751 0.654962 0.251180
0.327927 0.650632 0.249394
0.383395 0.646255 0.246022
0.429438 0.642932 0.240291
0.469071 0.639004 0.232883
0.507467 0.637196 0.222458
0.542394 0.638114 0.213065
0.574504 0.641020 0.200827
0.607182 0.643249 0.183037
0.638477 0.642971 0.167721
0.667241 0.645380 0.149748
0.698976 0.650750 0.122541
0.729733 0.653106 0.089963
0.754541 0.653041 0.050641
0.781077 0.655642 0.025356
0.805378 0.662323 0.007138
0.832341 0.668975 0.000000
0.858002 0.674793 0.000545
0.881331 0.681527 0.003413
0.899996 0.688315 0.002642
0.922328 0.695607 0.000229
0.937243 0.703573 0.000000
0.958507 0.712950 0.000000
0.000353 0.706350 0.277523
0.000844 0.706016 0.281399
0.000860 0.706005 0.282483
0.002637 0.704454 0.288033
0.001414 0.703114 0.299776
0.003320 0.701851 0.303460
0.023647 0.701294 0.300953
0.088297 0.695078 0.298608
0.172978 0.695368 0.298195
0.246347 0.692737 0.294221
0.304519 0.687373 0.290033
0.355655 0.686272 0.285983
0.404093 0.683396 0.279168
0.446645 0.680454 0.274153
0.484067 0.675692 0.269210
0.521222 0.670855 0.261361
0.555285 0.670372 0.254071
0.584708 0.673998 0.243377
0.614043 0.676009 0.228940
0.643747 0.675635 0.216652
0.671965 0.679483 0.201410
0.699713 0.684204 0.181670
0.727290 0.686066 0.159486
0.752027 0.686943 0.130069
0.774756 0.684730 0.095586
0.798873 0.687963 0.053227
0.822854 0.694296 0.026775
0.849978 0.702114 0.013433
0.869821 0.708546 0.007909
0.889491 0.715810 0.001132
0.912079 0.721364 0.001106
0.927142 0.728298 0.000906
0.949526 0.736152 0.002098
0.001627 0.734652 0.312382
0.000841 0.735800 0.318764
0.000051 0.736537 0.319449
0.000238 0.736145 0.326365
0.016687 0.735407 0.334735
0.052415 0.732129 0.336942
0.112922 0.731292 0.339450
0.189853 0.727075 0.336911
0.249675 0.726187 0.338902
0.301403 0.723648 0.333303
0.341238 0.720098 0.329278
0.384862 0.717381 0.325598
0.428113 0.716592 0.318312
0.466224 0.713356 0.313033
0.500174 0.707448 0.307682
0.535679 0.704036 0.301068
0.568417 0.703020 0.295988
0.595394 0.705556 0.287269
0.621168 0.708273 0.273985
0.647780 0.708524 0.261875
0.675467 0.710946 0.250434
0.701901 0.713125 0.236336
0.727984 0.716457 0.217836
0.750773 0.718770 0.197733
0.772446 0.717776 0.173378
0.797898 0.717518 0.147153
0.818116 0.719728 0.110871
0.840729 0.726717 0.070752
0.860218 0.735415 0.045611
0.880697 0.738781 0.026469
0.902632 0.745821 0.016492
0.922113 0.750147 0.007639
0.940971 0.757357 0.004826
0.002174 0.762100 0.354698
0.007289 0.760378 0.355836
0.018798 0.763498 0.358591
0.035636 0.760557 0.365140
0.095886 0.760838 0.370105
0.185507 0.757147 0.382378
0.233643 0.757104 0.379745
0.276416 0.757542 0.375081
0.315998 0.754709 0.374794
0.352404 0.753508 0.370101
0.385430 0.751677 0.368376
0.422090 0.748477 0.366136
0.454471 0.746824 0.360546
0.486026 0.743586 0.354745
0.517390 0.739437 0.348922
0.549416 0.737529 0.343523
0.580627 0.735813 0.339599
0.607171 0.734330 0.331914
0.630714 0.735452 0.320439
0.655218 0.737365 0.310493
0.679896 0.738991 0.300515
0.702060 0.742473 0.287126
0.726087 0.745448 0.271686
0.750750 0.744567 0.260091
0.773542 0.745854 0.242931
0.793707 0.746814 0.220654
0.813355 0.748174 0.193237
0.831831 0.751991 0.165394
0.851342 0.757483 0.144734
0.869294 0.761960 0.116659
0.893975 0.768479 0.080587
0.915078 0.774038 0.052497
0.930710 0.779412 0.034256
0.043372 0.790957 0.401382
0.064205 0.786404 0.393902
0.111780 0.790140 0.401050
0.170027 0.785835 0.406601
0.234127 0.785634 0.411252
0.280116 0.784818 0.419962
0.317507 0.783285 0.422699
0.346175 0.783812 0.418141
0.375395 0.779233 0.417592
0.400433 0.780652 0.412177
0.429004 0.778576 0.408985
0.455425 0.776275 0.407030
0.481428 0.776052 0.401443
0.510757 0.773740 0.397376
0.541001 0.768991 0.394217
0.569394 0.766720 0.388724
0.596682 0.764307 0.384010
0.620900 0.763243 0.377478
0.642880 0.764619 0.369215
0.663937 0.763957 0.361725
0.684603 0.764879 0.351135
0.708261 0.767153 0.338636
0.729679 0.768259 0.324808
0.750250 0.771948 0.311819
0.768105 0.774245 0.297470
0.787071 0.772054 0.282899
0.808221 0.774812 0.263367
0.824732 0.776236 0.240145
0.842399 0.777761 0.220382
0.863901 0.781560 0.203851
0.883839 0.788217 0.187383
0.907063 0.794224 0.169474
0.929056 0.799512 0.158246
0.219851 0.810173 0.438368
0.239729 0.813935 0.439686
0.262668 0.812356 0.440212
0.286178 0.810359 0.444072
0.322752 0.811500 0.448321
0.360461 0.806572 0.460296
0.391847 0.806047 0.464895
0.408308 0.809301 0.458966
0.428564 0.806726 0.457471
0.447358 0.804639 0.453953
0.470109 0.801995 0.451599
0.494015 0.801611 0.453194
0.515645 0.800390 0.448671
0.540005 0.797733 0.443521
0.565572 0.794883 0.440630
0.589359 0.792729 0.436798
0.611890 0.790717 0.430109
0.634049 0.791280 0.423890
0.655329 0.791446 0.419216
0.674384 0.788314 0.411397
0.695301 0.788392 0.401605
0.717210 0.790705 0.392497
0.733092 0.792934 0.382375
0.750813 0.795353 0.370299
0.765591 0.794769 0.356266
0.785454 0.796153 0.345683
