ml_luts/presetpro_gold_200__lut3d_33.cube
TITLE "Presetpro - Gold 200.jpg"
DOMAIN_MIN 0.000000 0.000000 0.000000
DOMAIN_MAX 1.000000 1.000000 1.000000
LUT_3D_SIZE 5
0.000000 0.000000 0.000000
0.087570 0.005676 0.011002
0.550980 0.000946 0.015625
0.917649 0.002937 0.028427
1.000000 0.231384 0.207855
0.001518 0.157844 0.058380
0.094162 0.180817 0.001938
0.626797 0.056858 0.000492
0.946570 0.005920 0.005455
0.993889 0.335838 0.101349
0.001007 0.541183 0.266663
0.047093 0.538494 0.220108
0.598107 0.567780 0.008209
0.947502 0.548138 0.001495
0.998993 0.554978 0.001007
0.423553 0.839988 0.559052
0.449192 0.842257 0.525772
0.605770 0.839241 0.456444
0.866064 0.861107 0.276304
0.999245 0.850541 0.002395
0.792145 0.984314 0.870575
0.790192 0.988693 0.867867
0.814744 0.986267 0.847122
0.884758 0.991402 0.814598
0.996063 1.000000 0.701965
0.000000 0.015678 0.155876
0.099482 0.013676 0.150557
0.559578 0.002235 0.158478
0.927172 0.002533 0.106564
0.999245 0.270905 0.182136
0.000923 0.186043 0.209578
0.155725 0.211362 0.221100
0.618354 0.191837 0.188572
0.940956 0.198598 0.093398
0.999025 0.355437 0.077261
0.136837 0.553925 0.396805
0.300218 0.559911 0.380394
0.619812 0.578934 0.274433
0.944167 0.566042 0.054404
0.998943 0.565640 0.001244
0.501892 0.844006 0.641359
0.534757 0.844941 0.624129
0.631358 0.840170 0.553214
0.864689 0.865735 0.430621
0.999157 0.855066 0.065691
0.806855 0.983338 0.893128
0.803389 0.983832 0.882151
0.821564 0.986122 0.868988
0.887108 0.991714 0.838068
1.000000 0.995308 0.738762
0.001007 0.097091 0.463699
0.082958 0.111992 0.485985
0.618667 0.020889 0.490196
0.918914 0.231750 0.469910
0.997162 0.519333 0.545029
0.000599 0.269959 0.473576
0.198417 0.284505 0.503550
0.637125 0.310717 0.524748
0.906068 0.412489 0.519638
0.997387 0.562981 0.545639
0.197533 0.555916 0.556389
0.376106 0.565245 0.566181
0.642693 0.602425 0.589691
0.896500 0.635612 0.573643
0.998489 0.661392 0.503517
0.568001 0.853893 0.766666
0.607856 0.852581 0.761258
0.700039 0.855744 0.748224
0.854023 0.869592 0.681746
0.996800 0.857010 0.539486
0.785325 0.984253 0.904862
0.807587 0.986519 0.908501
0.852371 0.986778 0.912171
0.887970 0.989956 0.887943
1.000000 0.992157 0.832398
0.000000 0.284332 0.777230
0.297310 0.293689 0.789368
0.680474 0.349461 0.823002
0.928793 0.389464 0.817856
1.000000 0.589210 0.782570
0.119955 0.400963 0.771467
0.340994 0.405598 0.786921
0.680776 0.468804 0.824325
0.915534 0.518098 0.829227
0.997860 0.662460 0.801495
0.134487 0.582050 0.757244
0.313009 0.583196 0.758554
0.639604 0.644516 0.812996
0.876430 0.725698 0.843643
0.997231 0.794876 0.842259
0.512514 0.837035 0.842293
0.565031 0.837858 0.849927
0.687683 0.849190 0.851639
0.844666 0.875837 0.867532
0.997122 0.889652 0.858494
0.807076 0.985290 0.954903
0.819912 0.986568 0.950052
0.850254 0.989574 0.951485
0.913485 0.992260 0.950130
0.991173 1.000000 0.919609
0.635284 0.666656 0.984314
0.684761 0.678871 0.987251
0.797104 0.703918 0.990143
0.921120 0.758827 0.984322
0.996063 0.756866 0.980377
0.639976 0.712510 0.981911
0.683704 0.720007 0.984369
0.793740 0.745476 0.985279
0.915449 0.795460 0.985102
1.000000 0.791938 0.982582
0.618591 0.807831 0.978424
0.673206 0.814614 0.981777
0.768150 0.816666 0.982414
0.903301 0.855915 0.986065
1.000000 0.860840 0.981339
0.664406 0.923317 0.985077
0.677173 0.919148 0.985973
0.720825 0.907482 0.986237
0.868716 0.911896 0.986175
0.998260 0.936943 0.985725
0.819611 0.992157 0.996063
0.824181 0.996284 0.992378
0.859756 0.997025 0.998993
0.918083 0.995308 0.998260
1.000000 1.000000 1.000000
