ml_luts/presetpro_kodacrome_64__lut3d_33.cube
TITLE "Presetpro - Kodachrome 64.jpg"
DOMAIN_MIN 0.000000 0.000000 0.000000
DOMAIN_MAX 1.000000 1.000000 1.000000
LUT_3D_SIZE 5
0.003937 0.000000 0.000000
0.108665 0.003487 0.000450
0.272965 0.008636 0.000000
0.527504 0.001190 0.000000
0.825653 0.000000 0.000000
0.002770 0.108032 0.041352
0.107886 0.110855 0.024926
0.308017 0.109898 0.002487
0.557894 0.107096 0.001881
0.847000 0.117882 0.000557
0.000930 0.296798 0.109818
0.001183 0.295853 0.103168
0.295113 0.313675 0.069626
0.615559 0.338738 0.002422
0.891266 0.372680 0.003784
0.000343 0.604530 0.203835
0.001667 0.601801 0.180563
0.098309 0.595268 0.169533
0.568916 0.604147 0.067984
0.893906 0.632225 0.004783
0.002716 0.863647 0.450684
0.002037 0.864952 0.436676
0.255844 0.864303 0.437973
0.558044 0.861321 0.420784
0.824738 0.855804 0.339355
0.022911 0.002701 0.097191
0.107357 0.008961 0.093586
0.285061 0.017490 0.085529
0.538292 0.001081 0.057177
0.837334 0.001693 0.000000
0.003903 0.110807 0.127623
0.125168 0.113268 0.132597
0.305407 0.117181 0.115541
0.563154 0.099865 0.070735
0.856337 0.136925 0.000750
0.000286 0.302330 0.197067
0.015846 0.302784 0.174656
0.307222 0.315065 0.153215
0.625688 0.335112 0.100547
0.894012 0.368874 0.005558
0.000446 0.607674 0.290426
0.002634 0.607339 0.252435
0.137062 0.602341 0.235512
0.578891 0.606543 0.177622
0.896397 0.633081 0.037388
0.000000 0.863861 0.503662
0.000534 0.866608 0.484230
0.288498 0.864517 0.468170
0.562284 0.856279 0.458243
0.823677 0.858643 0.379982
0.061813 0.001327 0.257355
0.143089 0.001022 0.256165
0.307640 0.007149 0.256943
0.575489 0.000461 0.243736
0.845276 0.004135 0.193283
0.039780 0.100323 0.278919
0.152543 0.108716 0.291705
0.332851 0.124811 0.285057
0.595411 0.051181 0.260884
0.874466 0.088188 0.213989
0.001289 0.303017 0.331070
0.046572 0.331472 0.353470
0.387657 0.361175 0.358437
0.670753 0.372242 0.335301
0.925476 0.389824 0.263283
0.002186 0.611981 0.428349
0.003048 0.641470 0.446703
0.326817 0.649105 0.434006
0.647968 0.649444 0.409578
0.941444 0.663906 0.371715
0.051849 0.865708 0.587036
0.312683 0.894142 0.626393
0.443954 0.893761 0.614868
0.636337 0.890000 0.606709
0.861420 0.893952 0.555893
0.120262 0.002953 0.520676
0.204172 0.000614 0.518314
0.384995 0.000511 0.513676
0.627270 0.000669 0.513932
0.904282 0.003159 0.526848
0.110815 0.086658 0.541062
0.215949 0.079163 0.551288
0.402267 0.061225 0.542916
0.655904 0.056903 0.539303
0.913929 0.146544 0.542593
0.001594 0.270874 0.580906
0.111500 0.299380 0.611935
0.451906 0.347002 0.627991
0.720490 0.417014 0.628695
0.946583 0.439621 0.599381
0.001915 0.605472 0.632694
0.015807 0.635863 0.662249
0.444913 0.673597 0.697472
0.760757 0.716661 0.730047
0.970635 0.700996 0.684654
0.003433 0.865913 0.713043
0.171160 0.896616 0.738024
0.457008 0.928234 0.769013
0.730805 0.940056 0.794163
0.921173 0.943718 0.764961
0.347198 0.000000 0.858521
0.406960 0.000069 0.854393
0.551880 0.000839 0.860260
0.749748 0.001282 0.847893
0.958069 0.001221 0.829865
0.345879 0.001434 0.861778
0.414885 0.000995 0.875338
0.560383 0.000927 0.876144
0.765289 0.005714 0.863279
0.967552 0.167869 0.851570
0.307038 0.282394 0.871948
0.401001 0.308651 0.902820
0.576538 0.332725 0.920273
0.787991 0.400352 0.912891
0.991470 0.481095 0.899307
0.025734 0.569870 0.886429
0.254841 0.599003 0.912916
0.517853 0.639732 0.941818
0.790648 0.690628 0.956095
0.996040 0.741028 0.941315
0.294739 0.845551 0.900452
0.396705 0.874031 0.931000
0.566604 0.910080 0.956818
0.773369 0.956406 0.983147
0.995209 0.998688 0.998688
