ml_luts/presetpro_color_400__lut3d_33.cube
TITLE "Presetpro - Color 400.jpg"
DOMAIN_MIN 0.000000 0.000000 0.000000
DOMAIN_MAX 1.000000 1.000000 1.000000
LUT_3D_SIZE 9
0.023376 0.086761 0.066742
0.071609 0.089676 0.069679
0.144493 0.092880 0.069718
0.246933 0.095108 0.067585
0.405869 0.090103 0.060913
0.605045 0.050076 0.042584
0.801865 0.000000 0.007515
0.962360 0.048820 0.002914
1.000000 0.156860 0.003357
0.027412 0.122032 0.071262
0.066437 0.128377 0.064584
0.149034 0.133367 0.068319
0.257385 0.133309 0.065168
0.413847 0.136772 0.057684
0.613627 0.119744 0.032944
0.806197 0.109823 0.000123
0.967444 0.145772 0.000429
0.997024 0.218384 0.000458
0.023353 0.174713 0.084068
0.054676 0.180218 0.082773
0.133686 0.198153 0.070622
0.278403 0.219881 0.052564
0.429749 0.211151 0.037853
0.628137 0.219046 0.004433
0.811670 0.231634 0.003015
0.963825 0.265799 0.001524
0.999809 0.312744 0.000000
0.000813 0.267796 0.098969
0.039936 0.267091 0.101375
0.113755 0.286793 0.089631
0.268291 0.340112 0.045393
0.509270 0.397430 0.001312
0.659239 0.369315 0.000308
0.811396 0.364608 0.002766
0.963990 0.395221 0.000244
0.999187 0.430050 0.000000
0.002487 0.406616 0.118546
0.021006 0.405851 0.121548
0.083012 0.409126 0.119949
0.242842 0.464594 0.078459
0.477425 0.539643 0.002869
0.739336 0.612303 0.001533
0.861862 0.575130 0.000641
0.962888 0.538391 0.000707
0.999192 0.550003 0.000808
0.002098 0.579162 0.175202
0.020449 0.578354 0.174183
0.095032 0.576471 0.172584
0.262982 0.602543 0.161164
0.453490 0.662296 0.101778
0.676504 0.718324 0.007450
0.886144 0.772334 0.000226
0.979307 0.738575 0.000410
0.995831 0.701389 0.001266
0.126694 0.748993 0.299141
0.183489 0.746081 0.303473
0.270870 0.745485 0.307295
0.374933 0.745212 0.309575
0.505306 0.781163 0.299217
0.661183 0.813765 0.277049
0.819429 0.840223 0.231592
0.964652 0.866010 0.152221
0.999352 0.838256 0.024505
0.429790 0.871372 0.477646
0.454798 0.869756 0.481815
0.501703 0.869902 0.483802
0.553520 0.868647 0.488410
0.623035 0.876043 0.492478
0.707721 0.893035 0.485332
0.802629 0.904587 0.476426
0.900089 0.915756 0.449040
0.998413 0.924687 0.416775
0.654083 0.943268 0.660767
0.676063 0.949921 0.657440
0.702461 0.949097 0.665954
0.733330 0.945793 0.666748
0.776169 0.947464 0.671646
0.811440 0.954910 0.674103
0.853271 0.958671 0.668060
0.898323 0.959976 0.655826
0.953278 0.963287 0.637421
0.029278 0.089756 0.107548
0.073415 0.090498 0.105535
0.141587 0.095073 0.107801
0.250399 0.098353 0.106704
0.412273 0.090238 0.110100
0.617549 0.036006 0.096141
0.809095 0.001389 0.075022
0.969922 0.012700 0.030243
0.997024 0.147198 0.018627
0.023983 0.125371 0.105434
0.073191 0.129942 0.114158
0.149937 0.135790 0.113642
0.261268 0.138373 0.108285
0.425143 0.132613 0.101343
0.624313 0.110423 0.088241
0.815604 0.090373 0.059429
0.970079 0.131530 0.019502
0.997123 0.210996 0.018972
0.036152 0.186834 0.121474
0.071342 0.187655 0.119218
0.142612 0.202098 0.110239
0.281348 0.212347 0.097314
0.440600 0.211239 0.089122
0.638957 0.215136 0.064695
0.818294 0.226620 0.024154
0.973150 0.258732 0.018902
0.998074 0.309120 0.020426
0.004657 0.279122 0.133926
0.058573 0.278438 0.136656
0.128422 0.291293 0.133928
0.277521 0.342301 0.104831
0.510645 0.388575 0.024859
0.659998 0.357517 0.019407
0.822042 0.361685 0.020239
0.969571 0.391204 0.020179
0.998465 0.427677 0.019869
0.002058 0.420124 0.163349
0.020854 0.420678 0.164503
0.116915 0.418302 0.170140
0.254419 0.467625 0.140604
0.481984 0.542702 0.041533
0.736605 0.607558 0.020687
0.859544 0.567107 0.019842
0.963233 0.532806 0.020213
0.999126 0.545853 0.020277
0.001478 0.588152 0.223489
0.020238 0.589482 0.227310
0.141647 0.584731 0.228212
0.286665 0.604890 0.224563
0.464415 0.661981 0.186115
0.680579 0.720797 0.090620
0.887509 0.770652 0.019351
0.979134 0.734144 0.020160
0.998634 0.697058 0.021097
0.166699 0.753759 0.345124
0.215284 0.752008 0.345577
0.294916 0.751332 0.349671
0.389032 0.747900 0.357249
0.512334 0.778720 0.347753
0.665777 0.812889 0.333716
0.820174 0.842045 0.304196
0.962739 0.867665 0.256296
0.998578 0.839612 0.070949
0.439782 0.874291 0.514329
0.470709 0.873944 0.517202
0.509808 0.873684 0.517854
0.566374 0.870796 0.521582
0.632157 0.875367 0.526164
0.713884 0.891284 0.524067
0.804844 0.906289 0.512807
0.900693 0.915776 0.497296
0.996674 0.924406 0.460643
0.658562 0.946594 0.683868
0.679707 0.947302 0.683401
0.709116 0.948130 0.687513
0.739291 0.946885 0.689298
0.775961 0.946764 0.698599
0.814924 0.950748 0.691694
0.850901 0.957677 0.688666
0.900730 0.963182 0.684024
0.951156 0.964061 0.665279
0.033562 0.094085 0.165359
0.079611 0.095925 0.165493
0.143009 0.100481 0.169840
0.240825 0.104804 0.169992
0.416740 0.071705 0.177868
0.635698 0.000335 0.171686
0.827234 0.001810 0.179235
0.975253 0.004985 0.172462
0.998146 0.143966 0.173042
0.017552 0.130027 0.177749
0.078151 0.136300 0.169718
0.153165 0.141755 0.172443
0.254261 0.142512 0.176009
0.436021 0.113543 0.179289
0.646104 0.058029 0.180264
0.831453 0.049450 0.180599
0.979072 0.105478 0.171380
0.998098 0.203979 0.164260
0.014477 0.195711 0.174986
0.073989 0.201017 0.179179
0.157219 0.207680 0.183536
0.295757 0.211064 0.184125
0.467632 0.212510 0.179017
0.659646 0.207260 0.174643
0.837142 0.212372 0.160305
0.979124 0.247629 0.144135
0.998522 0.303863 0.132608
0.026960 0.300291 0.206704
0.089456 0.306423 0.211420
0.168224 0.308636 0.212529
0.300361 0.349593 0.197904
0.508903 0.363298 0.156945
0.670064 0.342498 0.130243
0.840335 0.359089 0.101373
0.977329 0.384938 0.071750
0.998029 0.421233 0.059359
0.002323 0.453877 0.255036
0.038324 0.451254 0.247997
0.172027 0.449496 0.253262
0.289667 0.473583 0.249856
0.502699 0.545237 0.215075
0.736677 0.590917 0.121002
0.857558 0.543061 0.040770
0.967640 0.523192 0.039208
0.999271 0.541618 0.038216
0.016713 0.613521 0.319324
0.096241 0.609733 0.319773
0.216644 0.609879 0.320119
0.329253 0.608846 0.324928
0.481924 0.663335 0.310456
0.688743 0.722090 0.285346
0.884729 0.764473 0.221203
0.976766 0.724804 0.069474
0.998758 0.684527 0.038204
0.244839 0.762962 0.428699
0.282479 0.762960 0.433188
0.349141 0.757166 0.435663
0.427714 0.756482 0.433179
0.531858 0.777004 0.434093
0.674782 0.812888 0.431644
0.821771 0.842343 0.419744
0.958284 0.866952 0.398736
0.999193 0.832779 0.282957
0.468058 0.876109 0.563914
0.494056 0.876005 0.564429
0.533057 0.873920 0.567743
0.586371 0.871853 0.572187
0.643150 0.874437 0.578914
0.726774 0.889848 0.576224
0.809302 0.906171 0.575520
0.902465 0.914832 0.561436
0.991451 0.925090 0.542256
0.667641 0.946785 0.711357
0.688771 0.947427 0.712006
0.714378 0.947562 0.713676
0.743401 0.947798 0.720029
0.781204 0.946465 0.724670
0.815979 0.954119 0.726278
0.859064 0.957092 0.719597
0.904536 0.962502 0.711588
0.955781 0.963935 0.695328
0.012539 0.095543 0.278179
0.078096 0.099091 0.276891
0.164237 0.102684 0.277459
0.270915 0.106481 0.285142
0.410000 0.093200 0.291166
0.621723 0.011751 0.318696
0.829335 0.002142 0.322934
0.979588 0.002027 0.314078
0.997909 0.145405 0.357811
0.004283 0.137131 0.290534
0.073214 0.140470 0.288723
0.173005 0.144779 0.291656
0.278989 0.149432 0.292943
0.425231 0.139993 0.304166
0.637102 0.071004 0.323111
0.838908 0.020005 0.324450
0.980143 0.025692 0.321165
0.997490 0.244897 0.370971
0.001699 0.204035 0.308230
0.021218 0.205172 0.309267
0.166038 0.213227 0.312914
0.300711 0.224075 0.315872
0.467304 0.224420 0.327434
0.671562 0.195451 0.332517
0.854596 0.187370 0.334594
0.979368 0.275866 0.357850
0.998550 0.347338 0.373146
0.001614 0.322334 0.313186
0.023363 0.327087 0.323560
0.161173 0.337416 0.332949
0.328079 0.353567 0.347560
0.516200 0.357020 0.342201
0.697842 0.365366 0.342096
0.858026 0.377367 0.338034
0.977533 0.405369 0.339347
0.998678 0.441224 0.344546
0.014948 0.481760 0.373533
0.118824 0.485971 0.378529
0.248495 0.493506 0.391137
0.356018 0.495795 0.396213
0.524267 0.552148 0.394548
0.721956 0.556197 0.342724
0.852761 0.518697 0.286365
0.977792 0.529973 0.278172
0.999584 0.547886 0.287914
0.214426 0.640851 0.463510
0.262076 0.644292 0.461884
0.318595 0.643534 0.457736
0.402669 0.640906 0.457358
0.516915 0.662154 0.459281
0.701012 0.723485 0.459959
0.877004 0.752381 0.426385
0.971390 0.705788 0.317868
0.999209 0.668082 0.220930
0.341681 0.779042 0.529935
0.372395 0.779084 0.534247
0.421708 0.775753 0.533124
0.488761 0.772527 0.534710
0.569315 0.772512 0.537462
0.691814 0.810359 0.542603
0.825743 0.841724 0.546603
0.951057 0.863808 0.537672
0.998212 0.829775 0.439147
0.507313 0.880067 0.628869
0.536920 0.878336 0.630852
0.569688 0.877077 0.631388
0.617180 0.877536 0.634812
0.666914 0.874838 0.638152
0.739342 0.886956 0.641058
0.819355 0.902107 0.644540
0.904284 0.915067 0.639562
0.990251 0.929043 0.631814
0.678261 0.949139 0.746685
0.697701 0.948184 0.745488
0.722536 0.948068 0.747516
0.750816 0.949160 0.751941
0.785559 0.948509 0.752237
0.821055 0.950778 0.761647
0.861547 0.955321 0.755686
0.906508 0.962555 0.751113
0.954818 0.963287 0.740692
0.001678 0.097657 0.459030
0.020817 0.100500 0.456451
0.175663 0.101349 0.461296
0.315985 0.100708 0.468836
0.465355 0.086739 0.479088
0.616749 0.035177 0.483220
0.809853 0.003914 0.507789
0.971882 0.028597 0.524567
0.999146 0.164398 0.528305
0.000206 0.141531 0.466827
0.019550 0.141686 0.469181
0.173098 0.142830 0.471238
0.325159 0.144944 0.477905
0.473900 0.141225 0.486067
0.630692 0.119564 0.490934
0.819806 0.115465 0.515547
0.974890 0.133557 0.527853
0.998442 0.233870 0.533564
0.002376 0.206661 0.489632
0.020674 0.211687 0.493379
0.154804 0.219128 0.494407
0.337591 0.230419 0.498854
0.497513 0.241827 0.504547
0.651919 0.245143 0.508839
0.831278 0.264177 0.527945
0.975651 0.283537 0.533338
0.998501 0.343529 0.536560
0.001144 0.334437 0.501608
0.022139 0.335872 0.505005
0.046184 0.337711 0.514578
0.342383 0.360878 0.524015
0.522555 0.386984 0.531404
0.682884 0.402653 0.536775
0.850985 0.409684 0.544124
0.976719 0.435017 0.546602
0.998961 0.501780 0.567385
0.001244 0.505432 0.518844
0.019329 0.509625 0.519976
0.166371 0.519270 0.526652
0.374879 0.532259 0.543213
0.547592 0.550026 0.560055
0.714354 0.551993 0.549294
0.856476 0.560883 0.548475
0.967494 0.575626 0.544177
0.999542 0.594772 0.546661
0.233586 0.667107 0.568126
0.287906 0.667330 0.572152
0.376063 0.672161 0.579092
0.487543 0.676589 0.593109
0.573057 0.676535 0.592494
0.714135 0.724311 0.604901
0.860006 0.723137 0.565102
0.963202 0.679333 0.493514
0.999460 0.679722 0.487942
0.423405 0.791885 0.636635
0.456476 0.793256 0.637709
0.512135 0.792422 0.644243
0.564060 0.794141 0.642298
0.623081 0.788145 0.639620
0.709305 0.806655 0.644547
0.832352 0.842334 0.655589
0.944711 0.855801 0.649130
0.999714 0.818874 0.563866
0.572285 0.882866 0.710222
0.593924 0.883506 0.706851
0.620737 0.882162 0.702146
0.654003 0.883697 0.701861
0.701555 0.880602 0.702199
0.750314 0.882889 0.706353
0.826912 0.899930 0.713967
0.906651 0.915131 0.720438
0.985065 0.925524 0.718723
0.686584 0.948258 0.785385
0.711042 0.949631 0.785791
0.730465 0.950951 0.785778
0.763289 0.949818 0.789158
0.793693 0.949906 0.792831
0.831800 0.950062 0.798355
0.868893 0.957222 0.795982
0.909925 0.962031 0.793198
0.954895 0.964157 0.786194
0.002091 0.096802 0.645111
0.019801 0.093334 0.646912
0.201179 0.089898 0.643627
0.367154 0.081007 0.651671
0.528128 0.077686 0.654503
0.680654 0.066174 0.663813
0.811825 0.057204 0.661980
0.958750 0.184318 0.677399
0.999119 0.317440 0.685951
0.001344 0.143105 0.648294
0.019350 0.141474 0.646775
0.199822 0.140000 0.652453
0.373501 0.136378 0.654394
0.534538 0.146933 0.662578
0.686442 0.153230 0.666439
0.815758 0.163183 0.661823
0.957930 0.255350 0.680747
1.000000 0.363354 0.689507
0.001575 0.219674 0.661073
0.019823 0.221298 0.663921
0.186169 0.223351 0.663234
0.379348 0.233964 0.665615
0.549345 0.257412 0.672720
0.697708 0.281928 0.677596
0.826349 0.301339 0.672728
0.955090 0.373716 0.686141
0.996527 0.447320 0.696108
0.001169 0.329195 0.670980
0.020338 0.332770 0.669634
0.098277 0.347168 0.674235
0.380548 0.369159 0.681086
0.561666 0.402151 0.683138
0.709529 0.435421 0.687791
0.832783 0.457828 0.690325
0.949015 0.507926 0.695347
0.997146 0.546347 0.701642
0.002367 0.511038 0.673788
0.020232 0.513676 0.678174
0.050085 0.515895 0.682318
0.338114 0.521150 0.689405
0.566997 0.553341 0.696273
0.716820 0.587079 0.704077
0.837925 0.606316 0.704323
0.947304 0.622165 0.709003
0.999258 0.645014 0.711124
0.070611 0.682849 0.684049
0.168422 0.684776 0.685874
0.316057 0.688581 0.688590
0.459757 0.695745 0.696035
0.598313 0.704565 0.709192
0.729959 0.720908 0.718008
0.847441 0.721161 0.709941
0.942621 0.724694 0.706785
0.999303 0.732375 0.701781
0.447150 0.806183 0.720511
0.484322 0.806779 0.725121
0.537762 0.807910 0.727241
0.606671 0.810602 0.732807
0.685496 0.811972 0.738296
0.747371 0.809064 0.737443
0.841123 0.841594 0.756060
0.934784 0.836668 0.728517
0.999602 0.799606 0.659941
0.591977 0.889445 0.767394
0.619700 0.889462 0.770431
0.651466 0.890659 0.772103
0.699279 0.889085 0.775239
0.740690 0.889180 0.777380
0.780337 0.886090 0.775457
0.836663 0.895857 0.779979
0.911047 0.914428 0.791939
0.978404 0.919615 0.791946
0.707955 0.949486 0.828598
0.725224 0.951227 0.826586
0.754333 0.950667 0.828872
0.778775 0.951274 0.831533
0.805410 0.950501 0.830732
0.840189 0.951886 0.834939
0.872830 0.951781 0.837068
0.915154 0.958607 0.837040
0.957417 0.964088 0.833080
0.046394 0.091210 0.793183
0.159606 0.087339 0.794766
0.298967 0.080988 0.798839
0.444758 0.075354 0.799963
0.595131 0.091957 0.800549
0.737415 0.160070 0.802656
0.855700 0.205198 0.804752
0.955731 0.241144 0.800250
0.999809 0.376259 0.797173
0.033682 0.146849 0.795139
0.157279 0.144331 0.798272
0.299643 0.142578 0.799686
0.447002 0.144730 0.799305
0.599122 0.166923 0.805216
0.737865 0.230678 0.805234
0.861996 0.273301 0.809111
0.955265 0.303402 0.800128
0.999299 0.426073 0.798050
0.019057 0.235039 0.802559
0.131667 0.238112 0.802833
0.294440 0.241361 0.803489
0.450336 0.254233 0.804617
0.603201 0.283859 0.805059
0.742757 0.341397 0.807241
0.858029 0.383943 0.811219
0.948879 0.409234 0.802795
0.999537 0.505133 0.800945
0.000360 0.353167 0.804242
0.047811 0.361550 0.805675
0.272379 0.374275 0.807812
0.448452 0.392359 0.808778
0.607288 0.424790 0.809921
0.744948 0.475836 0.808981
0.852968 0.513792 0.810843
0.939095 0.536092 0.803886
0.999331 0.602714 0.808347
0.002743 0.497345 0.806584
0.021572 0.499844 0.808129
0.105884 0.505816 0.805301
0.407671 0.528645 0.808670
0.601656 0.562340 0.811939
0.744391 0.604609 0.813396
0.847306 0.637740 0.816680
0.927248 0.658249 0.811625
0.995697 0.699993 0.813430
0.025375 0.682768 0.805461
0.088549 0.682634 0.806807
0.265286 0.682696 0.805993
0.418043 0.684286 0.810062
0.567413 0.687225 0.810942
0.738209 0.719999 0.816771
0.843564 0.748087 0.822343
0.921470 0.761896 0.821693
0.989673 0.775606 0.826043
0.377859 0.815754 0.807842
0.419045 0.815495 0.811533
0.481416 0.817621 0.808245
0.568573 0.818521 0.809534
0.668296 0.821498 0.816257
0.764854 0.827231 0.825297
0.847635 0.835909 0.830451
0.919596 0.837445 0.825100
0.987703 0.839390 0.823259
0.609196 0.895582 0.832016
0.634607 0.897061 0.833308
0.667235 0.897348 0.832778
0.714347 0.896199 0.836369
0.763424 0.898119 0.838249
0.812273 0.899126 0.847260
0.857189 0.895985 0.844364
0.913892 0.913542 0.854858
0.976075 0.910906 0.840591
0.711006 0.953469 0.866791
0.731535 0.953111 0.867455
0.760727 0.952770 0.871763
0.786566 0.953117 0.870731
0.820091 0.953800 0.875172
0.853650 0.956530 0.875985
0.882628 0.954222 0.880104
0.925112 0.956433 0.880275
0.962258 0.962463 0.879509
0.281666 0.129235 0.910995
0.328834 0.132095 0.906952
0.420633 0.137017 0.906390
0.534762 0.157649 0.909468
0.655693 0.199083 0.905142
0.773996 0.272578 0.905619
0.875297 0.366468 0.902011
0.961020 0.412843 0.904648
0.999962 0.437500 0.895957
0.281114 0.191755 0.909235
0.330228 0.190560 0.905087
0.422691 0.199172 0.907731
0.536797 0.218390 0.906932
0.657534 0.259669 0.907984
0.777680 0.325384 0.904837
0.873167 0.414811 0.903416
0.955534 0.457154 0.899661
0.997450 0.481032 0.894334
0.283451 0.286818 0.908724
0.333181 0.290260 0.907491
0.424771 0.301320 0.909644
0.539328 0.320726 0.908496
0.659928 0.360409 0.906754
0.776217 0.418090 0.906992
0.871573 0.493457 0.904151
0.948220 0.530182 0.899992
0.999976 0.546983 0.890820
0.267463 0.410779 0.908432
0.326935 0.415241 0.910566
0.420499 0.427370 0.905596
0.538326 0.448651 0.906011
0.663557 0.480803 0.904971
0.773905 0.529841 0.901458
0.868341 0.587784 0.900429
0.939490 0.617440 0.897767
0.998520 0.628262 0.891832
0.119661 0.518446 0.905395
0.222074 0.522213 0.904471
0.372821 0.541060 0.907275
0.529142 0.570190 0.903831
0.654474 0.598912 0.902914
0.770595 0.633969 0.901875
0.858170 0.681632 0.898954
0.929907 0.705268 0.898130
0.987597 0.716333 0.890377
0.104472 0.666991 0.903459
0.190179 0.667277 0.904473
0.307750 0.665069 0.901054
0.457962 0.671338 0.901527
0.627225 0.695563 0.900763
0.760940 0.730887 0.901775
0.857131 0.763877 0.899283
0.924672 0.785059 0.898917
0.974509 0.798512 0.896546
0.390627 0.807080 0.893452
0.426535 0.808263 0.896388
0.486231 0.809742 0.896714
0.561793 0.808764 0.894780
0.648821 0.809956 0.894897
0.741873 0.812752 0.895819
0.850179 0.834494 0.901341
0.916629 0.853842 0.903320
0.966818 0.862113 0.896434
0.569565 0.903310 0.895102
0.595339 0.901429 0.890779
0.632738 0.901163 0.895139
0.685031 0.901001 0.896710
0.741133 0.901428 0.896711
0.801848 0.903420 0.899854
0.862850 0.906698 0.900435
0.916161 0.914005 0.908268
0.967729 0.911805 0.904310
0.715122 0.956978 0.909123
0.734468 0.955333 0.908127
0.765301 0.957051 0.911050
0.789101 0.955058 0.909594
0.825710 0.957325 0.913952
0.861388 0.958271 0.915854
0.892966 0.958051 0.915679
0.929731 0.956329 0.920260
0.963329 0.960750 0.924664
0.470551 0.313690 0.983307
0.508022 0.319958 0.982929
0.562019 0.336037 0.983490
0.644455 0.366657 0.980770
0.725189 0.413818 0.973251
0.812706 0.468506 0.971714
0.880997 0.538330 0.963935
0.943875 0.598233 0.965744
0.996643 0.617371 0.956604
0.471382 0.361092 0.982975
0.511796 0.368234 0.979999
0.569164 0.383402 0.978759
0.642119 0.415278 0.977251
0.729615 0.454594 0.978834
0.811468 0.510976 0.973754
0.879049 0.568888 0.968869
0.938820 0.626582 0.958756
0.989986 0.645214 0.954884
0.485092 0.440850 0.979225
0.518356 0.445052 0.977370
0.576221 0.460344 0.975719
0.649657 0.485620 0.976453
0.732124 0.522972 0.971931
0.809916 0.569934 0.968237
0.878670 0.619719 0.967201
0.937396 0.668519 0.960814
0.989807 0.684479 0.958107
0.496411 0.538059 0.978702
0.532455 0.544182 0.977669
0.586000 0.556286 0.975596
0.657415 0.575528 0.974445
0.733724 0.603689 0.969807
0.810313 0.640404 0.968439
0.875944 0.679913 0.963911
0.932469 0.719384 0.958515
0.981258 0.733715 0.956635
0.487915 0.627563 0.970841
0.529602 0.633479 0.973479
0.585369 0.645462 0.972336
0.655594 0.660479 0.970272
0.733207 0.683105 0.965363
0.809042 0.708962 0.964493
0.873219 0.739056 0.959617
0.927864 0.769802 0.957743
0.976684 0.781998 0.954895
0.433369 0.695957 0.971188
0.475200 0.703151 0.969954
0.542300 0.710826 0.970961
0.627654 0.729313 0.967750
0.724504 0.755707 0.966484
0.805736 0.776293 0.963762
0.872174 0.798975 0.958939
0.929463 0.821666 0.957100
0.974575 0.830616 0.958683
0.508735 0.811096 0.970428
0.536851 0.811428 0.967674
0.576675 0.812386 0.966886
0.629042 0.809668 0.966261
0.699372 0.812542 0.965309
0.788438 0.831982 0.963636
0.865217 0.853457 0.961439
0.925885 0.869971 0.959914
0.968925 0.879509 0.958298
0.628979 0.904670 0.964996
0.650984 0.902453 0.959551
0.680545 0.903566 0.959263
0.717455 0.902767 0.959691
0.758900 0.902491 0.963139
0.807863 0.902724 0.958246
0.856721 0.903936 0.956475
0.921307 0.917903 0.962095
0.964477 0.924687 0.957024
0.710815 0.959961 0.959961
0.729481 0.959999 0.959999
0.755569 0.959496 0.962829
0.782933 0.958683 0.957424
0.816162 0.960770 0.954941
0.852734 0.960396 0.959961
0.888115 0.959122 0.958534
0.931664 0.962498 0.960354
0.969940 0.966614 0.959961
