ml_luts/presetpro_portra_800__lut3d_33.cube
TITLE "Presetpro - Portra 800.jpg"
DOMAIN_MIN 0.000000 0.000000 0.000000
DOMAIN_MAX 1.000000 1.000000 1.000000
LUT_3D_SIZE 9
0.000000 0.000000 0.000000
0.080353 0.004314 0.006409
0.189965 0.015244 0.003158
0.353378 0.000954 0.003364
0.541183 0.001007 0.000946
0.723595 0.002033 0.000000
0.887253 0.002953 0.003372
0.993546 0.006424 0.003433
1.000000 0.039215 0.011780
0.006027 0.069565 0.018139
0.060747 0.086964 0.002986
0.194814 0.100459 0.000011
0.360436 0.094253 0.001619
0.545754 0.045543 0.000875
0.729018 0.000301 0.005412
0.889972 0.002838 0.002855
0.999511 0.032581 0.000537
0.997009 0.171959 0.000095
0.000763 0.171783 0.037254
0.024427 0.173606 0.032745
0.166130 0.203413 0.003233
0.361834 0.232057 0.003338
0.543045 0.222874 0.001831
0.726148 0.217734 0.002183
0.887226 0.226778 0.000793
0.999685 0.262499 0.003540
1.000000 0.319054 0.002174
0.001507 0.291726 0.068733
0.001416 0.290736 0.072735
0.111898 0.312258 0.048636
0.310766 0.348568 0.001874
0.541145 0.385901 0.000263
0.717254 0.390925 0.004013
0.872398 0.406384 0.001796
0.997368 0.434014 0.002159
0.996460 0.467697 0.000950
0.000946 0.412766 0.114746
0.000851 0.411497 0.113027
0.085754 0.407524 0.109977
0.262009 0.443430 0.069445
0.468697 0.488808 0.001556
0.701321 0.551283 0.000629
0.856621 0.565189 0.000378
0.982626 0.584320 0.000126
0.998047 0.609741 0.000000
0.000954 0.531357 0.158863
0.002958 0.528650 0.163714
0.103820 0.522622 0.157632
0.255802 0.542221 0.145465
0.426939 0.584947 0.099075
0.630342 0.637823 0.004917
0.836330 0.702113 0.001150
0.956748 0.723723 0.001182
0.998432 0.739738 0.000950
0.001518 0.670815 0.221580
0.020319 0.671230 0.216532
0.168524 0.666261 0.215361
0.284521 0.662700 0.210152
0.434746 0.695823 0.186474
0.601208 0.735092 0.150972
0.771208 0.774454 0.060803
0.930604 0.829945 0.000122
0.999779 0.845336 0.000000
0.225395 0.817661 0.320484
0.259331 0.817723 0.322513
0.312569 0.817901 0.317412
0.392870 0.813978 0.309856
0.497763 0.822926 0.302056
0.627023 0.848812 0.289225
0.761475 0.877025 0.265059
0.884631 0.900749 0.225018
0.999557 0.929455 0.129105
0.537262 0.956848 0.541168
0.550644 0.957749 0.538242
0.572540 0.959267 0.542389
0.613777 0.961300 0.551472
0.665710 0.959839 0.547058
0.729423 0.971996 0.549053
0.809586 0.981361 0.536286
0.887310 0.994251 0.520237
0.976471 1.000000 0.474518
0.011826 0.003036 0.082996
0.078276 0.003871 0.081830
0.199662 0.000309 0.086697
0.362872 0.000336 0.076918
0.538145 0.001219 0.082250
0.726004 0.001317 0.075863
0.885028 0.000702 0.058310
0.995295 0.000486 0.038412
1.000000 0.079994 0.014026
0.003543 0.080917 0.083173
0.073465 0.089280 0.085766
0.200493 0.094944 0.085925
0.366276 0.083088 0.085894
0.549228 0.037459 0.074313
0.729330 0.002435 0.070323
0.891494 0.002611 0.053628
0.999625 0.051494 0.031059
0.999111 0.183658 0.007958
0.007775 0.189023 0.108414
0.062042 0.188100 0.103963
0.183943 0.212194 0.086008
0.370266 0.228970 0.081517
0.550081 0.224236 0.076812
0.729977 0.221730 0.061927
0.884493 0.232047 0.036154
0.998029 0.266848 0.008888
0.996949 0.325612 0.005043
0.002453 0.308928 0.129324
0.008992 0.306372 0.127209
0.145530 0.315454 0.123737
0.324939 0.352081 0.086437
0.546431 0.385914 0.040868
0.718538 0.390974 0.050892
0.873437 0.409779 0.032874
0.995179 0.438544 0.012170
0.997566 0.471223 0.008779
0.001358 0.424479 0.164663
0.001629 0.422887 0.165167
0.132953 0.415815 0.159380
0.281195 0.447075 0.139167
0.477624 0.492260 0.087547
0.703167 0.550203 0.002522
0.857904 0.566099 0.006773
0.977807 0.587931 0.048201
0.998289 0.610590 0.061083
0.001136 0.540513 0.205383
0.004797 0.539471 0.202862
0.150396 0.532481 0.198812
0.273680 0.541115 0.193139
0.436585 0.586488 0.160276
0.631240 0.637450 0.096667
0.838063 0.703152 0.004338
0.956910 0.724214 0.010084
0.999009 0.736284 0.111751
0.013971 0.678248 0.255525
0.090346 0.674809 0.251063
0.199034 0.673467 0.250425
0.303190 0.666271 0.241134
0.441661 0.695390 0.225408
0.600055 0.736774 0.198465
0.768958 0.777429 0.150074
0.932212 0.833465 0.022798
0.997258 0.846264 0.122440
0.244714 0.823142 0.337180
0.272541 0.819830 0.342989
0.325317 0.818501 0.338099
0.403391 0.817065 0.332265
0.498526 0.824653 0.328334
0.629376 0.846039 0.313025
0.762125 0.873607 0.297096
0.888049 0.897270 0.264632
0.999835 0.929764 0.196692
0.540680 0.960342 0.551617
0.550569 0.960426 0.555987
0.575132 0.959808 0.555057
0.613423 0.960249 0.559603
0.669245 0.958895 0.562635
0.732914 0.970994 0.564920
0.809728 0.979595 0.551418
0.887688 0.991794 0.537595
0.973526 1.000000 0.489792
0.002182 0.005447 0.194863
0.083770 0.003953 0.206858
0.210039 0.000732 0.214359
0.365860 0.001911 0.210818
0.553432 0.000378 0.205918
0.734670 0.000676 0.200583
0.888542 0.003510 0.211399
0.999648 0.001329 0.225228
0.996284 0.117645 0.230240
0.005442 0.089085 0.206415
0.072833 0.093765 0.206039
0.215670 0.090210 0.216900
0.377419 0.051499 0.216246
0.556085 0.002682 0.205810
0.731859 0.002746 0.211800
0.889850 0.003086 0.225137
0.997688 0.084065 0.228620
0.999130 0.205969 0.229249
0.002089 0.204949 0.203644
0.082313 0.212048 0.208583
0.213965 0.221441 0.215434
0.382174 0.226169 0.213416
0.556433 0.225369 0.219260
0.733434 0.225359 0.222696
0.887772 0.240189 0.225248
0.998813 0.277530 0.224956
0.996530 0.332631 0.227282
0.075528 0.333210 0.235189
0.141870 0.335496 0.242291
0.208853 0.335353 0.236136
0.355386 0.360487 0.221713
0.554177 0.383337 0.220232
0.725912 0.395268 0.230668
0.876803 0.414295 0.228829
0.997787 0.439900 0.228722
0.997513 0.476782 0.230416
0.103603 0.451412 0.267987
0.136167 0.450535 0.261625
0.215708 0.443109 0.253661
0.319841 0.452921 0.249862
0.497528 0.500053 0.231459
0.711656 0.549498 0.214854
0.861163 0.567245 0.233099
0.979182 0.590396 0.248250
0.999748 0.614822 0.255181
0.101612 0.563827 0.286176
0.149388 0.562726 0.286728
0.224399 0.557918 0.280521
0.314079 0.549341 0.273191
0.457963 0.591526 0.260684
0.643937 0.645200 0.240310
0.840155 0.703302 0.209777
0.957121 0.722796 0.240559
0.997310 0.738154 0.283634
0.138877 0.693445 0.323309
0.179792 0.690110 0.319830
0.255271 0.686304 0.318001
0.340753 0.678282 0.307962
0.454173 0.696590 0.302032
0.611426 0.737243 0.291500
0.775378 0.779427 0.268858
0.935728 0.833362 0.235119
0.998364 0.846832 0.276016
0.276136 0.829003 0.394872
0.302908 0.828509 0.392417
0.347795 0.825256 0.389510
0.421394 0.823661 0.383905
0.508801 0.821110 0.377408
0.631183 0.846918 0.377491
0.761663 0.872586 0.365579
0.883327 0.898090 0.346476
0.999657 0.929828 0.310676
0.548568 0.959374 0.581451
0.558308 0.959422 0.586413
0.575603 0.961872 0.579961
0.620447 0.963191 0.589372
0.669895 0.963291 0.586441
0.735305 0.970120 0.589318
0.810190 0.982527 0.585186
0.889355 0.994021 0.570625
0.980377 0.999245 0.542374
0.000000 0.006336 0.352875
0.042051 0.003629 0.349617
0.213735 0.001663 0.363258
0.388456 0.001867 0.375855
0.557424 0.001800 0.372002
0.737364 0.000925 0.365683
0.895616 0.002413 0.367526
0.998646 0.002624 0.363859
1.000000 0.029053 0.369301
0.000669 0.097341 0.353677
0.042105 0.098821 0.360936
0.216942 0.096023 0.364983
0.396045 0.063888 0.378485
0.561380 0.002400 0.369056
0.737162 0.002246 0.369836
0.896286 0.003032 0.367466
0.999249 0.002319 0.364686
0.998052 0.169380 0.389702
0.001608 0.215573 0.354430
0.025838 0.216258 0.353940
0.224023 0.226983 0.362211
0.398125 0.226662 0.374161
0.565757 0.205594 0.372881
0.741199 0.191099 0.371577
0.894561 0.197516 0.373537
0.996960 0.262484 0.389558
0.997232 0.342346 0.403570
0.035945 0.352243 0.351037
0.130926 0.356366 0.358936
0.260420 0.363582 0.363784
0.395960 0.374661 0.372580
0.570180 0.380223 0.376838
0.735647 0.391330 0.382615
0.880651 0.411462 0.392035
0.996635 0.443484 0.397195
0.995897 0.479741 0.403277
0.209650 0.478685 0.386984
0.248044 0.482621 0.386238
0.324750 0.483906 0.391868
0.391964 0.479136 0.380992
0.532902 0.513440 0.376084
0.718946 0.548662 0.382778
0.864820 0.567742 0.396739
0.980500 0.593112 0.405738
0.999403 0.616127 0.411013
0.282021 0.600259 0.420077
0.299721 0.600638 0.416803
0.327473 0.597368 0.402749
0.388839 0.585698 0.392337
0.489193 0.598695 0.382483
0.662565 0.652599 0.381717
0.844272 0.704502 0.383264
0.955728 0.722427 0.411566
0.997783 0.738677 0.439680
0.262428 0.718141 0.430265
0.279030 0.719282 0.428996
0.327463 0.711659 0.420613
0.398571 0.702255 0.409970
0.479931 0.696464 0.397252
0.621121 0.739107 0.398869
0.782752 0.783962 0.399982
0.935543 0.833207 0.397486
0.997350 0.844572 0.436010
0.336503 0.839838 0.476877
0.355789 0.837486 0.481180
0.393301 0.837073 0.477086
0.454358 0.832978 0.463563
0.524210 0.825936 0.456284
0.635840 0.843679 0.455018
0.763589 0.873588 0.456923
0.884964 0.901372 0.451866
0.999779 0.933642 0.437931
0.562282 0.965217 0.633389
0.567494 0.966632 0.629444
0.594972 0.962344 0.629470
0.626370 0.965020 0.629862
0.673992 0.963745 0.628688
0.733331 0.968748 0.632661
0.808364 0.980353 0.628741
0.888957 0.993254 0.627464
0.974995 1.000000 0.599457
0.001007 0.008789 0.503922
0.000793 0.007793 0.507620
0.209984 0.000000 0.515446
0.401495 0.000689 0.530199
0.585266 0.001007 0.542564
0.738045 0.000629 0.538599
0.893116 0.003067 0.537628
0.998392 0.005314 0.536119
0.998031 0.002029 0.535354
0.001495 0.104421 0.506511
0.009391 0.103471 0.508852
0.221803 0.099225 0.516196
0.407652 0.075632 0.527554
0.585508 0.010918 0.541097
0.738654 0.000646 0.539093
0.896747 0.001047 0.538978
0.999478 0.000879 0.542179
0.995571 0.071630 0.543310
0.000744 0.221191 0.501026
0.038809 0.226400 0.505203
0.240759 0.230967 0.514389
0.413633 0.235215 0.523291
0.588881 0.223538 0.541548
0.740835 0.196243 0.537034
0.891460 0.181979 0.542604
0.999251 0.213595 0.540375
0.998959 0.278786 0.537495
0.002813 0.359266 0.497419
0.062072 0.362512 0.500894
0.238813 0.367996 0.508692
0.411565 0.377277 0.521678
0.583703 0.385021 0.534608
0.741102 0.374157 0.537690
0.886774 0.381602 0.540040
0.996867 0.408116 0.542687
0.997257 0.465034 0.554296
0.172112 0.503952 0.501419
0.227220 0.504220 0.506863
0.324764 0.510199 0.507690
0.442760 0.517922 0.517999
0.573025 0.527687 0.528683
0.732401 0.543094 0.539095
0.869795 0.565498 0.547590
0.980916 0.591263 0.559027
0.998993 0.621574 0.566330
0.332131 0.631748 0.534407
0.357570 0.631160 0.537017
0.413134 0.632617 0.538682
0.491315 0.635734 0.541910
0.552095 0.626946 0.524446
0.687621 0.665660 0.531019
0.844572 0.705165 0.544014
0.954363 0.725912 0.571552
0.999737 0.742128 0.586599
0.399933 0.745445 0.567795
0.419733 0.744900 0.567069
0.461020 0.743511 0.568252
0.491575 0.740475 0.549319
0.538599 0.726818 0.526180
0.640151 0.741011 0.517644
0.792210 0.787268 0.536908
0.932203 0.833998 0.551298
0.999180 0.845173 0.584854
0.470594 0.852377 0.607922
0.474049 0.853468 0.605800
0.474775 0.851655 0.588939
0.508721 0.848860 0.574336
0.565516 0.839989 0.558074
0.638995 0.839708 0.545307
0.764772 0.871441 0.555443
0.886953 0.901587 0.567819
0.999651 0.931551 0.572323
0.580536 0.969574 0.694183
0.590355 0.967102 0.694498
0.609115 0.967411 0.690926
0.638628 0.968575 0.689913
0.683304 0.969070 0.687858
0.737280 0.969599 0.691860
0.806687 0.980087 0.691131
0.886637 0.993675 0.692039
0.976410 0.999054 0.675461
0.000526 0.003502 0.659328
0.003037 0.000954 0.656881
0.237063 0.000715 0.660416
0.423188 0.000000 0.673908
0.609789 0.001467 0.688392
0.770448 0.000822 0.701450
0.893563 0.001790 0.694819
0.999409 0.001447 0.694472
0.996590 0.002983 0.686706
0.001136 0.109001 0.654118
0.038364 0.105422 0.658609
0.254551 0.095716 0.667747
0.431013 0.072204 0.673954
0.611625 0.028089 0.691300
0.769020 0.001319 0.703172
0.893207 0.002851 0.700516
0.999090 0.003428 0.695366
0.999420 0.059181 0.700455
0.001646 0.232487 0.656976
0.091859 0.234052 0.658631
0.270681 0.236110 0.659866
0.442332 0.234642 0.671767
0.613496 0.235494 0.687634
0.767080 0.224895 0.700093
0.890830 0.208022 0.695356
0.999142 0.218159 0.697554
0.996064 0.276196 0.697297
0.001190 0.365487 0.648941
0.063868 0.366580 0.647690
0.266792 0.372690 0.657850
0.438939 0.381329 0.668755
0.606260 0.391961 0.682357
0.758372 0.398639 0.695850
0.883794 0.391535 0.695540
0.993231 0.405308 0.695857
0.999176 0.445608 0.699545
0.062036 0.515966 0.643652
0.160574 0.514925 0.650146
0.282920 0.518670 0.649621
0.420524 0.519503 0.655810
0.586190 0.533720 0.671447
0.744881 0.550207 0.690814
0.870529 0.552299 0.691632
0.980196 0.570630 0.693898
0.999290 0.602034 0.694561
0.290601 0.654279 0.648627
0.322603 0.655495 0.654032
0.398360 0.657334 0.654535
0.496287 0.663342 0.661024
0.609024 0.672325 0.669270
0.722524 0.682722 0.679588
0.850790 0.702918 0.688808
0.955752 0.722585 0.704876
0.998127 0.744744 0.714138
0.466776 0.773131 0.688512
0.485801 0.774958 0.686063
0.522241 0.773769 0.685381
0.577044 0.773141 0.688371
0.643876 0.772056 0.686234
0.690898 0.761048 0.661187
0.809062 0.800197 0.678277
0.928832 0.835879 0.702610
0.998504 0.844313 0.725681
0.538683 0.870276 0.716836
0.549180 0.870439 0.719891
0.574011 0.870300 0.721211
0.613678 0.868513 0.714964
0.641763 0.865671 0.693942
0.678774 0.855174 0.668326
0.766623 0.869375 0.663793
0.888346 0.905180 0.692060
0.999440 0.930992 0.704994
0.649082 0.971176 0.791675
0.660982 0.968588 0.789520
0.671177 0.970432 0.788575
0.682376 0.973728 0.776979
0.700710 0.973707 0.765802
0.746420 0.974634 0.756052
0.805629 0.978475 0.758507
0.887313 0.990303 0.758404
0.973060 0.998493 0.754429
0.021408 0.000000 0.802955
0.152045 0.000316 0.797638
0.311844 0.000433 0.804680
0.475160 0.002387 0.813189
0.635944 0.001591 0.821049
0.792549 0.001189 0.833208
0.917769 0.000843 0.838642
0.998834 0.000190 0.835209
0.999237 0.001518 0.828660
0.063285 0.114252 0.798082
0.179559 0.108871 0.801603
0.322219 0.098236 0.805288
0.480977 0.073670 0.811313
0.641668 0.045616 0.819703
0.790442 0.051691 0.831553
0.913329 0.037373 0.837578
0.998978 0.021336 0.832888
0.995300 0.127947 0.830046
0.117727 0.244209 0.799127
0.209853 0.242659 0.801811
0.336879 0.242005 0.801466
0.488502 0.240766 0.806647
0.641738 0.243569 0.819102
0.788202 0.259064 0.830725
0.909589 0.263781 0.837778
0.995427 0.259578 0.830479
0.996327 0.298003 0.827349
0.059196 0.374003 0.791684
0.189506 0.377647 0.793421
0.333439 0.384148 0.798199
0.481118 0.388482 0.805360
0.633481 0.397046 0.811623
0.780079 0.417133 0.825102
0.897584 0.430229 0.834530
0.987187 0.429781 0.831508
0.999202 0.451230 0.828415
0.007366 0.514618 0.781796
0.131753 0.517633 0.782176
0.287025 0.517505 0.786759
0.448132 0.522978 0.796178
0.611364 0.539621 0.805414
0.760556 0.562014 0.820835
0.878531 0.581721 0.830806
0.971076 0.581412 0.824935
0.998898 0.597587 0.823948
0.229740 0.666271 0.781256
0.275638 0.665971 0.783387
0.355443 0.666766 0.785265
0.461712 0.666409 0.787597
0.582136 0.666895 0.788583
0.729267 0.687032 0.807245
0.855652 0.711560 0.826128
0.951379 0.716964 0.823915
0.999228 0.733415 0.824668
0.420483 0.786951 0.787285
0.443375 0.789434 0.790055
0.493501 0.788992 0.788653
0.563521 0.793362 0.790383
0.648741 0.797923 0.796656
0.742285 0.804512 0.803342
0.829831 0.814476 0.810002
0.932831 0.832601 0.827490
0.999411 0.848646 0.835867
0.600637 0.890431 0.820534
0.610338 0.889335 0.821533
0.631560 0.891274 0.823131
0.669990 0.890187 0.821133
0.714014 0.891598 0.821996
0.760757 0.887757 0.816834
0.796847 0.875744 0.787785
0.896343 0.906561 0.809776
0.997665 0.929906 0.832417
0.687027 0.975487 0.864044
0.692727 0.975766 0.865800
0.707461 0.975418 0.863921
0.727573 0.977213 0.863586
0.759949 0.977265 0.862091
0.783722 0.980431 0.853360
0.817511 0.980656 0.835814
0.888124 0.988226 0.836775
0.980606 1.000000 0.844581
0.272655 0.002750 0.923539
0.324605 0.003644 0.923361
0.420568 0.000194 0.925538
0.545658 0.000820 0.926964
0.679335 0.001549 0.930632
0.810818 0.000946 0.938935
0.926627 0.077699 0.940491
0.999077 0.115948 0.948329
0.999954 0.118431 0.949173
0.290407 0.128963 0.923606
0.338552 0.125984 0.927775
0.428918 0.119364 0.929123
0.550847 0.106433 0.928511
0.681964 0.102693 0.928873
0.810238 0.128456 0.936165
0.924735 0.188080 0.941202
0.998178 0.210641 0.943135
0.996173 0.207450 0.942731
0.304824 0.261913 0.922599
0.346346 0.259508 0.920992
0.437830 0.260519 0.922270
0.553024 0.261007 0.924499
0.681945 0.266166 0.930775
0.803456 0.286725 0.934290
0.918362 0.326616 0.940738
0.997997 0.343531 0.944035
0.996753 0.341353 0.941382
0.287214 0.397233 0.914606
0.334416 0.397773 0.916908
0.426311 0.399307 0.918731
0.545070 0.403726 0.922104
0.673993 0.413709 0.926348
0.798559 0.434992 0.929963
0.907101 0.471186 0.938311
0.991589 0.488220 0.937800
0.999474 0.485822 0.934559
0.207523 0.528860 0.910852
0.265253 0.526780 0.910495
0.375004 0.530094 0.912826
0.517217 0.540467 0.917566
0.653179 0.553390 0.921023
0.780673 0.572844 0.925410
0.887087 0.605024 0.933096
0.972080 0.623984 0.934236
0.997423 0.618265 0.928848
0.220872 0.673240 0.904575
0.263309 0.670733 0.903490
0.346469 0.668377 0.902417
0.466503 0.666391 0.903839
0.607990 0.674540 0.908776
0.749951 0.694010 0.919650
0.862403 0.722330 0.924903
0.955020 0.741894 0.931837
0.998881 0.739018 0.925802
0.394621 0.801637 0.897917
0.416101 0.803652 0.898401
0.465369 0.803247 0.901366
0.536663 0.802280 0.902479
0.621201 0.802533 0.905094
0.714824 0.801746 0.905030
0.831399 0.821763 0.915381
0.935964 0.840386 0.925621
0.998331 0.843682 0.926340
0.554670 0.899559 0.901551
0.569105 0.899977 0.901033
0.597563 0.902120 0.900474
0.643436 0.900880 0.903438
0.699969 0.905626 0.904999
0.769685 0.907253 0.909484
0.841974 0.911800 0.912881
0.919972 0.921658 0.920314
0.999157 0.933436 0.926930
0.719693 0.980831 0.931953
0.730004 0.982696 0.928823
0.744348 0.984079 0.928888
0.767220 0.982797 0.930337
0.798107 0.983267 0.934221
0.836238 0.985442 0.932771
0.870085 0.986786 0.931502
0.906836 0.988654 0.921681
0.988617 1.000000 0.927349
0.454895 0.137268 0.996063
0.481853 0.130245 0.999500
0.543137 0.129425 1.000000
0.633327 0.129409 0.996052
0.731430 0.147125 1.000000
0.835365 0.175075 0.999046
0.926484 0.230400 0.996292
0.996128 0.307365 0.999557
0.996063 0.313721 1.000000
0.459320 0.204991 0.999557
0.488538 0.202494 0.999626
0.548822 0.205465 0.999143
0.634912 0.205265 0.998102
0.735588 0.216377 0.999670
0.834694 0.242746 0.998102
0.926722 0.284763 0.999446
0.996918 0.351517 0.999666
0.999954 0.363240 0.999954
0.467873 0.316872 0.999245
0.489139 0.314303 0.996994
0.549311 0.317400 0.999456
0.633237 0.321920 0.999624
0.731304 0.332726 0.998631
0.831543 0.353078 0.998551
0.921637 0.389238 0.999567
0.998412 0.444424 0.999989
0.997063 0.450989 0.999016
0.460293 0.441166 1.000000
0.485372 0.445343 0.999953
0.544823 0.447704 0.998914
0.629023 0.449621 0.999971
0.726107 0.461498 0.998917
0.820605 0.482210 0.998584
0.907218 0.513249 0.999550
0.985305 0.550929 0.998175
0.995510 0.558811 0.999474
0.421494 0.565659 0.997101
0.456089 0.568622 0.999206
0.520832 0.575069 0.999622
0.608906 0.582035 0.998577
0.708282 0.589722 1.000000
0.802244 0.606500 0.997711
0.888478 0.628586 0.998787
0.967838 0.661238 0.999546
0.999054 0.668701 0.999054
0.385159 0.692165 1.000000
0.414865 0.692533 0.998813
0.476371 0.689228 0.998000
0.568538 0.692135 0.997542
0.675178 0.703569 0.998039
0.780496 0.716384 0.998104
0.872832 0.736524 0.999044
0.950640 0.763436 0.998511
0.999050 0.770630 0.996605
0.463501 0.821030 1.000000
0.475430 0.818516 0.996404
0.512642 0.816114 0.999054
0.566581 0.812297 0.998504
0.643936 0.808761 0.998421
0.743480 0.814390 0.998341
0.846567 0.832795 0.999756
0.942372 0.850162 0.998808
1.000000 0.861023 0.996292
0.593235 0.915634 0.996017
0.603176 0.919896 0.993721
0.622070 0.920696 0.998722
0.657796 0.919139 0.994884
0.705753 0.916165 0.996794
0.763130 0.913891 0.996155
0.828176 0.911920 0.998682
0.923049 0.926905 0.999580
1.000000 0.937786 1.000000
0.709808 0.988220 0.988220
0.714203 0.992169 0.992169
0.731597 0.990204 0.995529
0.756431 0.992684 0.997585
0.787292 0.992157 0.997101
0.828884 0.996590 0.994572
0.881150 0.996841 0.997047
0.942055 0.996509 0.996555
0.996063 1.000000 1.000000
