ml_luts/presetpro_fuji_provia__lut3d_33.cube
TITLE "Presetpro - Fuji Provia +.jpg"
DOMAIN_MIN 0.000000 0.000000 0.000000
DOMAIN_MAX 1.000000 1.000000 1.000000
LUT_3D_SIZE 33
0.000000 0.000000 0.000000
0.000236 0.000000 0.000118
0.011745 0.007353 0.000008
0.026727 0.007511 0.000000
0.042164 0.010788 0.000000
0.064217 0.012214 0.000541
0.080875 0.012489 0.000120
0.103818 0.011940 0.002384
0.130372 0.013291 0.000763
0.165546 0.007894 0.000000
0.207794 0.001745 0.000000
0.248140 0.001662 0.000000
0.292034 0.000950 0.000000
0.341407 0.000000 0.000979
0.388473 0.000000 0.000721
0.437078 0.002092 0.003097
0.484314 0.002975 0.004883
0.529704 0.002915 0.002092
0.577940 0.002215 0.001001
0.626849 0.000000 0.004905
0.673080 0.000000 0.006931
0.712644 0.000000 0.002584
0.753697 0.000868 0.000868
0.796571 0.002279 0.001996
0.833336 0.001518 0.000763
0.873871 0.002384 0.002384
0.908833 0.000000 0.000618
0.947104 0.000615 0.003396
0.980087 0.004772 0.003491
0.992892 0.018874 0.001044
0.999754 0.102491 0.007361
0.996063 0.161410 0.003789
0.996063 0.207855 0.003937
0.000000 0.007834 0.003666
0.003817 0.011415 0.000118
0.015441 0.011871 0.000000
0.030316 0.018769 0.000321
0.039817 0.019894 0.003045
0.057832 0.022377 0.003347
0.078774 0.021124 0.001129
0.113374 0.021475 0.004899
0.139395 0.020179 0.002433
0.172432 0.015796 0.000341
0.211778 0.008181 0.000000
0.258118 0.001989 0.000795
0.302389 0.001534 0.000454
0.344794 0.000949 0.000979
0.393928 0.000000 0.002866
0.442865 0.000065 0.003832
0.487507 0.000152 0.003818
0.534448 0.001138 0.002013
0.581748 0.001949 0.000031
0.624819 0.002497 0.000153
0.668454 0.003260 0.000217
0.714711 0.002793 0.000081
0.756839 0.002926 0.000064
0.794942 0.001732 0.000147
0.835309 0.002183 0.000238
0.872003 0.000516 0.001094
0.910357 0.001297 0.001915
0.948052 0.000537 0.003318
0.980579 0.007366 0.003036
0.999457 0.042434 0.000294
0.999525 0.119309 0.000701
0.992516 0.180160 0.000238
0.996211 0.219474 0.003937
0.000229 0.016155 0.000465
0.003939 0.022816 0.007138
0.018672 0.023494 0.004134
0.033413 0.023969 0.003733
0.046018 0.027240 0.003887
0.061384 0.027565 0.000792
0.084793 0.027709 0.000654
0.110801 0.032536 0.005094
0.140052 0.028519 0.004039
0.177077 0.025898 0.000923
0.216552 0.015646 0.003187
0.256359 0.005541 0.001645
0.301192 0.002486 0.001585
0.348824 0.003799 0.001072
0.396745 0.002207 0.000183
0.444875 0.001110 0.000241
0.491043 0.000948 0.000236
0.536532 0.000899 0.000126
0.582000 0.001795 0.002178
0.626299 0.001753 0.004350
0.670726 0.002052 0.002231
0.714814 0.002769 0.000927
0.757229 0.002619 0.001628
0.795797 0.001036 0.000170
0.835573 0.003542 0.000014
0.871901 0.004504 0.000116
0.909918 0.000851 0.000308
0.948119 0.000610 0.000672
0.980706 0.011284 0.003594
0.999020 0.069971 0.005846
0.999732 0.141029 0.000245
0.995839 0.188829 0.000123
0.999763 0.231350 0.003937
0.000023 0.037435 0.007462
0.000584 0.037971 0.008045
0.014800 0.035130 0.007742
0.029918 0.041381 0.013640
0.051304 0.045683 0.002395
0.066342 0.043280 0.000973
0.085764 0.045081 0.001081
0.116716 0.043589 0.006622
0.151097 0.040088 0.002283
0.184043 0.038554 0.000329
0.221596 0.031412 0.003103
0.264590 0.021176 0.003224
0.308523 0.010700 0.001141
0.353065 0.003867 0.002679
0.402129 0.002881 0.001900
0.450091 0.003738 0.000367
0.494881 0.002957 0.000346
0.540456 0.001326 0.000155
0.588095 0.000354 0.003514
0.633292 0.000159 0.005959
0.674904 0.000184 0.002228
0.719752 0.000259 0.000093
0.761841 0.001358 0.000949
0.797986 0.003396 0.003117
0.836741 0.002394 0.004045
0.877972 0.000707 0.002109
0.910368 0.000870 0.000850
0.945656 0.008554 0.001442
0.985335 0.041066 0.008516
0.998977 0.110568 0.003791
0.999762 0.164770 0.006260
0.996209 0.207586 0.003590
0.996792 0.246691 0.004269
0.002991 0.047886 0.015205
0.003874 0.047457 0.015604
0.011702 0.050047 0.018221
0.022904 0.051714 0.019214
0.048807 0.058330 0.014859
0.071407 0.063608 0.012706
0.094648 0.067620 0.007131
0.127313 0.065844 0.003403
0.163152 0.057758 0.004821
0.192180 0.058799 0.003737
0.230968 0.052810 0.002916
0.274832 0.045144 0.002676
0.318171 0.036210 0.001251
0.362585 0.022085 0.000810
0.407154 0.007900 0.000716
0.453977 0.001326 0.000505
0.502171 0.001223 0.000275
0.547205 0.001051 0.000697
0.591762 0.000026 0.002528
0.635919 0.002603 0.002474
0.679135 0.004176 0.000607
0.723093 0.000950 0.000734
0.762242 0.001457 0.001180
0.803863 0.000583 0.003361
0.841153 0.001011 0.003836
0.881153 0.001923 0.000791
0.915180 0.010261 0.000742
0.947089 0.049003 0.000576
0.977555 0.096982 0.001238
0.999064 0.146502 0.001304
0.994789 0.193804 0.001693
0.999528 0.230495 0.003901
0.999557 0.268680 0.006946
0.003315 0.065526 0.017904
0.003467 0.065951 0.016930
0.004936 0.066308 0.017364
0.015818 0.069146 0.020685
0.033131 0.073776 0.015028
0.059653 0.083262 0.014776
0.092869 0.088620 0.005972
0.132086 0.089009 0.003099
0.171129 0.086982 0.002095
0.204973 0.085600 0.003510
0.241541 0.083041 0.005764
0.283063 0.076654 0.002914
0.325004 0.071019 0.002179
0.367596 0.062129 0.001715
0.414227 0.049813 0.001771
0.461200 0.035277 0.001179
0.507163 0.020412 0.000041
0.553191 0.010119 0.000374
0.598021 0.004599 0.001508
0.640141 0.002257 0.001657
0.682953 0.001550 0.002483
0.728345 0.000532 0.004737
0.768606 0.001956 0.002972
0.807778 0.003969 0.003058
0.843865 0.010668 0.002149
0.878887 0.033235 0.001261
0.916029 0.070989 0.002895
0.947595 0.110283 0.000068
0.977901 0.147297 0.000325
0.999614 0.183535 0.002390
0.996461 0.219862 0.000342
0.996907 0.254751 0.000695
1.000000 0.289965 0.003925
0.003197 0.091781 0.022533
0.003197 0.091316 0.023502
0.000865 0.089421 0.019953
0.005090 0.092212 0.018131
0.014727 0.096039 0.011886
0.047271 0.104036 0.015818
0.080942 0.113085 0.010926
0.130408 0.120762 0.004483
0.174109 0.119430 0.001053
0.212414 0.115828 0.000902
0.255029 0.113080 0.001700
0.294731 0.110166 0.001113
0.337416 0.106279 0.000635
0.380773 0.100282 0.000363
0.423804 0.094127 0.003500
0.467568 0.088137 0.004863
0.513458 0.079522 0.003955
0.558086 0.068899 0.002243
0.601270 0.060432 0.001067
0.644853 0.054822 0.001404
0.687771 0.049937 0.001506
0.732596 0.049691 0.003602
0.772582 0.057423 0.002778
0.810357 0.066566 0.002668
0.849262 0.080057 0.003893
0.883220 0.102580 0.001365
0.920246 0.132274 0.001122
0.950425 0.166454 0.000562
0.978240 0.193013 0.003329
0.996729 0.223787 0.001328
0.996228 0.253027 0.000043
0.999197 0.282311 0.000019
0.999380 0.316797 0.000618
0.000694 0.118285 0.026605
0.000694 0.118130 0.029215
0.002927 0.118279 0.026748
0.003705 0.118912 0.025955
0.003424 0.124236 0.021828
0.027944 0.127350 0.025565
0.065048 0.137543 0.016374
0.117124 0.149251 0.004679
0.172466 0.155299 0.003360
0.220893 0.153174 0.001125
0.263627 0.155647 0.001976
0.307162 0.150834 0.002632
0.349621 0.147468 0.001379
0.392273 0.144716 0.000281
0.435079 0.138483 0.001230
0.476249 0.133368 0.002404
0.519580 0.130382 0.002591
0.565080 0.126259 0.001374
0.607792 0.121458 0.000522
0.647582 0.118666 0.000989
0.687396 0.117761 0.001175
0.729608 0.119401 0.001875
0.772059 0.125243 0.001254
0.811527 0.133035 0.000761
0.851557 0.145843 0.002910
0.883690 0.167152 0.005047
0.918516 0.187342 0.001234
0.951924 0.210009 0.001044
0.982169 0.236185 0.003042
0.995918 0.262797 0.003357
0.993584 0.287927 0.000000
0.996968 0.317812 0.000000
0.999142 0.346595 0.000000
0.002174 0.153915 0.027466
0.000068 0.151787 0.026069
0.000923 0.151218 0.024808
0.001233 0.149649 0.029124
0.000692 0.150171 0.027697
0.008097 0.155979 0.023275
0.045269 0.166421 0.017963
0.100204 0.172443 0.009750
0.150724 0.185311 0.005615
0.213186 0.192146 0.002877
0.269448 0.200480 0.004118
0.315938 0.195660 0.002234
0.360027 0.191583 0.001555
0.403469 0.189647 0.002115
0.445135 0.184363 0.001990
0.484374 0.179649 0.001133
0.527332 0.176571 0.001244
0.572137 0.175126 0.001054
0.614965 0.174011 0.001048
0.655945 0.172255 0.001512
0.693645 0.173298 0.000293
0.733837 0.176979 0.000378
0.775456 0.182560 0.000215
0.816093 0.191148 0.000487
0.853901 0.203407 0.002520
0.885462 0.218116 0.003898
0.920590 0.234767 0.000673
0.951995 0.253592 0.003039
0.983136 0.275880 0.008037
0.995939 0.299304 0.001251
0.997143 0.323491 0.000000
0.998951 0.350412 0.000000
0.999779 0.377434 0.000000
0.001627 0.186630 0.025448
0.000051 0.186639 0.028708
0.000000 0.182611 0.028034
0.000093 0.183337 0.033010
0.001887 0.180851 0.033001
0.001175 0.185670 0.031388
0.021046 0.194747 0.024765
0.075174 0.200447 0.013405
0.130887 0.214504 0.004244
0.195512 0.225284 0.001156
0.262775 0.238876 0.002636
0.321046 0.242398 0.001196
0.370427 0.239652 0.000424
0.413688 0.237468 0.000760
0.456237 0.234296 0.001576
0.497922 0.231799 0.001785
0.538787 0.227744 0.001687
0.579873 0.223231 0.001023
0.622805 0.223395 0.000357
0.665680 0.224290 0.001143
0.704041 0.224279 0.002001
0.742315 0.227858 0.001727
0.781450 0.233872 0.000000
0.820512 0.242946 0.000721
0.858277 0.254898 0.002207
0.890250 0.266007 0.001069
0.923308 0.280833 0.001072
0.952295 0.297624 0.002659
0.981001 0.316536 0.004750
0.994251 0.338363 0.001919
0.999596 0.360389 0.000164
0.999878 0.385354 0.000025
0.997170 0.411254 0.000811
0.001213 0.218258 0.026588
0.000790 0.220459 0.030121
0.000049 0.218579 0.029264
0.000000 0.216831 0.031296
0.001512 0.218104 0.037009
0.000642 0.218509 0.036051
0.004778 0.225405 0.029362
0.051742 0.232433 0.018848
0.110658 0.246191 0.006722
0.173031 0.255901 0.001052
0.243344 0.269965 0.001188
0.311641 0.281808 0.001724
0.372341 0.286523 0.001899
0.422340 0.286854 0.001744
0.466327 0.283339 0.001069
0.510250 0.281004 0.000652
0.550533 0.278266 0.001040
0.590450 0.274790 0.001056
0.632298 0.274335 0.001756
0.671307 0.273893 0.003373
0.709217 0.273077 0.003351
0.747886 0.276003 0.002843
0.786495 0.283488 0.002385
0.820651 0.292253 0.001858
0.856778 0.302054 0.001600
0.891560 0.313389 0.001143
0.924266 0.326202 0.000840
0.955382 0.342265 0.000707
0.981528 0.357338 0.000899
0.996824 0.377646 0.001177
0.996086 0.396885 0.001631
0.999935 0.420266 0.000119
0.997910 0.441624 0.001213
0.003014 0.252990 0.030029
0.002876 0.253992 0.030913
0.000179 0.256195 0.031432
0.000000 0.253683 0.034791
0.003285 0.255068 0.037549
0.002598 0.252558 0.042040
0.002417 0.256014 0.037367
0.026042 0.264844 0.030111
0.088606 0.275997 0.015341
0.153528 0.285935 0.004427
0.219765 0.302602 0.000878
0.287588 0.315532 0.001915
0.357033 0.326983 0.001633
0.421064 0.336669 0.002406
0.472968 0.336316 0.001610
0.519730 0.330929 0.000996
0.561174 0.327100 0.002338
0.600180 0.325021 0.002288
0.640484 0.325059 0.002004
0.677292 0.325189 0.002926
0.713843 0.323689 0.002380
0.752748 0.324163 0.001046
0.790274 0.330509 0.001768
0.824274 0.340557 0.002391
0.860890 0.349174 0.001436
0.895307 0.358730 0.001886
0.925946 0.369992 0.002273
0.954967 0.384113 0.000921
0.980440 0.399608 0.001030
0.997893 0.417731 0.001713
0.997794 0.433974 0.000987
0.998402 0.455687 0.000999
0.997908 0.475169 0.002092
0.002983 0.293682 0.036274
0.001468 0.292267 0.034814
0.000089 0.293713 0.035261
0.000000 0.292087 0.040179
0.002981 0.289939 0.041091
0.001913 0.290289 0.049473
0.001311 0.290703 0.049976
0.007581 0.295254 0.039591
0.065665 0.307487 0.024706
0.135506 0.317718 0.011174
0.198992 0.332382 0.002328
0.265206 0.346133 0.002448
0.337080 0.359638 0.002579
0.406722 0.374537 0.002210
0.470457 0.382829 0.001763
0.525711 0.382032 0.001209
0.570360 0.379457 0.002119
0.609436 0.377804 0.002455
0.648084 0.375260 0.002376
0.686284 0.374704 0.002296
0.722771 0.375021 0.000651
0.758204 0.374231 0.000328
0.793581 0.380347 0.000985
0.826319 0.388941 0.001173
0.861344 0.394755 0.001265
0.894921 0.403498 0.000773
0.924904 0.416325 0.001177
0.954182 0.428448 0.000526
0.980191 0.442492 0.000579
0.996774 0.456570 0.000996
0.998440 0.472856 0.001572
0.996662 0.491012 0.003385
0.994529 0.512176 0.000950
0.000979 0.331226 0.041553
0.001347 0.331594 0.041973
0.000085 0.330437 0.041562
0.000000 0.329797 0.043589
0.000857 0.328629 0.045060
0.003476 0.326580 0.052683
0.003786 0.326572 0.057675
0.001789 0.328061 0.051552
0.040534 0.336639 0.038522
0.112448 0.348373 0.024719
0.181171 0.361036 0.011235
0.247157 0.374366 0.004162
0.313602 0.390310 0.003251
0.380494 0.404889 0.002397
0.450416 0.417227 0.001145
0.518723 0.427556 0.001326
0.575741 0.432244 0.001903
0.619719 0.432042 0.001548
0.657152 0.429255 0.001466
0.693407 0.426398 0.001971
0.728659 0.427452 0.001545
0.763857 0.429808 0.001192
0.799409 0.432746 0.001829
0.829865 0.438072 0.002573
0.862140 0.441291 0.002721
0.895035 0.447428 0.001260
0.925314 0.460254 0.001174
0.954463 0.472789 0.001972
0.980102 0.483847 0.000263
0.997171 0.497002 0.002099
0.999017 0.512051 0.002155
0.997398 0.529026 0.003267
0.994724 0.548514 0.000979
0.002215 0.367878 0.046345
0.003185 0.368848 0.047486
0.002277 0.367941 0.051218
0.001110 0.365871 0.052164
0.000124 0.366975 0.051320
0.004633 0.363848 0.056011
0.004266 0.364628 0.063429
0.002427 0.362739 0.060170
0.017087 0.365747 0.053476
0.084304 0.377567 0.043735
0.158815 0.391342 0.023237
0.224943 0.405992 0.008358
0.289893 0.421205 0.002840
0.357213 0.433763 0.001678
0.426696 0.447038 0.002547
0.498444 0.463756 0.002851
0.567166 0.477769 0.002110
0.622174 0.484413 0.001485
0.663374 0.483885 0.001682
0.699055 0.480439 0.002059
0.733716 0.481366 0.001660
0.769957 0.484192 0.001239
0.804973 0.484205 0.001034
0.836796 0.487895 0.002047
0.868546 0.492136 0.002409
0.896368 0.494526 0.000928
0.926525 0.503819 0.001213
0.954478 0.515326 0.003173
0.977875 0.524624 0.001189
0.996635 0.537265 0.002388
0.999826 0.550776 0.001039
0.999179 0.564834 0.003361
0.996063 0.582350 0.001940
0.001845 0.405467 0.053059
0.001845 0.405546 0.053296
0.001845 0.403466 0.058482
0.000925 0.400729 0.059763
0.000345 0.401590 0.058457
0.003476 0.401291 0.062926
0.003446 0.401340 0.072531
0.003171 0.394631 0.071226
0.003852 0.397156 0.069583
0.060088 0.407143 0.062204
0.138866 0.419732 0.042549
0.208137 0.435049 0.023383
0.272427 0.448759 0.008060
0.338513 0.462428 0.001466
0.407046 0.476394 0.001835
0.474870 0.493021 0.002386
0.544146 0.510663 0.001989
0.609652 0.525137 0.001865
0.663554 0.533034 0.002178
0.706464 0.534176 0.001627
0.742331 0.534129 0.000562
0.777041 0.534586 0.000655
0.808263 0.534737 0.000000
0.839203 0.536242 0.000384
0.870769 0.542347 0.001023
0.896277 0.544356 0.000000
0.925146 0.552120 0.000290
0.952202 0.558091 0.001590
0.974571 0.567153 0.001960
0.994951 0.577029 0.002668
0.999893 0.590199 0.001128
0.999942 0.600866 0.002971
0.998155 0.617164 0.003172
0.001007 0.442124 0.065659
0.001007 0.440350 0.063012
0.001007 0.438333 0.064658
0.001007 0.437165 0.067166
0.001902 0.435896 0.069643
0.002300 0.436219 0.073644
0.002710 0.435231 0.082037
0.003174 0.429534 0.084508
0.001587 0.429485 0.087700
0.039265 0.436711 0.080134
0.119627 0.446606 0.068096
0.193783 0.461491 0.050279
0.257616 0.475456 0.024875
0.321426 0.490042 0.006364
0.387565 0.504951 0.000501
0.451972 0.520888 0.000608
0.517776 0.537254 0.001549
0.586155 0.555459 0.001510
0.650578 0.572591 0.001040
0.705370 0.582218 0.001362
0.747761 0.585235 0.001226
0.781686 0.584395 0.000210
0.811481 0.584651 0.000119
0.841766 0.585113 0.000557
0.871098 0.589737 0.001007
0.897061 0.591407 0.000787
0.924870 0.598436 0.000000
0.949798 0.603686 0.000148
0.972008 0.611784 0.001190
0.993738 0.618808 0.002716
0.999818 0.630611 0.000950
0.998950 0.639456 0.001070
1.000000 0.652878 0.003036
0.001070 0.477893 0.077371
0.002054 0.474960 0.074434
0.001911 0.473135 0.075278
0.002820 0.473764 0.078450
0.002010 0.472366 0.084145
0.002480 0.472278 0.084373
0.001713 0.470335 0.090072
0.002225 0.467324 0.094127
0.002440 0.464161 0.101983
0.019037 0.466930 0.097629
0.095869 0.474852 0.090160
0.175869 0.488602 0.076278
0.242936 0.501671 0.050770
0.306438 0.516306 0.025777
0.368271 0.531852 0.008156
0.430778 0.547471 0.001280
0.495312 0.563330 0.001466
0.561369 0.582514 0.001485
0.626679 0.602116 0.001136
0.687933 0.618053 0.001531
0.741458 0.629962 0.001798
0.783333 0.633031 0.001089
0.815775 0.633480 0.000127
0.846211 0.633152 0.000442
0.874284 0.635152 0.000923
0.898099 0.637115 0.001629
0.924636 0.641863 0.000000
0.948177 0.648228 0.000000
0.970246 0.654337 0.000134
0.990956 0.661588 0.001065
0.998640 0.669121 0.001020
0.998885 0.676090 0.001106
1.000000 0.684973 0.001900
0.000000 0.512474 0.084082
0.001181 0.512280 0.085957
0.001010 0.509522 0.086518
0.002100 0.510443 0.089616
0.000277 0.509062 0.095681
0.001869 0.508612 0.092877
0.002081 0.506621 0.099217
0.001317 0.503307 0.106213
0.001501 0.501346 0.109976
0.005354 0.500208 0.110188
0.073711 0.504430 0.107256
0.159701 0.514648 0.096690
0.229199 0.527212 0.078672
0.290533 0.543338 0.056712
0.351151 0.559023 0.030841
0.412507 0.573905 0.009812
0.475523 0.589893 0.001698
0.540003 0.607770 0.001100
0.603424 0.625838 0.001219
0.664180 0.644553 0.001131
0.724136 0.663066 0.001748
0.777982 0.673664 0.002019
0.816080 0.678744 0.001111
0.846523 0.679627 0.002990
0.875129 0.680206 0.002318
0.898363 0.682883 0.001735
0.922639 0.685048 0.001001
0.946765 0.688575 0.000880
0.967025 0.694231 0.000219
0.986086 0.700699 0.000259
0.997361 0.705663 0.001343
1.000000 0.713367 0.003170
1.000000 0.720104 0.001997
0.000000 0.547790 0.095604
0.002138 0.549455 0.099086
0.001637 0.548022 0.097779
0.002150 0.548204 0.100761
0.001849 0.543004 0.106416
0.001327 0.542500 0.103525
0.001899 0.542955 0.108482
0.002059 0.540938 0.115812
0.001250 0.537956 0.115157
0.001087 0.536063 0.119942
0.056808 0.537135 0.124169
0.142847 0.543836 0.116851
0.215751 0.555585 0.104122
0.277409 0.571193 0.087683
0.339041 0.586787 0.064833
0.397897 0.601996 0.034717
0.457663 0.618259 0.010291
0.520483 0.634709 0.001410
0.582894 0.650882 0.000756
0.643236 0.668929 0.001502
0.702343 0.688064 0.002339
0.759856 0.703655 0.002283
0.805531 0.716170 0.003049
0.842940 0.723890 0.004563
0.873366 0.724382 0.003714
0.898459 0.725220 0.003638
0.922333 0.725363 0.001359
0.945452 0.728922 0.001259
0.961437 0.733692 0.000655
0.980799 0.735839 0.000197
0.994561 0.742538 0.000169
0.998511 0.750461 0.002658
1.000000 0.756746 0.001359
0.000526 0.583828 0.111778
0.003815 0.586204 0.112299
0.003046 0.584514 0.112245
0.003834 0.584829 0.112879
0.004032 0.578458 0.117391
0.002686 0.579048 0.115619
0.001464 0.580734 0.117960
0.002488 0.580168 0.121636
0.002981 0.575861 0.123241
0.001359 0.573714 0.130432
0.041907 0.573353 0.138251
0.125928 0.575954 0.133379
0.203663 0.585727 0.123778
0.267607 0.600345 0.112719
0.329429 0.613894 0.096355
0.387464 0.629737 0.071947
0.445471 0.646473 0.040371
0.505032 0.662132 0.015013
0.564607 0.678244 0.004201
0.624148 0.694336 0.001462
0.681368 0.711723 0.002061
0.737320 0.728688 0.003501
0.788376 0.744682 0.003414
0.833142 0.758014 0.000843
0.869025 0.761825 0.001749
0.896497 0.764261 0.004966
0.921938 0.765059 0.001287
0.942011 0.768883 0.001567
0.957634 0.769353 0.000840
0.975471 0.771514 0.000901
0.989589 0.777975 0.000400
0.996262 0.782730 0.000044
0.999474 0.785332 0.000000
0.001351 0.621643 0.123407
0.002246 0.624904 0.123098
0.001862 0.623854 0.124496
0.001834 0.623388 0.126643
0.002348 0.619781 0.127792
0.001519 0.618626 0.126388
0.001010 0.619997 0.131273
0.001502 0.618581 0.135250
0.002673 0.616900 0.136628
0.001472 0.614009 0.140614
0.027128 0.611165 0.145002
0.112324 0.609348 0.145076
0.193243 0.617438 0.140761
0.256525 0.631875 0.131890
0.318345 0.644231 0.119144
0.378576 0.658711 0.104780
0.437078 0.673811 0.082827
0.495120 0.688601 0.052200
0.551514 0.704704 0.025096
0.608166 0.720410 0.008335
0.664734 0.737158 0.002409
0.717809 0.752993 0.004040
0.769700 0.768197 0.002454
0.814909 0.781956 0.000372
0.857138 0.791418 0.001100
0.890952 0.799061 0.001954
0.918728 0.802519 0.002993
0.936449 0.803093 0.002599
0.955312 0.801854 0.000776
0.970431 0.806379 0.002411
0.988210 0.810163 0.000778
0.996556 0.812679 0.000106
0.998166 0.813678 0.000913
0.001728 0.663139 0.133453
0.003517 0.663221 0.136055
0.001935 0.664843 0.136139
0.002145 0.664172 0.140246
0.002145 0.659728 0.140459
0.001229 0.657216 0.139994
0.001796 0.658749 0.143708
0.000430 0.657106 0.147797
0.000519 0.656517 0.151247
0.001700 0.653857 0.154198
0.019649 0.651281 0.154673
0.101641 0.648520 0.159378
0.185083 0.651316 0.161084
0.249572 0.663290 0.155871
0.311063 0.676247 0.143759
0.371884 0.688158 0.132599
0.428580 0.701603 0.120119
0.485709 0.717693 0.100600
0.542235 0.732727 0.074004
0.595972 0.746019 0.043932
0.650624 0.762398 0.021822
0.700899 0.778058 0.009798
0.750128 0.790763 0.002258
0.795630 0.802237 0.000757
0.840020 0.814871 0.002020
0.880243 0.824473 0.000589
0.912688 0.831589 0.002292
0.931907 0.831647 0.000658
0.951202 0.834249 0.001592
0.966040 0.836391 0.003803
0.988171 0.837555 0.000364
0.997386 0.838533 0.000898
0.997469 0.841070 0.001825
0.003103 0.701849 0.153433
0.002820 0.701574 0.153158
0.000176 0.704467 0.152618
0.000735 0.704917 0.152840
0.004284 0.698685 0.155587
0.001136 0.700281 0.155273
0.002154 0.699135 0.157600
0.000751 0.697934 0.158266
0.000062 0.698616 0.165588
0.000990 0.694045 0.168911
0.017284 0.691234 0.167256
0.100904 0.688861 0.174259
0.184266 0.688026 0.177828
0.246681 0.696433 0.177066
0.307583 0.707987 0.173882
0.367779 0.719352 0.163234
0.423243 0.732434 0.152111
0.478178 0.745633 0.140972
0.532690 0.758680 0.121791
0.584140 0.772964 0.102122
0.636320 0.787368 0.079492
0.688117 0.800242 0.047123
0.738795 0.812501 0.025816
0.784990 0.823859 0.014630
0.826111 0.834004 0.008660
0.865843 0.842280 0.001717
0.901905 0.852255 0.001860
0.928972 0.858942 0.001385
0.949058 0.862459 0.002418
0.963578 0.862233 0.004905
0.984341 0.860545 0.000525
0.996564 0.862995 0.002723
0.998377 0.864425 0.000000
0.002953 0.743149 0.172096
0.002199 0.742203 0.171150
0.000136 0.745127 0.169911
0.000000 0.746008 0.170514
0.001582 0.744990 0.170592
0.001937 0.740091 0.171276
0.000727 0.739038 0.178450
0.000961 0.739517 0.176584
0.000654 0.739325 0.181591
0.001545 0.737699 0.184387
0.020180 0.735375 0.185203
0.110777 0.730253 0.192617
0.194276 0.728740 0.197325
0.251158 0.733611 0.199807
0.308359 0.741113 0.198058
0.366345 0.751452 0.185513
0.420566 0.763119 0.178264
0.474342 0.775200 0.173977
0.527859 0.786880 0.162648
0.578893 0.798688 0.152473
0.628320 0.811593 0.140894
0.676561 0.822229 0.125270
0.726282 0.834157 0.101656
0.773365 0.844570 0.073118
0.814167 0.852257 0.051670
0.853030 0.861162 0.029218
0.886719 0.868416 0.017980
0.915993 0.879628 0.007923
0.939889 0.885706 0.001518
0.962131 0.887779 0.001382
0.980209 0.885479 0.000205
0.993348 0.885262 0.002291
1.000000 0.883866 0.000000
0.000167 0.782161 0.191498
0.000329 0.781653 0.190990
0.000021 0.782129 0.191466
0.001252 0.781532 0.191498
0.000173 0.783444 0.195791
0.006477 0.779225 0.195685
0.002563 0.778314 0.197855
0.001685 0.779542 0.197333
0.002078 0.778125 0.201725
0.002145 0.778103 0.207591
0.033026 0.775362 0.208647
0.127910 0.772278 0.212623
0.208305 0.769230 0.218465
0.261720 0.768786 0.223546
0.315918 0.772918 0.222534
0.371863 0.783419 0.213494
0.424763 0.793494 0.209320
0.476944 0.803761 0.209528
0.528938 0.815117 0.204557
0.578210 0.824267 0.197603
0.626440 0.835681 0.189242
0.674811 0.844915 0.179080
0.719872 0.852315 0.168847
0.760719 0.863089 0.157291
0.800695 0.871740 0.146365
0.835657 0.881712 0.121378
0.871740 0.887032 0.093637
0.904449 0.894810 0.058184
0.932270 0.900746 0.035643
0.957485 0.906273 0.029962
0.977367 0.907602 0.020780
0.990176 0.907585 0.019015
1.000000 0.907074 0.019460
0.002090 0.821821 0.219862
0.002092 0.822056 0.219974
0.000823 0.821369 0.218131
0.004721 0.819656 0.218137
0.001182 0.819853 0.219645
0.004950 0.819646 0.219436
0.001079 0.819309 0.217576
0.001217 0.818422 0.223018
0.002082 0.815960 0.230555
0.010535 0.815730 0.233286
0.079353 0.812048 0.235568
0.168294 0.810049 0.238713
0.233680 0.809387 0.243312
0.283644 0.808638 0.248229
0.330941 0.809156 0.249900
0.382004 0.815775 0.250588
0.432368 0.824847 0.249445
0.482500 0.833410 0.245541
0.533496 0.841910 0.241952
0.581412 0.849642 0.235768
0.629482 0.859537 0.230341
0.674744 0.868756 0.230025
0.716793 0.874790 0.224677
0.758766 0.882889 0.220509
0.797526 0.891777 0.213952
0.828818 0.899162 0.198885
