ml_luts/presetpro_fashion_film__lut3d_33.cube
TITLE "Presetpro - Fashion Film.jpg"
DOMAIN_MIN 0.000000 0.000000 0.000000
DOMAIN_MAX 1.000000 1.000000 1.000000
LUT_3D_SIZE 5
0.000000 0.000000 0.000000
0.190949 0.009582 0.001739
0.492218 0.000946 0.000000
0.785515 0.000763 0.000763
0.996063 0.000000 0.000000
0.001198 0.256851 0.056190
0.230765 0.244201 0.039427
0.538765 0.232567 0.001751
0.806333 0.236721 0.000959
0.997047 0.270806 0.000221
0.003921 0.585266 0.173492
0.248585 0.578606 0.153934
0.573463 0.566574 0.147560
0.821045 0.542175 0.016289
0.998047 0.541169 0.001007
0.303940 0.799347 0.385918
0.418648 0.796579 0.379896
0.631248 0.786568 0.354119
0.833122 0.786371 0.373858
1.000000 0.777023 0.363289
0.682343 0.984314 0.678436
0.711091 0.989204 0.683098
0.794052 0.987289 0.674515
0.906876 0.988441 0.686943
1.000000 0.992157 0.729401
0.016449 0.000976 0.195527
0.195469 0.002197 0.183096
0.510612 0.001144 0.164150
0.795068 0.001495 0.130301
0.999237 0.045540 0.002174
0.000156 0.239660 0.267626
0.230915 0.253482 0.261214
0.546667 0.242674 0.216687
0.810843 0.240171 0.147587
0.997713 0.275212 0.002226
0.000729 0.597729 0.344582
0.236353 0.591963 0.330686
0.576380 0.573864 0.322836
0.824816 0.551030 0.240980
0.996456 0.539783 0.062012
0.321304 0.801500 0.475878
0.425107 0.798463 0.468651
0.629607 0.788119 0.441899
0.832583 0.785967 0.455566
0.999372 0.782938 0.442938
0.674500 0.988220 0.708290
0.706266 0.987825 0.708353
0.786633 0.987385 0.700409
0.904154 0.989853 0.706552
0.997826 0.993889 0.740952
0.001007 0.001007 0.476471
0.254806 0.000629 0.469212
0.529785 0.001892 0.458695
0.818764 0.001839 0.452476
0.997101 0.000946 0.375534
0.004116 0.185551 0.520432
0.259495 0.203905 0.515471
0.563288 0.220389 0.499054
0.821874 0.282219 0.479763
0.998112 0.292774 0.416336
0.001922 0.563317 0.576843
0.222258 0.572302 0.580244
0.590202 0.598381 0.587162
0.820787 0.570908 0.532946
0.998009 0.544586 0.448578
0.285454 0.806408 0.638294
0.404696 0.805226 0.636440
0.630661 0.797472 0.627916
0.827123 0.790505 0.621378
0.999512 0.784835 0.579567
0.625550 0.995117 0.759842
0.676865 0.991482 0.769020
0.768120 0.991646 0.765114
0.892540 0.992661 0.758884
0.998993 0.996002 0.789307
0.144134 0.003929 0.720588
0.340485 0.000732 0.723375
0.612301 0.001213 0.717342
0.854248 0.002697 0.712761
0.999023 0.199013 0.693992
0.182575 0.111786 0.739077
0.345877 0.095831 0.735890
0.617765 0.060934 0.730960
0.855431 0.128633 0.727409
0.995657 0.397936 0.706339
0.003235 0.470745 0.759884
0.180175 0.476457 0.759371
0.592468 0.518866 0.758713
0.839733 0.557286 0.754191
0.999367 0.612018 0.737274
0.252166 0.772331 0.796801
0.381511 0.774531 0.794999
0.608629 0.785422 0.800822
0.837806 0.812049 0.810481
0.998528 0.782789 0.754921
0.538452 0.998482 0.870156
0.579733 0.999184 0.871054
0.689964 0.998184 0.860527
0.859762 0.997086 0.857107
1.000000 0.999779 0.868630
0.352936 0.000000 0.968628
0.471344 0.000000 0.967873
0.701019 0.000946 0.964768
0.939995 0.000763 0.953919
0.996063 0.003937 0.949005
0.411545 0.002174 0.970047
0.511982 0.000709 0.972830
0.717567 0.000961 0.964523
0.947415 0.000599 0.963215
0.999016 0.000984 0.948792
0.263290 0.403794 0.978424
0.417763 0.413292 0.978046
0.665215 0.415214 0.977508
0.908139 0.430767 0.966694
0.999054 0.476532 0.956864
0.004555 0.732811 0.994873
0.204752 0.728615 0.990826
0.502548 0.722519 0.989731
0.828972 0.738775 0.976757
0.997826 0.763733 0.964912
0.513733 0.972534 1.000000
0.553695 0.973740 0.997826
0.656937 0.980377 0.998108
0.813743 0.989204 0.999245
1.000000 1.000000 1.000000
