ml_luts/presetpro_color_400__lut3d_33.cube
TITLE "Presetpro - Color 400.jpg"
DOMAIN_MIN 0.000000 0.000000 0.000000
DOMAIN_MAX 1.000000 1.000000 1.000000
LUT_3D_SIZE 5
0.023376 0.086761 0.066742
0.144493 0.092880 0.069718
0.405869 0.090103 0.060913
0.801865 0.000000 0.007515
1.000000 0.156860 0.003357
0.023353 0.174713 0.084068
0.133686 0.198153 0.070622
0.429749 0.211151 0.037853
0.811670 0.231634 0.003015
0.999809 0.312744 0.000000
0.002487 0.406616 0.118546
0.083012 0.409126 0.119949
0.477425 0.539643 0.002869
0.861862 0.575130 0.000641
0.999192 0.550003 0.000808
0.126694 0.748993 0.299141
0.270870 0.745485 0.307295
0.505306 0.781163 0.299217
0.819429 0.840223 0.231592
0.999352 0.838256 0.024505
0.654083 0.943268 0.660767
0.702461 0.949097 0.665954
0.776169 0.947464 0.671646
0.853271 0.958671 0.668060
0.953278 0.963287 0.637421
0.033562 0.094085 0.165359
0.143009 0.100481 0.169840
0.416740 0.071705 0.177868
0.827234 0.001810 0.179235
0.998146 0.143966 0.173042
0.014477 0.195711 0.174986
0.157219 0.207680 0.183536
0.467632 0.212510 0.179017
0.837142 0.212372 0.160305
0.998522 0.303863 0.132608
0.002323 0.453877 0.255036
0.172027 0.449496 0.253262
0.502699 0.545237 0.215075
0.857558 0.543061 0.040770
0.999271 0.541618 0.038216
0.244839 0.762962 0.428699
0.349141 0.757166 0.435663
0.531858 0.777004 0.434093
0.821771 0.842343 0.419744
0.999193 0.832779 0.282957
0.667641 0.946785 0.711357
0.714378 0.947562 0.713676
0.781204 0.946465 0.724670
0.859064 0.957092 0.719597
0.955781 0.963935 0.695328
0.001678 0.097657 0.459030
0.175663 0.101349 0.461296
0.465355 0.086739 0.479088
0.809853 0.003914 0.507789
0.999146 0.164398 0.528305
0.002376 0.206661 0.489632
0.154804 0.219128 0.494407
0.497513 0.241827 0.504547
0.831278 0.264177 0.527945
0.998501 0.343529 0.536560
0.001244 0.505432 0.518844
0.166371 0.519270 0.526652
0.547592 0.550026 0.560055
0.856476 0.560883 0.548475
0.999542 0.594772 0.546661
0.423405 0.791885 0.636635
0.512135 0.792422 0.644243
0.623081 0.788145 0.639620
0.832352 0.842334 0.655589
0.999714 0.818874 0.563866
0.686584 0.948258 0.785385
0.730465 0.950951 0.785778
0.793693 0.949906 0.792831
0.868893 0.957222 0.795982
0.954895 0.964157 0.786194
0.046394 0.091210 0.793183
0.298967 0.080988 0.798839
0.595131 0.091957 0.800549
0.855700 0.205198 0.804752
0.999809 0.376259 0.797173
0.019057 0.235039 0.802559
0.294440 0.241361 0.803489
0.603201 0.283859 0.805059
0.858029 0.383943 0.811219
0.999537 0.505133 0.800945
0.002743 0.497345 0.806584
0.105884 0.505816 0.805301
0.601656 0.562340 0.811939
0.847306 0.637740 0.816680
0.995697 0.699993 0.813430
0.377859 0.815754 0.807842
0.481416 0.817621 0.808245
0.668296 0.821498 0.816257
0.847635 0.835909 0.830451
0.987703 0.839390 0.823259
0.711006 0.953469 0.866791
0.760727 0.952770 0.871763
0.820091 0.953800 0.875172
0.882628 0.954222 0.880104
0.962258 0.962463 0.879509
0.470551 0.313690 0.983307
0.562019 0.336037 0.983490
0.725189 0.413818 0.973251
0.880997 0.538330 0.963935
0.996643 0.617371 0.956604
0.485092 0.440850 0.979225
0.576221 0.460344 0.975719
0.732124 0.522972 0.971931
0.878670 0.619719 0.967201
0.989807 0.684479 0.958107
0.487915 0.627563 0.970841
0.585369 0.645462 0.972336
0.733207 0.683105 0.965363
0.873219 0.739056 0.959617
0.976684 0.781998 0.954895
0.508735 0.811096 0.970428
0.576675 0.812386 0.966886
0.699372 0.812542 0.965309
0.865217 0.853457 0.961439
0.968925 0.879509 0.958298
0.710815 0.959961 0.959961
0.755569 0.959496 0.962829
0.816162 0.960770 0.954941
0.888115 0.959122 0.958534
0.969940 0.966614 0.959961
