ml_luts/presetpro_pastel_morning__lut3d_33.cube
TITLE "Presetpro - Pastel Morning"
DOMAIN_MIN 0.000000 0.000000 0.000000
DOMAIN_MAX 1.000000 1.000000 1.000000
LUT_3D_SIZE 5
0.031372 0.035309 0.043152
0.135605 0.041947 0.038025
0.436233 0.002014 0.010819
0.746841 0.003716 0.000442
1.000000 0.164703 0.007843
0.000221 0.135063 0.053917
0.140299 0.172762 0.023466
0.494339 0.192558 0.000618
0.777691 0.216307 0.001865
0.996071 0.298470 0.000000
0.000000 0.441177 0.142197
0.002407 0.438969 0.144153
0.436271 0.523491 0.000572
0.817459 0.543717 0.000252
1.000000 0.516648 0.001007
0.019745 0.706878 0.338455
0.166533 0.708652 0.347864
0.406346 0.726921 0.323829
0.720369 0.769834 0.207804
1.000000 0.795868 0.011955
0.603912 0.925476 0.725494
0.624816 0.925476 0.717964
0.678436 0.927521 0.735291
0.764724 0.952950 0.713417
0.913727 0.972534 0.639221
0.018189 0.029198 0.162506
0.172253 0.022173 0.165390
0.467758 0.001465 0.162838
0.758402 0.001684 0.174780
0.996826 0.191185 0.180817
0.004185 0.178509 0.188736
0.197975 0.191966 0.198977
0.506915 0.199879 0.194339
0.783505 0.229051 0.182371
0.999456 0.314871 0.179877
0.092674 0.478928 0.299553
0.173049 0.477859 0.278117
0.482178 0.534891 0.229175
0.820687 0.533514 0.170617
0.999874 0.525841 0.182854
0.242985 0.719788 0.436438
0.311887 0.717950 0.437733
0.458462 0.726669 0.430917
0.734125 0.772377 0.359614
0.999622 0.792887 0.291609
0.621795 0.922547 0.739219
0.641605 0.927481 0.742455
0.693359 0.929028 0.756809
0.771557 0.952179 0.743442
0.913506 0.977013 0.686486
0.001892 0.044220 0.487213
0.251911 0.035625 0.497810
0.576363 0.034485 0.510246
0.802280 0.165336 0.471192
1.000000 0.232376 0.447189
0.001247 0.240040 0.505325
0.254077 0.243555 0.514608
0.582201 0.290730 0.525530
0.803188 0.335461 0.489928
0.998234 0.340691 0.459137
0.091179 0.533401 0.523094
0.311583 0.541120 0.531444
0.574036 0.560039 0.558773
0.799504 0.549454 0.526806
0.989586 0.558823 0.502434
0.495781 0.744149 0.646408
0.545221 0.743986 0.652139
0.592216 0.739038 0.636280
0.762940 0.777136 0.614094
0.998375 0.780788 0.576164
0.686340 0.929413 0.802979
0.688904 0.931255 0.798413
0.720612 0.936752 0.802910
0.794312 0.949387 0.802147
0.924530 0.974518 0.764771
0.144569 0.156868 0.796089
0.352489 0.179624 0.799770
0.640679 0.262520 0.806713
0.858424 0.377203 0.807621
0.980614 0.483566 0.766891
0.190668 0.328964 0.800588
0.374214 0.346059 0.805000
0.639046 0.407111 0.808479
0.850955 0.487558 0.814234
0.969980 0.554785 0.777927
0.157505 0.573963 0.789681
0.354382 0.577836 0.797340
0.625980 0.603914 0.809622
0.833879 0.651889 0.819238
0.967224 0.676315 0.802578
0.484238 0.772361 0.804287
0.538667 0.774416 0.807243
0.665001 0.778082 0.814434
0.816299 0.790474 0.828414
0.975050 0.775099 0.797207
0.721871 0.943367 0.877892
0.738115 0.944817 0.878517
0.787560 0.946030 0.884125
0.831510 0.950373 0.881659
0.950005 0.978645 0.862534
0.556854 0.501953 0.984314
0.609252 0.518860 0.982040
0.748062 0.563751 0.977539
0.894883 0.635513 0.972557
1.000000 0.678436 0.968628
0.575493 0.570793 0.977890
0.629604 0.581455 0.976389
0.752537 0.616512 0.974472
0.894619 0.672191 0.972736
1.000000 0.709579 0.966011
0.591949 0.688110 0.975403
0.631672 0.691349 0.976112
0.749527 0.708786 0.977859
0.890812 0.745350 0.972965
0.998993 0.779449 0.970520
0.593155 0.825272 0.974297
0.618358 0.824475 0.976036
0.702435 0.822799 0.977696
0.859434 0.832562 0.977833
0.994323 0.869385 0.977440
0.721558 0.972534 0.976471
0.737244 0.971023 0.973297
0.790130 0.972549 0.974579
0.871567 0.973518 0.978211
0.980377 0.980377 0.988220
